; generated by Slic3r 1.2.9 on 2019-04-04 at 21:48:51

; external perimeters extrusion width = 0.35mm
; perimeters extrusion width = 0.39mm
; infill extrusion width = 0.39mm
; solid infill extrusion width = 0.39mm
; top infill extrusion width = 0.39mm

M107 ; disable fan
M104 S205 ; set temperature
G28 ; home all axes
G1 Z5 F5000 ; lift nozzle

M109 S205 ; wait for temperature to be reached
G21 ; set units to millimeters
G90 ; use absolute coordinates
M82 ; use absolute distances for extrusion
G92 E0 ; reset extrusion distance
; layer 0,  Z = 0.35
G1 Z0.350 F7800.000 ; move to next layer (0)
G1 E-1.00000 F2400.00000 ; retract
G92 E0 ; reset extrusion distance
G1 X89.915 Y90.753 F7800.000 ; move to first skirt point
G1 E1.00000 F2400.00000 ; unretract
G1 X91.668 Y89.274 E1.07096 F1800.000 ; skirt
G1 X93.820 Y88.481 E1.14192 ; skirt
G1 X95.000 Y88.375 E1.17858 ; skirt
G1 X105.000 Y88.375 E1.48799 ; skirt
G1 X107.259 Y88.772 E1.55895 ; skirt
G1 X109.247 Y89.915 E1.62991 F1800.000 ; skirt
G1 X110.726 Y91.668 E1.70088 ; skirt
G1 X111.519 Y93.820 E1.77184 ; skirt
G1 X111.625 Y95.000 E1.80849 ; skirt
G1 X111.625 Y105.000 E2.11790 ; skirt
G1 X111.228 Y107.259 E2.18886 ; skirt
G1 X110.085 Y109.247 E2.25983 ; skirt
G1 X108.332 Y110.726 E2.33079 ; skirt
G1 X106.180 Y111.519 E2.40175 ; skirt
G1 X105.000 Y111.625 E2.43840 ; skirt
G1 X95.000 Y111.625 E2.74782 ; skirt
G1 X92.741 Y111.228 E2.81878 ; skirt
G1 X90.753 Y110.085 E2.88974 ; skirt
G1 X89.274 Y108.332 E2.96070 ; skirt
G1 X88.481 Y106.180 E3.03167 ; skirt
G1 X88.375 Y105.000 E3.06832 ; skirt
G1 X88.375 Y95.000 E3.37773 ; skirt
G1 X88.772 Y92.741 E3.44869 ; skirt
G1 X89.889 Y90.799 E3.51803 ; skirt
G1 E2.51803 F2400.00000 ; retract
G92 E0 ; reset extrusion distance
G1 X103.400 Y103.400 F7800.000 ; move to first perimeter point
G1 E1.00000 F2400.00000 ; unretract
G1 X96.600 Y103.400 E1.21041 F1800.000 ; perimeter
G1 X96.600 Y96.600 E1.42083 ; perimeter
G1 X103.400 Y96.600 E1.63124 ; perimeter
G1 X103.400 Y103.348 E1.84003 ; perimeter
G1 X104.025 Y104.025 F7800.000 ; move to first perimeter point
G1 X95.975 Y104.025 E2.08912 F1800.000 ; perimeter
G1 X95.975 Y95.975 E2.33820 ; perimeter
G1 X104.025 Y95.975 E2.58729 ; perimeter
G1 X104.025 Y103.973 E2.83475 ; perimeter
G1 X104.650 Y104.650 F7800.000 ; move to first perimeter point
G1 X95.350 Y104.650 E3.12250 F1800.000 ; perimeter
G1 X95.350 Y95.350 E3.41026 ; perimeter
G1 X104.650 Y95.350 E3.69801 ; perimeter
G1 X104.650 Y104.597 E3.98414 ; perimeter
G1 X104.347 Y104.475 F7800.000 ; move inwards before travel
G1 X103.022 Y97.283 F7800.000 ; move to first infill point
G1 X102.717 Y96.978 E3.99859 F1800.000 ; infill
G1 X101.760 Y96.978 E4.03061 ; infill
G1 X103.022 Y98.240 E4.09035 ; infill
G1 X103.022 Y99.196 E4.12237 ; infill
G1 X100.804 Y96.978 E4.22740 ; infill
G1 X99.847 Y96.978 E4.25942 ; infill
G1 X103.022 Y100.153 E4.40973 ; infill
G1 X103.022 Y101.109 E4.44175 ; infill
G1 X98.891 Y96.978 E4.63735 ; infill
G1 X97.935 Y96.978 E4.66938 ; infill
G1 X103.022 Y102.065 E4.91027 ; infill
G1 X103.002 Y103.002 E4.94163 ; infill
G1 X96.998 Y96.998 E5.22591 ; infill
G1 X96.978 Y97.935 E5.25727 ; infill
G1 X102.065 Y103.022 E5.49815 ; infill
G1 X101.109 Y103.022 E5.53018 ; infill
G1 X96.978 Y98.891 E5.72578 ; infill
G1 X96.978 Y99.847 E5.75780 ; infill
G1 X100.153 Y103.022 E5.90811 ; infill
G1 X99.196 Y103.022 E5.94014 ; infill
G1 X96.978 Y100.804 E6.04516 ; infill
G1 X96.978 Y101.760 E6.07718 ; infill
G1 X98.240 Y103.022 E6.13692 ; infill
G1 X97.283 Y103.022 E6.16894 ; infill
G1 X96.978 Y102.717 E6.18339 ; infill
M104 S200 ; set temperature
; layer 1,  Z = 0.65
G1 Z0.650 F7800.000 ; move to next layer (1)
G1 X104.201 Y104.201 F7800.000 ; move to first perimeter point
G1 X95.799 Y104.201 E6.29775 F900.000 ; perimeter
G1 X95.799 Y95.799 E6.41212 ; perimeter
G1 X104.201 Y95.799 E6.52648 ; perimeter
G1 X104.201 Y104.149 E6.64013 ; perimeter
G1 X104.522 Y104.522 F7800.000 ; move to first perimeter point
G1 X95.478 Y104.522 E6.76323 F900.000 ; perimeter
G1 X95.478 Y95.478 E6.88632 ; perimeter
G1 X104.522 Y95.478 E7.00942 ; perimeter
G1 X104.522 Y104.469 E7.13180 ; perimeter
G1 X104.825 Y104.825 F7800.000 ; move to first perimeter point
G1 X95.175 Y104.825 E7.24877 F900.000 ; perimeter
G1 X95.175 Y95.175 E7.36575 ; perimeter
G1 X104.825 Y95.175 E7.48273 ; perimeter
G1 X104.825 Y104.772 E7.59907 ; perimeter
G1 X104.522 Y104.650 F7800.000 ; move inwards before travel
G1 X103.841 Y104.017 F7800.000 ; move to first infill point
G1 X104.017 Y103.841 E7.60253 F1200.000 ; infill
G1 X104.017 Y103.378 E7.60894 ; infill
G1 X103.378 Y104.017 E7.62146 ; infill
G1 X102.916 Y104.017 E7.62787 ; infill
G1 X104.017 Y102.916 E7.64945 ; infill
G1 X104.017 Y102.454 E7.65586 ; infill
G1 X102.454 Y104.017 E7.68651 ; infill
G1 X101.992 Y104.017 E7.69292 ; infill
G1 X104.017 Y101.992 E7.73264 ; infill
G1 X104.017 Y101.530 E7.73905 ; infill
G1 X101.530 Y104.017 E7.78784 ; infill
G1 X101.067 Y104.017 E7.79425 ; infill
G1 X104.017 Y101.067 E7.85210 ; infill
G1 X104.017 Y100.605 E7.85851 ; infill
G1 X100.605 Y104.017 E7.92542 ; infill
G1 X100.143 Y104.017 E7.93183 ; infill
G1 X104.017 Y100.143 E8.00782 ; infill
G1 X104.017 Y99.681 E8.01423 ; infill
G1 X99.681 Y104.017 E8.09928 ; infill
G1 X99.219 Y104.017 E8.10569 ; infill
G1 X104.017 Y99.219 E8.19980 ; infill
G1 X104.017 Y98.757 E8.20621 ; infill
G1 X98.757 Y104.017 E8.30939 ; infill
G1 X98.294 Y104.017 E8.31580 ; infill
G1 X104.017 Y98.294 E8.42805 ; infill
G1 X104.017 Y97.832 E8.43446 ; infill
G1 X97.832 Y104.017 E8.55577 ; infill
G1 X97.370 Y104.017 E8.56218 ; infill
G1 X104.017 Y97.370 E8.69256 ; infill
G1 X104.017 Y96.908 E8.69897 ; infill
G1 X96.908 Y104.017 E8.83841 ; infill
G1 X96.446 Y104.017 E8.84482 ; infill
G1 X104.017 Y96.446 E8.99333 ; infill
G1 X103.997 Y96.003 E8.99947 ; infill
G1 X96.003 Y103.997 E9.15627 ; infill
G1 X95.983 Y103.554 E9.16241 ; infill
G1 X103.554 Y95.983 E9.31092 ; infill
G1 X103.092 Y95.983 E9.31733 ; infill
G1 X95.983 Y103.092 E9.45677 ; infill
G1 X95.983 Y102.630 E9.46318 ; infill
G1 X102.630 Y95.983 E9.59356 ; infill
G1 X102.168 Y95.983 E9.59997 ; infill
G1 X95.983 Y102.168 E9.72128 ; infill
G1 X95.983 Y101.706 E9.72769 ; infill
G1 X101.706 Y95.983 E9.83994 ; infill
G1 X101.243 Y95.983 E9.84635 ; infill
G1 X95.983 Y101.243 E9.94953 ; infill
G1 X95.983 Y100.781 E9.95594 ; infill
G1 X100.781 Y95.983 E10.05005 ; infill
G1 X100.319 Y95.983 E10.05646 ; infill
G1 X95.983 Y100.319 E10.14151 ; infill
G1 X95.983 Y99.857 E10.14792 ; infill
G1 X99.857 Y95.983 E10.22390 ; infill
G1 X99.395 Y95.983 E10.23031 ; infill
G1 X95.983 Y99.395 E10.29723 ; infill
G1 X95.983 Y98.933 E10.30364 ; infill
G1 X98.933 Y95.983 E10.36149 ; infill
G1 X98.470 Y95.983 E10.36790 ; infill
G1 X95.983 Y98.470 E10.41668 ; infill
G1 X95.983 Y98.008 E10.42310 ; infill
G1 X98.008 Y95.983 E10.46281 ; infill
G1 X97.546 Y95.983 E10.46922 ; infill
G1 X95.983 Y97.546 E10.49987 ; infill
G1 X95.983 Y97.084 E10.50629 ; infill
G1 X97.084 Y95.983 E10.52787 ; infill
G1 X96.622 Y95.983 E10.53428 ; infill
G1 X95.983 Y96.622 E10.54680 ; infill
G1 X95.983 Y96.159 E10.55321 ; infill
G1 X96.159 Y95.983 E10.55666 ; infill
; layer 2,  Z = 0.95
G1 Z0.950 F7800.000 ; move to next layer (2)
G1 X104.201 Y104.201 F7800.000 ; move to first perimeter point
G1 X95.799 Y104.201 E10.67103 F900.000 ; perimeter
G1 X95.799 Y95.799 E10.78539 ; perimeter
G1 X104.201 Y95.799 E10.89976 ; perimeter
G1 X104.201 Y104.149 E11.01341 ; perimeter
G1 X104.522 Y104.522 F7800.000 ; move to first perimeter point
G1 X95.478 Y104.522 E11.13650 F900.000 ; perimeter
G1 X95.478 Y95.478 E11.25960 ; perimeter
G1 X104.522 Y95.478 E11.38269 ; perimeter
G1 X104.522 Y104.469 E11.50507 ; perimeter
G1 X104.825 Y104.825 F7800.000 ; move to first perimeter point
G1 X95.175 Y104.825 E11.62205 F900.000 ; perimeter
G1 X95.175 Y95.175 E11.73903 ; perimeter
G1 X104.825 Y95.175 E11.85600 ; perimeter
G1 X104.825 Y104.772 E11.97235 ; perimeter
G1 X104.522 Y104.650 F7800.000 ; move inwards before travel
G1 X104.017 Y96.159 F7800.000 ; move to first infill point
G1 X103.841 Y95.983 E11.97580 F1200.000 ; infill
G1 X103.378 Y95.983 E11.98221 ; infill
G1 X104.017 Y96.622 E11.99473 ; infill
G1 X104.017 Y97.084 E12.00114 ; infill
G1 X102.916 Y95.983 E12.02273 ; infill
G1 X102.454 Y95.983 E12.02914 ; infill
G1 X104.017 Y97.546 E12.05979 ; infill
G1 X104.017 Y98.008 E12.06620 ; infill
G1 X101.992 Y95.983 E12.10592 ; infill
G1 X101.530 Y95.983 E12.11233 ; infill
G1 X104.017 Y98.470 E12.16111 ; infill
G1 X104.017 Y98.933 E12.16752 ; infill
G1 X101.067 Y95.983 E12.22537 ; infill
G1 X100.605 Y95.983 E12.23178 ; infill
G1 X104.017 Y99.395 E12.29870 ; infill
G1 X104.017 Y99.857 E12.30511 ; infill
G1 X100.143 Y95.983 E12.38109 ; infill
G1 X99.681 Y95.983 E12.38750 ; infill
G1 X104.017 Y100.319 E12.47255 ; infill
G1 X104.017 Y100.781 E12.47896 ; infill
G1 X99.219 Y95.983 E12.57307 ; infill
G1 X98.757 Y95.983 E12.57949 ; infill
G1 X104.017 Y101.243 E12.68267 ; infill
G1 X104.017 Y101.706 E12.68908 ; infill
G1 X98.294 Y95.983 E12.80132 ; infill
G1 X97.832 Y95.983 E12.80773 ; infill
G1 X104.017 Y102.168 E12.92904 ; infill
G1 X104.017 Y102.630 E12.93546 ; infill
G1 X97.370 Y95.983 E13.06583 ; infill
G1 X96.908 Y95.983 E13.07224 ; infill
G1 X104.017 Y103.092 E13.21169 ; infill
G1 X104.017 Y103.554 E13.21810 ; infill
G1 X96.446 Y95.983 E13.36661 ; infill
G1 X96.003 Y96.003 E13.37275 ; infill
G1 X103.997 Y103.997 E13.52954 ; infill
G1 X103.554 Y104.017 E13.53568 ; infill
G1 X95.983 Y96.446 E13.68419 ; infill
G1 X95.983 Y96.908 E13.69060 ; infill
G1 X103.092 Y104.017 E13.83004 ; infill
G1 X102.630 Y104.017 E13.83646 ; infill
G1 X95.983 Y97.370 E13.96683 ; infill
G1 X95.983 Y97.832 E13.97324 ; infill
G1 X102.168 Y104.017 E14.09456 ; infill
G1 X101.706 Y104.017 E14.10097 ; infill
G1 X95.983 Y98.294 E14.21321 ; infill
G1 X95.983 Y98.757 E14.21962 ; infill
G1 X101.243 Y104.017 E14.32280 ; infill
G1 X100.781 Y104.017 E14.32921 ; infill
G1 X95.983 Y99.219 E14.42333 ; infill
G1 X95.983 Y99.681 E14.42974 ; infill
G1 X100.319 Y104.017 E14.51479 ; infill
G1 X99.857 Y104.017 E14.52120 ; infill
G1 X95.983 Y100.143 E14.59718 ; infill
G1 X95.983 Y100.605 E14.60359 ; infill
G1 X99.395 Y104.017 E14.67050 ; infill
G1 X98.933 Y104.017 E14.67692 ; infill
G1 X95.983 Y101.067 E14.73476 ; infill
G1 X95.983 Y101.530 E14.74118 ; infill
G1 X98.470 Y104.017 E14.78996 ; infill
G1 X98.008 Y104.017 E14.79637 ; infill
G1 X95.983 Y101.992 E14.83609 ; infill
G1 X95.983 Y102.454 E14.84250 ; infill
G1 X97.546 Y104.017 E14.87315 ; infill
G1 X97.084 Y104.017 E14.87956 ; infill
G1 X95.983 Y102.916 E14.90115 ; infill
G1 X95.983 Y103.378 E14.90756 ; infill
G1 X96.622 Y104.017 E14.92008 ; infill
G1 X96.159 Y104.017 E14.92649 ; infill
G1 X95.983 Y103.841 E14.92994 ; infill
M106 S214.2 ; enable fan
; layer 3,  Z = 1.25
G1 Z1.250 F7800.000 ; move to next layer (3)
G1 X104.201 Y104.201 F7800.000 ; move to first perimeter point
G1 X95.799 Y104.201 E15.04430 F900.000 ; perimeter
G1 X95.799 Y95.799 E15.15867 ; perimeter
G1 X104.201 Y95.799 E15.27303 ; perimeter
G1 X104.201 Y104.149 E15.38668 ; perimeter
G1 X104.522 Y104.522 F7800.000 ; move to first perimeter point
G1 X95.478 Y104.522 E15.50978 F900.000 ; perimeter
G1 X95.478 Y95.478 E15.63287 ; perimeter
G1 X104.522 Y95.478 E15.75597 ; perimeter
G1 X104.522 Y104.469 E15.87835 ; perimeter
G1 X104.825 Y104.825 F7800.000 ; move to first perimeter point
G1 X95.175 Y104.825 E15.99532 F900.000 ; perimeter
G1 X95.175 Y95.175 E16.11230 ; perimeter
G1 X104.825 Y95.175 E16.22928 ; perimeter
G1 X104.825 Y104.772 E16.34562 ; perimeter
G1 X104.522 Y104.650 F7800.000 ; move inwards before travel
G1 X103.841 Y104.017 F7800.000 ; move to first infill point
G1 X104.017 Y103.841 E16.34907 F1200.000 ; infill
G1 X104.017 Y103.378 E16.35549 ; infill
G1 X103.378 Y104.017 E16.36800 ; infill
G1 X102.916 Y104.017 E16.37442 ; infill
G1 X104.017 Y102.916 E16.39600 ; infill
G1 X104.017 Y102.454 E16.40241 ; infill
G1 X102.454 Y104.017 E16.43306 ; infill
G1 X101.992 Y104.017 E16.43947 ; infill
G1 X104.017 Y101.992 E16.47919 ; infill
G1 X104.017 Y101.530 E16.48560 ; infill
G1 X101.530 Y104.017 E16.53439 ; infill
G1 X101.067 Y104.017 E16.54080 ; infill
G1 X104.017 Y101.067 E16.59865 ; infill
G1 X104.017 Y100.605 E16.60506 ; infill
G1 X100.605 Y104.017 E16.67197 ; infill
G1 X100.143 Y104.017 E16.67838 ; infill
G1 X104.017 Y100.143 E16.75436 ; infill
G1 X104.017 Y99.681 E16.76077 ; infill
G1 X99.681 Y104.017 E16.84582 ; infill
G1 X99.219 Y104.017 E16.85223 ; infill
G1 X104.017 Y99.219 E16.94635 ; infill
G1 X104.017 Y98.757 E16.95276 ; infill
G1 X98.757 Y104.017 E17.05594 ; infill
G1 X98.294 Y104.017 E17.06235 ; infill
G1 X104.017 Y98.294 E17.17459 ; infill
G1 X104.017 Y97.832 E17.18100 ; infill
G1 X97.832 Y104.017 E17.30232 ; infill
G1 X97.370 Y104.017 E17.30873 ; infill
G1 X104.017 Y97.370 E17.43910 ; infill
G1 X104.017 Y96.908 E17.44551 ; infill
G1 X96.908 Y104.017 E17.58496 ; infill
G1 X96.446 Y104.017 E17.59137 ; infill
G1 X104.017 Y96.446 E17.73988 ; infill
G1 X103.997 Y96.003 E17.74602 ; infill
G1 X96.003 Y103.997 E17.90281 ; infill
G1 X95.983 Y103.554 E17.90895 ; infill
G1 X103.554 Y95.983 E18.05746 ; infill
G1 X103.092 Y95.983 E18.06387 ; infill
G1 X95.983 Y103.092 E18.20331 ; infill
G1 X95.983 Y102.630 E18.20972 ; infill
G1 X102.630 Y95.983 E18.34010 ; infill
G1 X102.168 Y95.983 E18.34651 ; infill
G1 X95.983 Y102.168 E18.46782 ; infill
G1 X95.983 Y101.706 E18.47423 ; infill
G1 X101.706 Y95.983 E18.58648 ; infill
G1 X101.243 Y95.983 E18.59289 ; infill
G1 X95.983 Y101.243 E18.69607 ; infill
G1 X95.983 Y100.781 E18.70248 ; infill
G1 X100.781 Y95.983 E18.79659 ; infill
G1 X100.319 Y95.983 E18.80300 ; infill
G1 X95.983 Y100.319 E18.88805 ; infill
G1 X95.983 Y99.857 E18.89446 ; infill
G1 X99.857 Y95.983 E18.97044 ; infill
G1 X99.395 Y95.983 E18.97685 ; infill
G1 X95.983 Y99.395 E19.04377 ; infill
G1 X95.983 Y98.933 E19.05018 ; infill
G1 X98.933 Y95.983 E19.10803 ; infill
G1 X98.470 Y95.983 E19.11444 ; infill
G1 X95.983 Y98.470 E19.16322 ; infill
G1 X95.983 Y98.008 E19.16963 ; infill
G1 X98.008 Y95.983 E19.20935 ; infill
G1 X97.546 Y95.983 E19.21576 ; infill
G1 X95.983 Y97.546 E19.24641 ; infill
G1 X95.983 Y97.084 E19.25282 ; infill
G1 X97.084 Y95.983 E19.27441 ; infill
G1 X96.622 Y95.983 E19.28082 ; infill
G1 X95.983 Y96.622 E19.29334 ; infill
G1 X95.983 Y96.159 E19.29975 ; infill
G1 X96.159 Y95.983 E19.30320 ; infill
; layer 4,  Z = 1.55
G1 Z1.550 F7800.000 ; move to next layer (4)
G1 X104.201 Y104.201 F7800.000 ; move to first perimeter point
G1 X95.799 Y104.201 E19.41756 F900.000 ; perimeter
G1 X95.799 Y95.799 E19.53193 ; perimeter
G1 X104.201 Y95.799 E19.64629 ; perimeter
G1 X104.201 Y104.149 E19.75994 ; perimeter
G1 X104.522 Y104.522 F7800.000 ; move to first perimeter point
G1 X95.478 Y104.522 E19.88304 F900.000 ; perimeter
G1 X95.478 Y95.478 E20.00613 ; perimeter
G1 X104.522 Y95.478 E20.12923 ; perimeter
G1 X104.522 Y104.469 E20.25161 ; perimeter
G1 X104.825 Y104.825 F7800.000 ; move to first perimeter point
G1 X95.175 Y104.825 E20.36858 F900.000 ; perimeter
G1 X95.175 Y95.175 E20.48556 ; perimeter
G1 X104.825 Y95.175 E20.60254 ; perimeter
G1 X104.825 Y104.772 E20.71888 ; perimeter
G1 X104.522 Y104.650 F7800.000 ; move inwards before travel
G1 X104.017 Y96.159 F7800.000 ; move to first infill point
G1 X103.841 Y95.983 E20.72233 F1200.000 ; infill
G1 X103.378 Y95.983 E20.72875 ; infill
G1 X104.017 Y96.622 E20.74127 ; infill
G1 X104.017 Y97.084 E20.74768 ; infill
G1 X102.916 Y95.983 E20.76926 ; infill
G1 X102.454 Y95.983 E20.77567 ; infill
G1 X104.017 Y97.546 E20.80632 ; infill
G1 X104.017 Y98.008 E20.81273 ; infill
G1 X101.992 Y95.983 E20.85245 ; infill
G1 X101.530 Y95.983 E20.85886 ; infill
G1 X104.017 Y98.470 E20.90765 ; infill
G1 X104.017 Y98.933 E20.91406 ; infill
G1 X101.067 Y95.983 E20.97191 ; infill
G1 X100.605 Y95.983 E20.97832 ; infill
G1 X104.017 Y99.395 E21.04523 ; infill
G1 X104.017 Y99.857 E21.05164 ; infill
G1 X100.143 Y95.983 E21.12762 ; infill
G1 X99.681 Y95.983 E21.13404 ; infill
