; G-Code generated by Simplify3D(R) Version 4.0.1
; Mar 26, 2019 at 4:57:42 PM
; Settings Summary
;   processName,Process1
;   applyToModels,cube 1cm
;   profileName,deposition
;   profileVersion,2019-03-25 19:45:47
;   baseProfile,Prusa i3
;   printMaterial,PLA
;   printQuality,deposition
;   printExtruders,
;   extruderName,Primary Extruder,Second Extruder,Third Extruder
;   extruderToolheadNumber,0,1,2
;   extruderDiameter,0.25,0.25,0.25
;   extruderAutoWidth,0,0,0
;   extruderWidth,0.25,0.25,0.25
;   extrusionMultiplier,1,1,1
;   extruderUseRetract,0,1,0
;   extruderRetractionDistance,6,1,1
;   extruderExtraRestartDistance,0,0,0
;   extruderRetractionZLift,0,0,0
;   extruderRetractionSpeed,3000,1800,1800
;   extruderUseCoasting,1,1,0
;   extruderCoastingDistance,0.2,0.2,0.2
;   extruderUseWipe,1,0,1
;   extruderWipeDistance,2,5,5
;   primaryExtruder,0
;   layerHeight,0.2
;   topSolidLayers,2
;   bottomSolidLayers,2
;   perimeterOutlines,2
;   printPerimetersInsideOut,0
;   startPointOption,1
;   startPointOriginX,0
;   startPointOriginY,0
;   sequentialIslands,0
;   spiralVaseMode,0
;   firstLayerHeightPercentage,100
;   firstLayerWidthPercentage,100
;   firstLayerUnderspeed,1
;   useRaft,0
;   raftExtruder,0
;   raftTopLayers,3
;   raftBaseLayers,2
;   raftOffset,3
;   raftSeparationDistance,0.14
;   raftTopInfill,100
;   aboveRaftSpeedMultiplier,0.3
;   useSkirt,0
;   skirtExtruder,0
;   skirtLayers,1
;   skirtOutlines,2
;   skirtOffset,4
;   usePrimePillar,0
;   primePillarExtruder,999
;   primePillarWidth,12
;   primePillarLocation,7
;   primePillarSpeedMultiplier,1
;   useOozeShield,0
;   oozeShieldExtruder,999
;   oozeShieldOffset,2
;   oozeShieldOutlines,1
;   oozeShieldSidewallShape,1
;   oozeShieldSidewallAngle,30
;   oozeShieldSpeedMultiplier,1
;   infillExtruder,0
;   internalInfillPattern,Rectilinear
;   externalInfillPattern,Rectilinear
;   infillPercentage,60
;   outlineOverlapPercentage,99
;   infillExtrusionWidthPercentage,80
;   minInfillLength,2
;   infillLayerInterval,1
;   internalInfillAngles,45,-45
;   overlapInternalInfillAngles,0
;   externalInfillAngles,90,0
;   generateSupport,1
;   supportExtruder,0
;   supportInfillPercentage,20
;   supportExtraInflation,0
;   supportBaseLayers,0
;   denseSupportExtruder,0
;   denseSupportLayers,0
;   denseSupportInfillPercentage,70
;   supportLayerInterval,1
;   supportHorizontalPartOffset,0.2
;   supportUpperSeparationLayers,1
;   supportLowerSeparationLayers,1
;   supportType,0
;   supportGridSpacing,4
;   maxOverhangAngle,0
;   supportAngles,0,90
;   temperatureName,Primary Extruder,Heated Bed
;   temperatureNumber,2,1
;   temperatureSetpointCount,1,1
;   temperatureSetpointLayers,1,1
;   temperatureSetpointTemperatures,280,50
;   temperatureStabilizeAtStartup,1,1
;   temperatureHeatedBed,0,1
;   temperatureRelayBetweenLayers,0,0
;   temperatureRelayBetweenLoops,0,0
;   fanLayers,1,2
;   fanSpeeds,0,100
;   blipFanToFullPower,1
;   adjustSpeedForCooling,1
;   minSpeedLayerTime,15
;   minCoolingSpeedSlowdown,20
;   increaseFanForCooling,0
;   minFanLayerTime,45
;   maxCoolingFanSpeed,100
;   increaseFanForBridging,1
;   bridgingFanSpeed,100
;   use5D,1
;   relativeEdistances,1
;   allowEaxisZeroing,1
;   independentExtruderAxes,0
;   includeM10123,0
;   stickySupport,1
;   applyToolheadOffsets,0
;   gcodeXoffset,0
;   gcodeYoffset,0
;   gcodeZoffset,0
;   overrideMachineDefinition,1
;   machineTypeOverride,0
;   strokeXoverride,200
;   strokeYoverride,200
;   strokeZoverride,175
;   originOffsetXoverride,0
;   originOffsetYoverride,0
;   originOffsetZoverride,0
;   homeXdirOverride,-1
;   homeYdirOverride,-1
;   homeZdirOverride,-1
;   flipXoverride,1
;   flipYoverride,-1
;   flipZoverride,1
;   toolheadOffsets,0,0|0,0|0,0|0,0|0,0|0,0
;   overrideFirmwareConfiguration,1
;   firmwareTypeOverride,RepRap (Marlin/Repetier/Sprinter)
;   GPXconfigOverride,r2
;   baudRateOverride,250000
;   overridePrinterModels,1
;   printerModelsOverride
;   startingGcode,G28 ; home all,G92 E0,G1 Z0.1 F1000,G1 X8.0 F2000,G1 Y60.0 E4.0 F1000.0 ; prime,G1 Y100.0 E8.5 F1000.0 ; prime,G92 E0
;   layerChangeGcode,
;   retractionGcode,
;   toolChangeGcode,
;   endingGcode,;M104 S0 ; turn off extruder,;M140 S0 ; turn off bed,G91 ; use relative coordinates,G1 Z0.6 F5000 ; lift nozzle by 0.6mm,G90 ; use absolute coordinates,G28 X0 ; home X axis,G1 Y195 ; move Y axis to end position,M84 ; disable motors,M107 ; turn off fan
;   exportFileFormat,gcode
;   celebration,0
;   celebrationSong,Random Song
;   postProcessing,
;   defaultSpeed,3000
;   outlineUnderspeed,0.5
;   solidInfillUnderspeed,0.8
;   supportUnderspeed,0.8
;   rapidXYspeed,3600
;   rapidZspeed,1002
;   minBridgingArea,50
;   bridgingExtraInflation,0
;   bridgingExtrusionMultiplier,1
;   bridgingSpeedMultiplier,1
;   useFixedBridgingAngle,0
;   fixedBridgingAngle,0
;   applyBridgingToPerimeters,0
;   filamentDiameters,1.75|1.75|1.75|1.75|1.75|1.75
;   filamentPricesPerKg,215|215|215|215|215|215
;   filamentDensities,1.25|1.25|1.25|1.25|1.25|1.25
;   useMinPrintHeight,0
;   minPrintHeight,0
;   useMaxPrintHeight,0
;   maxPrintHeight,0
;   useDiaphragm,0
;   diaphragmLayerInterval,20
;   robustSlicing,1
;   mergeAllIntoSolid,0
;   onlyRetractWhenCrossingOutline,0
;   retractBetweenLayers,1
;   useRetractionMinTravel,1
;   retractionMinTravel,3
;   retractWhileWiping,1
;   onlyWipeOutlines,1
;   avoidCrossingOutline,0
;   maxMovementDetourFactor,3
;   toolChangeRetractionDistance,12
;   toolChangeExtraRestartDistance,-0.5
;   toolChangeRetractionSpeed,600
;   externalThinWallType,0
;   internalThinWallType,2
;   thinWallAllowedOverlapPercentage,10
;   singleExtrusionMinLength,1
;   singleExtrusionMinPrintingWidthPercentage,50
;   singleExtrusionMaxPrintingWidthPercentage,200
;   singleExtrusionEndpointExtension,0.2
;   horizontalSizeCompensation,0
G90
M83
M106 S255
G4 P500
M106 S0
M140 S50
M190 S50
M104 S280 T2
M109 S280 T2
G28 ; home all
G92 E0
G1 Z0.1 F1000
G1 X8.0 F2000
G1 Y60.0 E4.0 F1000.0 ; prime
G1 Y100.0 E8.5 F1000.0 ; prime
G92 E0
G1 Z0.200 F1002
; process Process1
; layer 1, Z = 0.200
T0
; tool H0.200 W0.250
; outer perimeter
G1 X59.875 Y50.125 F3600
G1 X59.875 Y59.875 E0.2027 F1132
G1 X50.125 Y59.875 E0.2027
G1 X50.125 Y50.125 E0.2027
G1 X59.675 Y50.125 E0.1985
G1 X59.875 Y50.125 F1132
G1 X59.875 Y56.125 F3000
; inner perimeter
G1 X59.625 Y59.625 F3600
G1 X50.375 Y59.625 E0.1923 F1698
G1 X50.375 Y50.375 E0.1923
G1 X59.625 Y50.375 E0.1923
G1 X59.625 Y59.425 E0.1881
G1 X59.625 Y59.625 F1698
; solid layer
G1 X50.500 Y59.623 F3600
G1 X50.500 Y50.377 E0.1922 F1812
G1 X50.750 Y50.377 E0.0052
G1 X50.750 Y59.623 E0.1922
G1 X51.000 Y59.623 E0.0052
G1 X51.000 Y50.377 E0.1922
G1 X51.250 Y50.377 E0.0052
G1 X51.250 Y59.623 E0.1922
G1 X51.500 Y59.623 E0.0052
G1 X51.500 Y50.377 E0.1922
G1 X51.750 Y50.377 E0.0052
G1 X51.750 Y59.623 E0.1922
G1 X52.000 Y59.623 E0.0052
G1 X52.000 Y50.377 E0.1922
G1 X52.250 Y50.377 E0.0052
G1 X52.250 Y59.623 E0.1922
G1 X52.500 Y59.623 E0.0052
G1 X52.500 Y50.377 E0.1922
G1 X52.750 Y50.377 E0.0052
G1 X52.750 Y59.623 E0.1922
G1 X53.000 Y59.623 E0.0052
G1 X53.000 Y50.377 E0.1922
G1 X53.250 Y50.377 E0.0052
G1 X53.250 Y59.623 E0.1922
G1 X53.500 Y59.623 E0.0052
G1 X53.500 Y50.377 E0.1922
G1 X53.750 Y50.377 E0.0052
G1 X53.750 Y59.623 E0.1922
G1 X54.000 Y59.623 E0.0052
G1 X54.000 Y50.377 E0.1922
G1 X54.250 Y50.377 E0.0052
G1 X54.250 Y59.623 E0.1922
G1 X54.500 Y59.623 E0.0052
G1 X54.500 Y50.377 E0.1922
G1 X54.750 Y50.377 E0.0052
G1 X54.750 Y59.623 E0.1922
G1 X55.000 Y59.623 E0.0052
G1 X55.000 Y50.377 E0.1922
G1 X55.250 Y50.377 E0.0052
G1 X55.250 Y59.623 E0.1922
G1 X55.500 Y59.623 E0.0052
G1 X55.500 Y50.377 E0.1922
G1 X55.750 Y50.377 E0.0052
G1 X55.750 Y59.623 E0.1922
G1 X56.000 Y59.623 E0.0052
G1 X56.000 Y50.377 E0.1922
G1 X56.250 Y50.377 E0.0052
G1 X56.250 Y59.623 E0.1922
G1 X56.500 Y59.623 E0.0052
G1 X56.500 Y50.377 E0.1922
G1 X56.750 Y50.377 E0.0052
G1 X56.750 Y59.623 E0.1922
G1 X57.000 Y59.623 E0.0052
G1 X57.000 Y50.377 E0.1922
G1 X57.250 Y50.377 E0.0052
G1 X57.250 Y59.623 E0.1922
G1 X57.500 Y59.623 E0.0052
G1 X57.500 Y50.377 E0.1922
G1 X57.750 Y50.377 E0.0052
G1 X57.750 Y59.623 E0.1922
G1 X58.000 Y59.623 E0.0052
G1 X58.000 Y50.377 E0.1922
G1 X58.250 Y50.377 E0.0052
G1 X58.250 Y59.623 E0.1922
G1 X58.500 Y59.623 E0.0052
G1 X58.500 Y50.377 E0.1922
G1 X58.750 Y50.377 E0.0052
G1 X58.750 Y59.623 E0.1922
G1 X59.000 Y59.623 E0.0052
G1 X59.000 Y50.377 E0.1922
G1 X59.250 Y50.377 E0.0052
G1 X59.250 Y59.623 E0.1922
G1 X59.500 Y59.623 E0.0052
G1 X59.500 Y50.578 E0.1880
G1 X59.500 Y50.377 F1812
; layer 2, Z = 0.400
M106 S255
; outer perimeter
G1 X59.875 Y59.875 F3600
G1 Z0.400 F1002
G1 X50.125 Y59.875 E0.2027 F1132
G1 X50.125 Y50.125 E0.2027
G1 X59.875 Y50.125 E0.2027
G1 X59.875 Y59.675 E0.1985
G1 X59.875 Y59.875 F1132
G1 X53.875 Y59.875 F3000
; inner perimeter
G1 X50.375 Y59.625 F3600
G1 X50.375 Y50.375 E0.1923 F1698
G1 X59.625 Y50.375 E0.1923
G1 X59.625 Y59.625 E0.1923
G1 X50.575 Y59.625 E0.1881
G1 X50.375 Y59.625 F1698
; solid layer
G1 X50.377 Y50.500 F3600
G1 X59.623 Y50.500 E0.1922 F1812
G1 X59.623 Y50.750 E0.0052
G1 X50.377 Y50.750 E0.1922
G1 X50.377 Y51.000 E0.0052
G1 X59.623 Y51.000 E0.1922
G1 X59.623 Y51.250 E0.0052
G1 X50.377 Y51.250 E0.1922
G1 X50.377 Y51.500 E0.0052
G1 X59.623 Y51.500 E0.1922
G1 X59.623 Y51.750 E0.0052
G1 X50.377 Y51.750 E0.1922
G1 X50.377 Y52.000 E0.0052
G1 X59.623 Y52.000 E0.1922
G1 X59.623 Y52.250 E0.0052
G1 X50.377 Y52.250 E0.1922
G1 X50.377 Y52.500 E0.0052
G1 X59.623 Y52.500 E0.1922
G1 X59.623 Y52.750 E0.0052
G1 X50.377 Y52.750 E0.1922
G1 X50.377 Y53.000 E0.0052
G1 X59.623 Y53.000 E0.1922
G1 X59.623 Y53.250 E0.0052
G1 X50.377 Y53.250 E0.1922
G1 X50.377 Y53.500 E0.0052
G1 X59.623 Y53.500 E0.1922
G1 X59.623 Y53.750 E0.0052
G1 X50.377 Y53.750 E0.1922
G1 X50.377 Y54.000 E0.0052
G1 X59.623 Y54.000 E0.1922
G1 X59.623 Y54.250 E0.0052
G1 X50.377 Y54.250 E0.1922
G1 X50.377 Y54.500 E0.0052
G1 X59.623 Y54.500 E0.1922
G1 X59.623 Y54.750 E0.0052
G1 X50.377 Y54.750 E0.1922
G1 X50.377 Y55.000 E0.0052
G1 X59.623 Y55.000 E0.1922
G1 X59.623 Y55.250 E0.0052
G1 X50.377 Y55.250 E0.1922
G1 X50.377 Y55.500 E0.0052
G1 X59.623 Y55.500 E0.1922
G1 X59.623 Y55.750 E0.0052
G1 X50.377 Y55.750 E0.1922
G1 X50.377 Y56.000 E0.0052
G1 X59.623 Y56.000 E0.1922
G1 X59.623 Y56.250 E0.0052
G1 X50.377 Y56.250 E0.1922
G1 X50.377 Y56.500 E0.0052
G1 X59.623 Y56.500 E0.1922
G1 X59.623 Y56.750 E0.0052
G1 X50.377 Y56.750 E0.1922
G1 X50.377 Y57.000 E0.0052
G1 X59.623 Y57.000 E0.1922
G1 X59.623 Y57.250 E0.0052
G1 X50.377 Y57.250 E0.1922
G1 X50.377 Y57.500 E0.0052
G1 X59.623 Y57.500 E0.1922
G1 X59.623 Y57.750 E0.0052
G1 X50.377 Y57.750 E0.1922
G1 X50.377 Y58.000 E0.0052
G1 X59.623 Y58.000 E0.1922
G1 X59.623 Y58.250 E0.0052
G1 X50.377 Y58.250 E0.1922
G1 X50.377 Y58.500 E0.0052
G1 X59.623 Y58.500 E0.1922
G1 X59.623 Y58.750 E0.0052
G1 X50.377 Y58.750 E0.1922
G1 X50.377 Y59.000 E0.0052
G1 X59.623 Y59.000 E0.1922
G1 X59.623 Y59.250 E0.0052
G1 X50.377 Y59.250 E0.1922
G1 X50.377 Y59.500 E0.0052
G1 X59.422 Y59.500 E0.1880
G1 X59.623 Y59.500 F1812
; layer 3, Z = 0.600
; outer perimeter
G1 X59.875 Y59.875 F3600
G1 Z0.600 F1002
G1 X50.125 Y59.875 E0.2027 F809
G1 X50.125 Y50.125 E0.2027
G1 X59.875 Y50.125 E0.2027
G1 X59.875 Y59.675 E0.1985
G1 X59.875 Y59.875 F809
G1 X53.875 Y59.875 F3000
; inner perimeter
G1 X50.375 Y59.625 F3600
G1 X50.375 Y50.375 E0.1923 F1214
G1 X59.625 Y50.375 E0.1923
G1 X59.625 Y59.625 E0.1923
G1 X50.575 Y59.625 E0.1881
G1 X50.375 Y59.625 F1214
; tool H0.200 W0.200
; infill
G1 X50.691 Y59.647 F3600
G1 X50.352 Y59.309 E0.0080 F1618
G1 X50.352 Y58.838 E0.0078
G1 X51.162 Y59.648 E0.0190
G1 X51.634 Y59.648 E0.0078
G1 X50.352 Y58.366 E0.0301
G1 X50.352 Y57.895 E0.0078
G1 X52.105 Y59.648 E0.0412
G1 X52.576 Y59.648 E0.0078
G1 X50.352 Y57.424 E0.0523
G1 X50.352 Y56.952 E0.0078
G1 X53.048 Y59.648 E0.0634
G1 X53.519 Y59.648 E0.0078
G1 X50.352 Y56.481 E0.0745
G1 X50.352 Y56.009 E0.0078
G1 X53.991 Y59.648 E0.0856
G1 X54.462 Y59.648 E0.0078
G1 X50.352 Y55.538 E0.0967
G1 X50.352 Y55.067 E0.0078
G1 X54.933 Y59.648 E0.1077
G1 X55.405 Y59.648 E0.0078
G1 X50.352 Y54.595 E0.1188
G1 X50.352 Y54.124 E0.0078
G1 X55.876 Y59.648 E0.1299
G1 X56.348 Y59.648 E0.0078
G1 X50.352 Y53.652 E0.1410
G1 X50.352 Y53.181 E0.0078
G1 X56.819 Y59.648 E0.1521
G1 X57.290 Y59.648 E0.0078
G1 X50.352 Y52.710 E0.1632
G1 X50.352 Y52.238 E0.0078
G1 X57.762 Y59.648 E0.1743
G1 X58.233 Y59.648 E0.0078
G1 X50.352 Y51.767 E0.1853
G1 X50.352 Y51.295 E0.0078
G1 X58.705 Y59.648 E0.1964
G1 X59.176 Y59.648 E0.0078
G1 X50.352 Y50.824 E0.2075
G1 X50.352 Y50.352 E0.0078
G1 X59.648 Y59.647 E0.2186
G1 X59.648 Y59.176 E0.0078
G1 X50.824 Y50.352 E0.2075
G1 X51.295 Y50.352 E0.0078
G1 X59.648 Y58.705 E0.1964
G1 X59.648 Y58.233 E0.0078
G1 X51.767 Y50.352 E0.1853
G1 X52.238 Y50.352 E0.0078
G1 X59.648 Y57.762 E0.1743
G1 X59.648 Y57.290 E0.0078
G1 X52.710 Y50.352 E0.1632
G1 X53.181 Y50.352 E0.0078
G1 X59.648 Y56.819 E0.1521
G1 X59.648 Y56.348 E0.0078
G1 X53.652 Y50.352 E0.1410
G1 X54.124 Y50.352 E0.0078
G1 X59.648 Y55.876 E0.1299
G1 X59.648 Y55.405 E0.0078
G1 X54.595 Y50.352 E0.1188
G1 X55.067 Y50.352 E0.0078
G1 X59.648 Y54.933 E0.1077
G1 X59.648 Y54.462 E0.0078
G1 X55.538 Y50.352 E0.0967
G1 X56.009 Y50.352 E0.0078
G1 X59.648 Y53.991 E0.0856
G1 X59.648 Y53.519 E0.0078
G1 X56.481 Y50.352 E0.0745
G1 X56.952 Y50.352 E0.0078
G1 X59.648 Y53.048 E0.0634
G1 X59.648 Y52.576 E0.0078
G1 X57.424 Y50.352 E0.0523
G1 X57.895 Y50.352 E0.0078
G1 X59.648 Y52.105 E0.0412
G1 X59.648 Y51.634 E0.0078
G1 X58.366 Y50.352 E0.0301
G1 X58.838 Y50.352 E0.0078
G1 X59.648 Y51.162 E0.0190
G1 X59.648 Y50.691 E0.0078
G1 X59.451 Y50.494 E0.0046
G1 X59.309 Y50.352 F1618
; layer 4, Z = 0.800
; tool H0.200 W0.250
; outer perimeter
G1 X50.125 Y50.125 F3600
G1 Z0.800 F1002
G1 X59.875 Y50.125 E0.2027 F809
G1 X59.875 Y59.875 E0.2027
G1 X50.125 Y59.875 E0.2027
G1 X50.125 Y50.325 E0.1985
G1 X50.125 Y50.125 F809
G1 X56.125 Y50.125 F3000
; inner perimeter
G1 X59.625 Y50.375 F3600
G1 X59.625 Y59.625 E0.1923 F1214
G1 X50.375 Y59.625 E0.1923
G1 X50.375 Y50.375 E0.1923
G1 X59.425 Y50.375 E0.1881
G1 X59.625 Y50.375 F1214
; tool H0.200 W0.200
; infill
G1 X59.647 Y59.309 F3600
G1 X59.309 Y59.648 E0.0080 F1618
G1 X58.838 Y59.648 E0.0078
G1 X59.648 Y58.838 E0.0190
G1 X59.648 Y58.366 E0.0078
G1 X58.366 Y59.648 E0.0301
G1 X57.895 Y59.648 E0.0078
G1 X59.648 Y57.895 E0.0412
G1 X59.648 Y57.424 E0.0078
G1 X57.424 Y59.648 E0.0523
G1 X56.952 Y59.648 E0.0078
G1 X59.648 Y56.952 E0.0634
G1 X59.648 Y56.481 E0.0078
G1 X56.481 Y59.648 E0.0745
G1 X56.009 Y59.648 E0.0078
G1 X59.648 Y56.009 E0.0856
G1 X59.648 Y55.538 E0.0078
G1 X55.538 Y59.648 E0.0966
G1 X55.067 Y59.648 E0.0078
G1 X59.648 Y55.067 E0.1077
G1 X59.648 Y54.595 E0.0078
G1 X54.595 Y59.648 E0.1188
G1 X54.124 Y59.648 E0.0078
G1 X59.648 Y54.124 E0.1299
G1 X59.648 Y53.652 E0.0078
G1 X53.652 Y59.648 E0.1410
G1 X53.181 Y59.648 E0.0078
G1 X59.648 Y53.181 E0.1521
G1 X59.648 Y52.710 E0.0078
G1 X52.710 Y59.648 E0.1632
G1 X52.238 Y59.648 E0.0078
G1 X59.648 Y52.238 E0.1743
G1 X59.648 Y51.767 E0.0078
G1 X51.767 Y59.648 E0.1853
G1 X51.295 Y59.648 E0.0078
G1 X59.648 Y51.295 E0.1964
G1 X59.648 Y50.824 E0.0078
G1 X50.824 Y59.648 E0.2075
G1 X50.353 Y59.648 E0.0078
G1 X59.648 Y50.353 E0.2186
G1 X59.176 Y50.352 E0.0078
G1 X50.352 Y59.176 E0.2075
G1 X50.352 Y58.705 E0.0078
G1 X58.705 Y50.352 E0.1964
G1 X58.233 Y50.352 E0.0078
G1 X50.352 Y58.233 E0.1853
G1 X50.352 Y57.762 E0.0078
G1 X57.762 Y50.352 E0.1743
G1 X57.291 Y50.352 E0.0078
