; G-Code generated by Simplify3D(R) Version 4.0.0
; May 10, 2018 at 1:52:15 PM
; Settings Summary
;   processName,Process1
;   applyToModels,7x7x4
;   profileName,Deposition
;   profileVersion,2018-05-01 18:45:14
;   baseProfile,Leapfrog Creatr Dual
;   printMaterial,PLA
;   printQuality,Medium
;   printExtruders,Right Extruder Only
;   extruderName,Right Extruder,Left Extruder
;   extruderToolheadNumber,0,1
;   extruderDiameter,0.41,0.35
;   extruderAutoWidth,0,0
;   extruderWidth,0.41,0.25
;   extrusionMultiplier,1,1
;   extruderUseRetract,1,0
;   extruderRetractionDistance,1,1
;   extruderExtraRestartDistance,0,0
;   extruderRetractionZLift,0,0
;   extruderRetractionSpeed,1800,1800
;   extruderUseCoasting,0,0
;   extruderCoastingDistance,0.2,0.2
;   extruderUseWipe,0,0
;   extruderWipeDistance,5,5
;   primaryExtruder,0
;   layerHeight,0.2
;   topSolidLayers,2
;   bottomSolidLayers,2
;   perimeterOutlines,1
;   printPerimetersInsideOut,0
;   startPointOption,1
;   startPointOriginX,0
;   startPointOriginY,0
;   sequentialIslands,0
;   spiralVaseMode,0
;   firstLayerHeightPercentage,100
;   firstLayerWidthPercentage,100
;   firstLayerUnderspeed,0.5
;   useRaft,0
;   raftExtruder,0
;   raftTopLayers,3
;   raftBaseLayers,2
;   raftOffset,3
;   raftSeparationDistance,0.14
;   raftTopInfill,100
;   aboveRaftSpeedMultiplier,0.3
;   useSkirt,0
;   skirtExtruder,0
;   skirtLayers,1
;   skirtOutlines,2
;   skirtOffset,4
;   usePrimePillar,0
;   primePillarExtruder,999
;   primePillarWidth,12
;   primePillarLocation,7
;   primePillarSpeedMultiplier,1
;   useOozeShield,0
;   oozeShieldExtruder,0
;   oozeShieldOffset,0
;   oozeShieldOutlines,1
;   oozeShieldSidewallShape,1
;   oozeShieldSidewallAngle,30
;   oozeShieldSpeedMultiplier,1
;   infillExtruder,0
;   internalInfillPattern,Rectilinear
;   externalInfillPattern,Rectilinear
;   infillPercentage,50
;   outlineOverlapPercentage,0
;   infillExtrusionWidthPercentage,100
;   minInfillLength,2
;   infillLayerInterval,1
;   internalInfillAngles,0,90
;   overlapInternalInfillAngles,0
;   externalInfillAngles,0,90
;   generateSupport,0
;   supportExtruder,0
;   supportInfillPercentage,10
;   supportExtraInflation,0
;   supportBaseLayers,0
;   denseSupportExtruder,0
;   denseSupportLayers,0
;   denseSupportInfillPercentage,70
;   supportLayerInterval,1
;   supportHorizontalPartOffset,0.3
;   supportUpperSeparationLayers,1
;   supportLowerSeparationLayers,1
;   supportType,0
;   supportGridSpacing,4
;   maxOverhangAngle,0
;   supportAngles,45,-45
;   temperatureName,Right Extruder,Left Extruder,Heated Bed
;   temperatureNumber,0,1,2
;   temperatureSetpointCount,1,1,1
;   temperatureSetpointLayers,1,1,1
;   temperatureSetpointTemperatures,210,0,60
;   temperatureStabilizeAtStartup,1,0,1
;   temperatureHeatedBed,0,0,1
;   temperatureRelayBetweenLayers,0,0,0
;   temperatureRelayBetweenLoops,0,0,0
;   fanLayers,1,2
;   fanSpeeds,0,100
;   blipFanToFullPower,1
;   adjustSpeedForCooling,1
;   minSpeedLayerTime,15
;   minCoolingSpeedSlowdown,20
;   increaseFanForCooling,0
;   minFanLayerTime,45
;   maxCoolingFanSpeed,100
;   increaseFanForBridging,1
;   bridgingFanSpeed,100
;   use5D,1
;   relativeEdistances,0
;   allowEaxisZeroing,0
;   independentExtruderAxes,0
;   includeM10123,0
;   stickySupport,1
;   applyToolheadOffsets,0
;   gcodeXoffset,0
;   gcodeYoffset,0
;   gcodeZoffset,0
;   overrideMachineDefinition,1
;   machineTypeOverride,0
;   strokeXoverride,230
;   strokeYoverride,260
;   strokeZoverride,200
;   originOffsetXoverride,0
;   originOffsetYoverride,0
;   originOffsetZoverride,0
;   homeXdirOverride,-1
;   homeYdirOverride,-1
;   homeZdirOverride,-1
;   flipXoverride,1
;   flipYoverride,-1
;   flipZoverride,1
;   toolheadOffsets,0,0|34,0|0,0|0,0|0,0|0,0
;   overrideFirmwareConfiguration,1
;   firmwareTypeOverride,RepRap (Marlin/Repetier/Sprinter)
;   GPXconfigOverride,r2
;   baudRateOverride,115200
;   overridePrinterModels,1
;   printerModelsOverride
;   startingGcode,G28 F1200 ; home all axes,T0 ; switch to right extruder,G1 Z0.2 ; raise nozzle,G92 E0 ; zero extruder,G1 E3 F225 ; purge nozzle,G1 Y15 Z0.05 F1200 ; slow wipe,G1 Y20 Z0.25 ; lift,G92 E0 ; zero extruder again
;   layerChangeGcode,
;   retractionGcode,
;   toolChangeGcode,
;   endingGcode,M104 S0 T0 ; turn off right extruder,M104 S0 T1 ; turn off left extruder,M140 S0 T0 ; turn off bed,G1 Z200 F1200 ; drop bed,G28 X0 ; home X axis,M84 ; disable motors
;   exportFileFormat,gcode
;   celebration,0
;   celebrationSong,Random Song
;   postProcessing,
;   defaultSpeed,3000
;   outlineUnderspeed,0.5
;   solidInfillUnderspeed,0.8
;   supportUnderspeed,0.8
;   rapidXYspeed,4800
;   rapidZspeed,1002
;   minBridgingArea,50
;   bridgingExtraInflation,0
;   bridgingExtrusionMultiplier,1
;   bridgingSpeedMultiplier,1
;   useFixedBridgingAngle,0
;   fixedBridgingAngle,0
;   applyBridgingToPerimeters,0
;   filamentDiameters,1.75|1.75|1.75|1.75|1.75|1.75
;   filamentPricesPerKg,46|46|46|46|46|46
;   filamentDensities,1.25|1.25|1.25|1.25|1.25|1.25
;   useMinPrintHeight,0
;   minPrintHeight,0
;   useMaxPrintHeight,0
;   maxPrintHeight,0
;   useDiaphragm,0
;   diaphragmLayerInterval,20
;   robustSlicing,1
;   mergeAllIntoSolid,0
;   onlyRetractWhenCrossingOutline,1
;   retractBetweenLayers,1
;   useRetractionMinTravel,0
;   retractionMinTravel,3
;   retractWhileWiping,0
;   onlyWipeOutlines,1
;   avoidCrossingOutline,0
;   maxMovementDetourFactor,3
;   toolChangeRetractionDistance,12
;   toolChangeExtraRestartDistance,-0.5
;   toolChangeRetractionSpeed,600
;   externalThinWallType,0
;   internalThinWallType,2
;   thinWallAllowedOverlapPercentage,10
;   singleExtrusionMinLength,1
;   singleExtrusionMinPrintingWidthPercentage,50
;   singleExtrusionMaxPrintingWidthPercentage,200
;   singleExtrusionEndpointExtension,0.2
;   horizontalSizeCompensation,0
G90
M82
M106 S255
G4 P500
M106 S0
M140 S60
M190 S60
M104 S210 T0
M104 S0 T1
M109 S210 T0
G28 F1200 ; home all axes
T0 ; switch to right extruder
G1 Z0.2 ; raise nozzle
G92 E0 ; zero extruder
G1 E3 F225 ; purge nozzle
G1 Y15 Z0.05 F1200 ; slow wipe
G1 Y20 Z0.25 ; lift
G92 E0 ; zero extruder again
G1 E-1.0000 F1800
G1 Z0.200 F1002
; process Process1
; layer 1, Z = 0.200
T0
; tool H0.200 W0.410
; outer perimeter
G1 X118.295 Y126.705 F4800
G1 E0.0000 F540
G1 X118.295 Y133.295 E0.2247 F336
G1 X111.705 Y133.295 E0.4493
G1 X111.705 Y126.705 E0.6740
G1 X118.295 Y126.705 E0.8987
; solid layer
G1 X117.885 Y132.870 F4800
G1 X112.115 Y132.870 E1.0954 F538
G1 X112.115 Y132.460 E1.1093
G1 X117.885 Y132.460 E1.3061
G1 X117.885 Y132.050 E1.3200
G1 X112.115 Y132.050 E1.5167
G1 X112.115 Y131.640 E1.5307
G1 X117.885 Y131.640 E1.7274
G1 X117.885 Y131.230 E1.7414
G1 X112.115 Y131.230 E1.9381
G1 X112.115 Y130.820 E1.9521
G1 X117.885 Y130.820 E2.1488
G1 X117.885 Y130.410 E2.1628
G1 X112.115 Y130.410 E2.3595
G1 X112.115 Y130.000 E2.3735
G1 X117.885 Y130.000 E2.5702
G1 X117.885 Y129.590 E2.5841
G1 X112.115 Y129.590 E2.7809
G1 X112.115 Y129.180 E2.7948
G1 X117.885 Y129.180 E2.9915
G1 X117.885 Y128.770 E3.0055
G1 X112.115 Y128.770 E3.2022
G1 X112.115 Y128.360 E3.2162
G1 X117.885 Y128.360 E3.4129
G1 X117.885 Y127.950 E3.4269
G1 X112.115 Y127.950 E3.6236
G1 X112.115 Y127.540 E3.6376
G1 X117.885 Y127.540 E3.8343
G1 X117.885 Y127.130 E3.8483
G1 X112.115 Y127.130 E4.0450
G1 E3.0450 F1800
; layer 2, Z = 0.400
M106 S255
; outer perimeter
G1 X118.295 Y133.295 F4800
G1 Z0.400 F1002
G1 E4.0450 F1800
G1 X111.705 Y133.295 E4.2696 F336
G1 X111.705 Y126.705 E4.4943
G1 X118.295 Y126.705 E4.7190
G1 X118.295 Y133.295 E4.9436
; solid layer
G1 X112.130 Y132.885 F4800
G1 X112.130 Y127.115 E5.1403 F538
G1 X112.540 Y127.115 E5.1543
G1 X112.540 Y132.885 E5.3510
G1 X112.950 Y132.885 E5.3650
G1 X112.950 Y127.115 E5.5617
G1 X113.360 Y127.115 E5.5757
G1 X113.360 Y132.885 E5.7724
G1 X113.770 Y132.885 E5.7864
G1 X113.770 Y127.115 E5.9831
G1 X114.180 Y127.115 E5.9971
G1 X114.180 Y132.885 E6.1938
G1 X114.590 Y132.885 E6.2077
G1 X114.590 Y127.115 E6.4045
G1 X115.000 Y127.115 E6.4184
G1 X115.000 Y132.885 E6.6151
G1 X115.410 Y132.885 E6.6291
G1 X115.410 Y127.115 E6.8258
G1 X115.820 Y127.115 E6.8398
G1 X115.820 Y132.885 E7.0365
G1 X116.230 Y132.885 E7.0505
G1 X116.230 Y127.115 E7.2472
G1 X116.640 Y127.115 E7.2612
G1 X116.640 Y132.885 E7.4579
G1 X117.050 Y132.885 E7.4719
G1 X117.050 Y127.115 E7.6686
G1 X117.460 Y127.115 E7.6826
G1 X117.460 Y132.885 E7.8793
G1 X117.870 Y132.885 E7.8932
G1 X117.870 Y127.115 E8.0899
G1 E7.0899 F1800
; layer 3, Z = 0.600
; outer perimeter
G1 X118.295 Y133.295 F4800
G1 Z0.600 F1002
G1 E8.0899 F1800
G1 X111.705 Y133.295 E8.3146 F300
G1 X111.705 Y126.705 E8.5393
G1 X118.295 Y126.705 E8.7639
G1 X118.295 Y133.295 E8.9886
; infill
G1 X117.885 Y132.460 F4800
G1 X112.115 Y132.460 E9.1853 F600
G1 X112.115 Y131.640 E9.2133
G1 X117.885 Y131.640 E9.4100
G1 X117.885 Y130.820 E9.4379
G1 X112.115 Y130.820 E9.6346
G1 X112.115 Y130.000 E9.6626
G1 X117.885 Y130.000 E9.8593
G1 X117.885 Y129.180 E9.8873
G1 X112.115 Y129.180 E10.0840
G1 X112.115 Y128.360 E10.1119
G1 X117.885 Y128.360 E10.3086
G1 X117.885 Y127.540 E10.3366
G1 X112.115 Y127.540 E10.5333
G1 E9.5333 F1800
; layer 4, Z = 0.800
; outer perimeter
G1 X111.705 Y126.705 F4800
G1 Z0.800 F1002
G1 E10.5333 F1800
G1 X118.295 Y126.705 E10.7580 F300
G1 X118.295 Y133.295 E10.9826
G1 X111.705 Y133.295 E11.2073
G1 X111.705 Y126.705 E11.4319
; infill
G1 X117.460 Y127.115 F4800
G1 X117.460 Y132.885 E11.6287 F600
G1 X116.640 Y132.885 E11.6566
G1 X116.640 Y127.115 E11.8533
G1 X115.820 Y127.115 E11.8813
G1 X115.820 Y132.885 E12.0780
G1 X115.000 Y132.885 E12.1059
G1 X115.000 Y127.115 E12.3026
G1 X114.180 Y127.115 E12.3306
G1 X114.180 Y132.885 E12.5273
G1 X113.360 Y132.885 E12.5553
G1 X113.360 Y127.115 E12.7520
G1 X112.540 Y127.115 E12.7799
G1 X112.540 Y132.885 E12.9766
G1 E11.9766 F1800
; layer 5, Z = 1.000
; outer perimeter
G1 X118.295 Y133.295 F4800
G1 Z1.000 F1002
G1 E12.9766 F1800
G1 X111.705 Y133.295 E13.2013 F300
G1 X111.705 Y126.705 E13.4260
G1 X118.295 Y126.705 E13.6506
G1 X118.295 Y133.295 E13.8753
; infill
G1 X117.885 Y132.460 F4800
G1 X112.115 Y132.460 E14.0720 F600
G1 X112.115 Y131.640 E14.1000
G1 X117.885 Y131.640 E14.2967
G1 X117.885 Y130.820 E14.3246
G1 X112.115 Y130.820 E14.5213
G1 X112.115 Y130.000 E14.5493
G1 X117.885 Y130.000 E14.7460
G1 X117.885 Y129.180 E14.7740
G1 X112.115 Y129.180 E14.9707
G1 X112.115 Y128.360 E14.9986
G1 X117.885 Y128.360 E15.1953
G1 X117.885 Y127.540 E15.2233
G1 X112.115 Y127.540 E15.4200
G1 E14.4200 F1800
; layer 6, Z = 1.200
; outer perimeter
G1 X111.705 Y133.295 F4800
G1 Z1.200 F1002
G1 E15.4200 F1800
G1 X111.705 Y126.705 E15.6447 F300
G1 X118.295 Y126.705 E15.8693
G1 X118.295 Y133.295 E16.0940
G1 X111.705 Y133.295 E16.3186
; infill
G1 X112.540 Y132.885 F4800
G1 X112.540 Y127.115 E16.5154 F600
G1 X113.360 Y127.115 E16.5433
G1 X113.360 Y132.885 E16.7400
G1 X114.180 Y132.885 E16.7680
G1 X114.180 Y127.115 E16.9647
G1 X115.000 Y127.115 E16.9926
G1 X115.000 Y132.885 E17.1893
G1 X115.820 Y132.885 E17.2173
G1 X115.820 Y127.115 E17.4140
G1 X116.640 Y127.115 E17.4420
G1 X116.640 Y132.885 E17.6387
G1 X117.460 Y132.885 E17.6666
G1 X117.460 Y127.115 E17.8633
G1 E16.8633 F1800
; layer 7, Z = 1.400
; outer perimeter
G1 X118.295 Y126.705 F4800
G1 Z1.400 F1002
G1 E17.8633 F1800
G1 X118.295 Y133.295 E18.0880 F300
G1 X111.705 Y133.295 E18.3127
G1 X111.705 Y126.705 E18.5373
G1 X118.295 Y126.705 E18.7620
; infill
G1 X117.885 Y132.460 F4800
G1 X112.115 Y132.460 E18.9587 F600
G1 X112.115 Y131.640 E18.9867
G1 X117.885 Y131.640 E19.1834
G1 X117.885 Y130.820 E19.2113
G1 X112.115 Y130.820 E19.4080
G1 X112.115 Y130.000 E19.4360
G1 X117.885 Y130.000 E19.6327
G1 X117.885 Y129.180 E19.6606
G1 X112.115 Y129.180 E19.8574
G1 X112.115 Y128.360 E19.8853
G1 X117.885 Y128.360 E20.0820
G1 X117.885 Y127.540 E20.1100
G1 X112.115 Y127.540 E20.3067
G1 E19.3067 F1800
; layer 8, Z = 1.600
; outer perimeter
G1 X118.295 Y126.705 F4800
G1 Z1.600 F1002
G1 E20.3067 F1800
G1 X118.295 Y133.295 E20.5313 F300
G1 X111.705 Y133.295 E20.7560
G1 X111.705 Y126.705 E20.9807
G1 X118.295 Y126.705 E21.2053
; infill
G1 X117.460 Y127.115 F4800
G1 X117.460 Y132.885 E21.4020 F600
G1 X116.640 Y132.885 E21.4300
G1 X116.640 Y127.115 E21.6267
G1 X115.820 Y127.115 E21.6547
G1 X115.820 Y132.885 E21.8514
G1 X115.000 Y132.885 E21.8793
G1 X115.000 Y127.115 E22.0760
G1 X114.180 Y127.115 E22.1040
G1 X114.180 Y132.885 E22.3007
G1 X113.360 Y132.885 E22.3287
G1 X113.360 Y127.115 E22.5254
G1 X112.540 Y127.115 E22.5533
G1 X112.540 Y132.885 E22.7500
G1 E21.7500 F1800
; layer 9, Z = 1.800
; outer perimeter
G1 X111.705 Y126.705 F4800
G1 Z1.800 F1002
G1 E22.7500 F1800
G1 X118.295 Y126.705 E22.9747 F300
G1 X118.295 Y133.295 E23.1994
G1 X111.705 Y133.295 E23.4240
G1 X111.705 Y126.705 E23.6487
; infill
G1 X112.115 Y127.540 F4800
G1 X117.885 Y127.540 E23.8454 F600
G1 X117.885 Y128.360 E23.8734
G1 X112.115 Y128.360 E24.0701
G1 X112.115 Y129.180 E24.0980
G1 X117.885 Y129.180 E24.2947
G1 X117.885 Y130.000 E24.3227
G1 X112.115 Y130.000 E24.5194
G1 X112.115 Y130.820 E24.5473
G1 X117.885 Y130.820 E24.7441
G1 X117.885 Y131.640 E24.7720
G1 X112.115 Y131.640 E24.9687
G1 X112.115 Y132.460 E24.9967
G1 X117.885 Y132.460 E25.1934
G1 E24.1934 F1800
; layer 10, Z = 2.000
; outer perimeter
G1 X118.295 Y133.295 F4800
G1 Z2.000 F1002
G1 E25.1934 F1800
G1 X111.705 Y133.295 E25.4180 F300
G1 X111.705 Y126.705 E25.6427
G1 X118.295 Y126.705 E25.8674
G1 X118.295 Y133.295 E26.0920
; infill
G1 X112.540 Y132.885 F4800
G1 X112.540 Y127.115 E26.2887 F600
G1 X113.360 Y127.115 E26.3167
G1 X113.360 Y132.885 E26.5134
G1 X114.180 Y132.885 E26.5414
G1 X114.180 Y127.115 E26.7381
G1 X115.000 Y127.115 E26.7660
G1 X115.000 Y132.885 E26.9627
G1 X115.820 Y132.885 E26.9907
G1 X115.820 Y127.115 E27.1874
G1 X116.640 Y127.115 E27.2154
G1 X116.640 Y132.885 E27.4121
G1 X117.460 Y132.885 E27.4400
G1 X117.460 Y127.115 E27.6367
G1 E26.6367 F1800
; layer 11, Z = 2.200
; outer perimeter
G1 X118.295 Y133.295 F4800
G1 Z2.200 F1002
G1 E27.6367 F1800
G1 X111.705 Y133.295 E27.8614 F300
G1 X111.705 Y126.705 E28.0861
G1 X118.295 Y126.705 E28.3107
G1 X118.295 Y133.295 E28.5354
; infill
G1 X117.885 Y132.460 F4800
G1 X112.115 Y132.460 E28.7321 F600
G1 X112.115 Y131.640 E28.7600
G1 X117.885 Y131.640 E28.9568
G1 X117.885 Y130.820 E28.9847
G1 X112.115 Y130.820 E29.1814
G1 X112.115 Y130.000 E29.2094
G1 X117.885 Y130.000 E29.4061
G1 X117.885 Y129.180 E29.4340
G1 X112.115 Y129.180 E29.6307
G1 X112.115 Y128.360 E29.6587
G1 X117.885 Y128.360 E29.8554
G1 X117.885 Y127.540 E29.8834
G1 X112.115 Y127.540 E30.0801
G1 E29.0801 F1800
; layer 12, Z = 2.400
; outer perimeter
G1 X111.705 Y133.295 F4800
G1 Z2.400 F1002
G1 E30.0801 F1800
G1 X111.705 Y126.705 E30.3047 F300
G1 X118.295 Y126.705 E30.5294
G1 X118.295 Y133.295 E30.7541
G1 X111.705 Y133.295 E30.9787
; infill
G1 X112.540 Y132.885 F4800
G1 X112.540 Y127.115 E31.1754 F600
G1 X113.360 Y127.115 E31.2034
G1 X113.360 Y132.885 E31.4001
G1 X114.180 Y132.885 E31.4281
G1 X114.180 Y127.115 E31.6248
G1 X115.000 Y127.115 E31.6527
G1 X115.000 Y132.885 E31.8494
G1 X115.820 Y132.885 E31.8774
G1 X115.820 Y127.115 E32.0741
G1 X116.640 Y127.115 E32.1021
G1 X116.640 Y132.885 E32.2988
G1 X117.460 Y132.885 E32.3267
G1 X117.460 Y127.115 E32.5234
G1 E31.5234 F1800
; layer 13, Z = 2.600
; outer perimeter
G1 X111.705 Y126.705 F4800
G1 Z2.600 F1002
G1 E32.5234 F1800
G1 X118.295 Y126.705 E32.7481 F300
G1 X118.295 Y133.295 E32.9728
G1 X111.705 Y133.295 E33.1974
G1 X111.705 Y126.705 E33.4221
; infill
G1 X112.115 Y127.540 F4800
G1 X117.885 Y127.540 E33.6188 F600
G1 X117.885 Y128.360 E33.6467
G1 X112.115 Y128.360 E33.8435
G1 X112.115 Y129.180 E33.8714
G1 X117.885 Y129.180 E34.0681
G1 X117.885 Y130.000 E34.0961
G1 X112.115 Y130.000 E34.2928
G1 X112.115 Y130.820 E34.3207
G1 X117.885 Y130.820 E34.5174
G1 X117.885 Y131.640 E34.5454
G1 X112.115 Y131.640 E34.7421
G1 X112.115 Y132.460 E34.7701
G1 X117.885 Y132.460 E34.9668
G1 E33.9668 F1800
; layer 14, Z = 2.800
; outer perimeter
G1 X118.295 Y133.295 F4800
G1 Z2.800 F1002
G1 E34.9668 F1800
