; G-Code generated by Simplify3D(R) Version 4.0.1
; Nov 1, 2018 at 11:36:25 AM
; Settings Summary
;   processName,Process1
;   applyToModels,Cylinder
;   profileName,deposition
;   profileVersion,2018-10-22 18:20:44
;   baseProfile,Prusa i3
;   printMaterial,PLA
;   printQuality,deposition
;   printExtruders,
;   extruderName,Primary Extruder,Second Extruder,Third Extruder
;   extruderToolheadNumber,0,1,2
;   extruderDiameter,0.25,0.25,0.25
;   extruderAutoWidth,0,0,0
;   extruderWidth,0.25,0.25,0.25
;   extrusionMultiplier,1,1,1
;   extruderUseRetract,0,1,0
;   extruderRetractionDistance,6,1,1
;   extruderExtraRestartDistance,0,0,0
;   extruderRetractionZLift,0,0,0
;   extruderRetractionSpeed,3000,1800,1800
;   extruderUseCoasting,1,1,1
;   extruderCoastingDistance,0.2,0.2,0.2
;   extruderUseWipe,1,0,1
;   extruderWipeDistance,2,5,5
;   primaryExtruder,0
;   layerHeight,0.25
;   topSolidLayers,0
;   bottomSolidLayers,25
;   perimeterOutlines,0
;   printPerimetersInsideOut,1
;   startPointOption,1
;   startPointOriginX,0
;   startPointOriginY,0
;   sequentialIslands,0
;   spiralVaseMode,0
;   firstLayerHeightPercentage,100
;   firstLayerWidthPercentage,100
;   firstLayerUnderspeed,1
;   useRaft,0
;   raftExtruder,0
;   raftTopLayers,3
;   raftBaseLayers,2
;   raftOffset,3
;   raftSeparationDistance,0.14
;   raftTopInfill,100
;   aboveRaftSpeedMultiplier,0.3
;   useSkirt,0
;   skirtExtruder,0
;   skirtLayers,1
;   skirtOutlines,2
;   skirtOffset,4
;   usePrimePillar,0
;   primePillarExtruder,999
;   primePillarWidth,12
;   primePillarLocation,7
;   primePillarSpeedMultiplier,1
;   useOozeShield,0
;   oozeShieldExtruder,999
;   oozeShieldOffset,2
;   oozeShieldOutlines,1
;   oozeShieldSidewallShape,1
;   oozeShieldSidewallAngle,30
;   oozeShieldSpeedMultiplier,1
;   infillExtruder,0
;   internalInfillPattern,Rectilinear
;   externalInfillPattern,Concentric
;   infillPercentage,0
;   outlineOverlapPercentage,99
;   infillExtrusionWidthPercentage,80
;   minInfillLength,2
;   infillLayerInterval,1
;   internalInfillAngles,45,-45
;   overlapInternalInfillAngles,0
;   externalInfillAngles,90,0
;   generateSupport,0
;   supportExtruder,0
;   supportInfillPercentage,20
;   supportExtraInflation,0
;   supportBaseLayers,0
;   denseSupportExtruder,0
;   denseSupportLayers,0
;   denseSupportInfillPercentage,70
;   supportLayerInterval,1
;   supportHorizontalPartOffset,0.2
;   supportUpperSeparationLayers,1
;   supportLowerSeparationLayers,1
;   supportType,0
;   supportGridSpacing,4
;   maxOverhangAngle,0
;   supportAngles,0,90
;   temperatureName,Primary Extruder,Heated Bed
;   temperatureNumber,2,1
;   temperatureSetpointCount,1,1
;   temperatureSetpointLayers,1,1
;   temperatureSetpointTemperatures,280,50
;   temperatureStabilizeAtStartup,1,1
;   temperatureHeatedBed,0,1
;   temperatureRelayBetweenLayers,0,0
;   temperatureRelayBetweenLoops,0,0
;   fanLayers,1,2
;   fanSpeeds,0,100
;   blipFanToFullPower,1
;   adjustSpeedForCooling,1
;   minSpeedLayerTime,15
;   minCoolingSpeedSlowdown,20
;   increaseFanForCooling,0
;   minFanLayerTime,45
;   maxCoolingFanSpeed,100
;   increaseFanForBridging,1
;   bridgingFanSpeed,100
;   use5D,1
;   relativeEdistances,1
;   allowEaxisZeroing,1
;   independentExtruderAxes,0
;   includeM10123,0
;   stickySupport,1
;   applyToolheadOffsets,0
;   gcodeXoffset,0
;   gcodeYoffset,0
;   gcodeZoffset,0
;   overrideMachineDefinition,1
;   machineTypeOverride,0
;   strokeXoverride,200
;   strokeYoverride,200
;   strokeZoverride,175
;   originOffsetXoverride,0
;   originOffsetYoverride,0
;   originOffsetZoverride,0
;   homeXdirOverride,-1
;   homeYdirOverride,-1
;   homeZdirOverride,-1
;   flipXoverride,1
;   flipYoverride,-1
;   flipZoverride,1
;   toolheadOffsets,0,0|0,0|0,0|0,0|0,0|0,0
;   overrideFirmwareConfiguration,1
;   firmwareTypeOverride,RepRap (Marlin/Repetier/Sprinter)
;   GPXconfigOverride,r2
;   baudRateOverride,250000
;   overridePrinterModels,1
;   printerModelsOverride
;   startingGcode,G28 ; home all,G92 E0,G1 Z0.1 F1000,G1 X8.0 F2000,G1 Y60.0 E4.0 F1000.0 ; prime,G1 Y100.0 E8.5 F1000.0 ; prime,G92 E0
;   layerChangeGcode,
;   retractionGcode,
;   toolChangeGcode,
;   endingGcode,;M104 S0 ; turn off extruder,;M140 S0 ; turn off bed,G91 ; use relative coordinates,G1 Z0.6 F5000 ; lift nozzle by 0.6mm,G90 ; use absolute coordinates,G28 X0 ; home X axis,G1 Y195 ; move Y axis to end position,M84 ; disable motors,M107 ; turn off fan
;   exportFileFormat,gcode
;   celebration,0
;   celebrationSong,Random Song
;   postProcessing,
;   defaultSpeed,3000
;   outlineUnderspeed,0.5
;   solidInfillUnderspeed,0.8
;   supportUnderspeed,0.8
;   rapidXYspeed,3600
;   rapidZspeed,1002
;   minBridgingArea,50
;   bridgingExtraInflation,0
;   bridgingExtrusionMultiplier,1
;   bridgingSpeedMultiplier,1
;   useFixedBridgingAngle,0
;   fixedBridgingAngle,0
;   applyBridgingToPerimeters,0
;   filamentDiameters,1.75|1.75|1.75|1.75|1.75|1.75
;   filamentPricesPerKg,215|215|215|215|215|215
;   filamentDensities,1.25|1.25|1.25|1.25|1.25|1.25
;   useMinPrintHeight,0
;   minPrintHeight,0
;   useMaxPrintHeight,0
;   maxPrintHeight,0
;   useDiaphragm,0
;   diaphragmLayerInterval,20
;   robustSlicing,1
;   mergeAllIntoSolid,0
;   onlyRetractWhenCrossingOutline,0
;   retractBetweenLayers,1
;   useRetractionMinTravel,1
;   retractionMinTravel,3
;   retractWhileWiping,1
;   onlyWipeOutlines,1
;   avoidCrossingOutline,0
;   maxMovementDetourFactor,3
;   toolChangeRetractionDistance,12
;   toolChangeExtraRestartDistance,-0.5
;   toolChangeRetractionSpeed,600
;   externalThinWallType,0
;   internalThinWallType,2
;   thinWallAllowedOverlapPercentage,10
;   singleExtrusionMinLength,1
;   singleExtrusionMinPrintingWidthPercentage,50
;   singleExtrusionMaxPrintingWidthPercentage,200
;   singleExtrusionEndpointExtension,0.2
;   horizontalSizeCompensation,0
G90
M83
M106 S255
G4 P500
M106 S0
M140 S50
M190 S50
M104 S280 T2
M109 S280 T2
G28 ; home all
G92 E0
G1 Z0.1 F1000
G1 X8.0 F2000
G1 Y60.0 E4.0 F1000.0 ; prime
G1 Y100.0 E8.5 F1000.0 ; prime
G92 E0
G1 Z0.250 F1002
; process Process1
; layer 1, Z = 0.250
T0
; tool H0.250 W0.250
; solid layer
G1 X93.019 Y93.019 F3600
G1 X93.394 Y92.663 E0.0134 F2400
G1 X93.787 Y92.328 E0.0134
G1 X94.197 Y92.013 E0.0134
G1 X94.623 Y91.720 E0.0134
G1 X95.064 Y91.450 E0.0134
G1 X95.518 Y91.204 E0.0134
G1 X95.984 Y90.981 E0.0134
G1 X96.462 Y90.783 E0.0134
G1 X96.949 Y90.611 E0.0134
G1 X97.445 Y90.464 E0.0134
G1 X97.947 Y90.343 E0.0134
G1 X98.456 Y90.249 E0.0134
G1 X98.968 Y90.182 E0.0134
G1 X99.483 Y90.141 E0.0134
G1 X100.000 Y90.128 E0.0134
G1 X100.517 Y90.141 E0.0134
G1 X101.032 Y90.182 E0.0134
G1 X101.544 Y90.249 E0.0134
G1 X102.053 Y90.343 E0.0134
G1 X102.555 Y90.464 E0.0134
G1 X103.051 Y90.611 E0.0134
G1 X103.538 Y90.783 E0.0134
G1 X104.016 Y90.981 E0.0134
G1 X104.482 Y91.204 E0.0134
G1 X104.936 Y91.450 E0.0134
G1 X105.377 Y91.720 E0.0134
G1 X105.803 Y92.013 E0.0134
G1 X106.213 Y92.328 E0.0134
G1 X106.606 Y92.664 E0.0134
G1 X106.981 Y93.019 E0.0134
G1 X107.337 Y93.394 E0.0134
G1 X107.672 Y93.787 E0.0134
G1 X107.987 Y94.197 E0.0134
G1 X108.280 Y94.623 E0.0134
G1 X108.550 Y95.064 E0.0134
G1 X108.796 Y95.518 E0.0134
G1 X109.019 Y95.985 E0.0134
G1 X109.217 Y96.462 E0.0134
G1 X109.389 Y96.949 E0.0134
G1 X109.536 Y97.445 E0.0134
G1 X109.657 Y97.947 E0.0134
G1 X109.751 Y98.456 E0.0134
G1 X109.818 Y98.968 E0.0134
G1 X109.859 Y99.483 E0.0134
G1 X109.872 Y100.000 E0.0134
G1 X109.859 Y100.517 E0.0134
G1 X109.818 Y101.032 E0.0134
G1 X109.751 Y101.544 E0.0134
G1 X109.657 Y102.053 E0.0134
G1 X109.536 Y102.555 E0.0134
G1 X109.389 Y103.051 E0.0134
G1 X109.217 Y103.538 E0.0134
G1 X109.019 Y104.015 E0.0134
G1 X108.796 Y104.482 E0.0134
G1 X108.550 Y104.936 E0.0134
G1 X108.280 Y105.377 E0.0134
G1 X107.987 Y105.803 E0.0134
G1 X107.672 Y106.213 E0.0134
G1 X107.337 Y106.606 E0.0134
G1 X106.981 Y106.981 E0.0134
G1 X106.606 Y107.337 E0.0134
G1 X106.213 Y107.672 E0.0134
G1 X105.803 Y107.987 E0.0134
G1 X105.377 Y108.280 E0.0134
G1 X104.936 Y108.550 E0.0134
G1 X104.482 Y108.796 E0.0134
G1 X104.016 Y109.019 E0.0134
G1 X103.538 Y109.217 E0.0134
G1 X103.051 Y109.389 E0.0134
G1 X102.555 Y109.536 E0.0134
G1 X102.053 Y109.657 E0.0134
G1 X101.544 Y109.751 E0.0134
G1 X101.032 Y109.818 E0.0134
G1 X100.517 Y109.859 E0.0134
G1 X100.000 Y109.872 E0.0134
G1 X99.483 Y109.859 E0.0134
G1 X98.968 Y109.818 E0.0134
G1 X98.456 Y109.751 E0.0134
G1 X97.947 Y109.657 E0.0134
G1 X97.445 Y109.536 E0.0134
G1 X96.949 Y109.389 E0.0134
G1 X96.462 Y109.217 E0.0134
G1 X95.984 Y109.019 E0.0134
G1 X95.518 Y108.796 E0.0134
G1 X95.064 Y108.550 E0.0134
G1 X94.623 Y108.280 E0.0134
G1 X94.197 Y107.987 E0.0134
G1 X93.787 Y107.672 E0.0134
G1 X93.394 Y107.337 E0.0134
G1 X93.019 Y106.981 E0.0134
G1 X92.663 Y106.606 E0.0134
G1 X92.328 Y106.213 E0.0134
G1 X92.013 Y105.803 E0.0134
G1 X91.720 Y105.377 E0.0134
G1 X91.450 Y104.936 E0.0134
G1 X91.204 Y104.482 E0.0134
G1 X90.981 Y104.015 E0.0134
G1 X90.783 Y103.538 E0.0134
G1 X90.611 Y103.051 E0.0134
G1 X90.464 Y102.555 E0.0134
G1 X90.343 Y102.053 E0.0134
G1 X90.249 Y101.544 E0.0134
G1 X90.182 Y101.032 E0.0134
G1 X90.141 Y100.517 E0.0134
G1 X90.128 Y100.000 E0.0134
G1 X90.141 Y99.483 E0.0134
G1 X90.182 Y98.968 E0.0134
G1 X90.249 Y98.456 E0.0134
G1 X90.343 Y97.947 E0.0134
G1 X90.464 Y97.445 E0.0134
G1 X90.611 Y96.949 E0.0134
G1 X90.783 Y96.462 E0.0134
G1 X90.981 Y95.985 E0.0134
G1 X91.204 Y95.518 E0.0134
G1 X91.450 Y95.064 E0.0134
G1 X91.720 Y94.623 E0.0134
G1 X92.013 Y94.197 E0.0134
G1 X92.328 Y93.787 E0.0134
G1 X92.663 Y93.394 E0.0134
G1 X92.881 Y93.164 E0.0082
G1 X93.019 Y93.019 F2400
G1 X93.196 Y93.196 F3600
G1 X93.561 Y92.849 E0.0131 F2400
G1 X93.944 Y92.522 E0.0131
G1 X94.344 Y92.216 E0.0131
G1 X94.760 Y91.930 E0.0131
G1 X95.189 Y91.667 E0.0131
G1 X95.632 Y91.426 E0.0131
G1 X96.086 Y91.209 E0.0131
G1 X96.552 Y91.017 E0.0131
G1 X97.026 Y90.849 E0.0131
G1 X97.510 Y90.706 E0.0131
G1 X97.999 Y90.588 E0.0131
G1 X98.495 Y90.496 E0.0131
G1 X98.994 Y90.430 E0.0131
G1 X99.496 Y90.391 E0.0131
G1 X100.000 Y90.378 E0.0131
G1 X100.504 Y90.391 E0.0131
G1 X101.006 Y90.430 E0.0131
G1 X101.505 Y90.496 E0.0131
G1 X102.001 Y90.588 E0.0131
G1 X102.490 Y90.706 E0.0131
G1 X102.974 Y90.849 E0.0131
G1 X103.448 Y91.017 E0.0131
G1 X103.914 Y91.209 E0.0131
G1 X104.369 Y91.426 E0.0131
G1 X104.811 Y91.667 E0.0131
G1 X105.240 Y91.930 E0.0131
G1 X105.656 Y92.216 E0.0131
G1 X106.055 Y92.522 E0.0131
G1 X106.439 Y92.849 E0.0131
G1 X106.804 Y93.196 E0.0131
G1 X107.151 Y93.561 E0.0131
G1 X107.478 Y93.944 E0.0131
G1 X107.785 Y94.344 E0.0131
G1 X108.070 Y94.759 E0.0131
G1 X108.333 Y95.189 E0.0131
G1 X108.574 Y95.632 E0.0131
G1 X108.790 Y96.086 E0.0131
G1 X108.983 Y96.552 E0.0131
G1 X109.151 Y97.026 E0.0131
G1 X109.294 Y97.509 E0.0131
G1 X109.412 Y97.999 E0.0131
G1 X109.504 Y98.495 E0.0131
G1 X109.570 Y98.994 E0.0131
G1 X109.609 Y99.496 E0.0131
G1 X109.622 Y100.000 E0.0131
G1 X109.609 Y100.504 E0.0131
G1 X109.570 Y101.006 E0.0131
G1 X109.504 Y101.505 E0.0131
G1 X109.412 Y102.001 E0.0131
G1 X109.294 Y102.491 E0.0131
G1 X109.151 Y102.973 E0.0131
G1 X108.983 Y103.448 E0.0131
G1 X108.790 Y103.914 E0.0131
G1 X108.574 Y104.368 E0.0131
G1 X108.333 Y104.811 E0.0131
G1 X108.070 Y105.240 E0.0131
G1 X107.784 Y105.656 E0.0131
G1 X107.478 Y106.055 E0.0131
G1 X107.151 Y106.439 E0.0131
G1 X106.804 Y106.804 E0.0131
G1 X106.439 Y107.151 E0.0131
G1 X106.056 Y107.478 E0.0131
G1 X105.656 Y107.784 E0.0131
G1 X105.240 Y108.070 E0.0131
G1 X104.811 Y108.333 E0.0131
G1 X104.368 Y108.574 E0.0131
G1 X103.914 Y108.790 E0.0131
G1 X103.448 Y108.983 E0.0131
G1 X102.974 Y109.151 E0.0131
G1 X102.491 Y109.294 E0.0131
G1 X102.001 Y109.412 E0.0131
G1 X101.505 Y109.504 E0.0131
G1 X101.006 Y109.570 E0.0131
G1 X100.504 Y109.609 E0.0131
G1 X100.000 Y109.622 E0.0131
G1 X99.496 Y109.609 E0.0131
G1 X98.994 Y109.570 E0.0131
G1 X98.495 Y109.504 E0.0131
G1 X97.999 Y109.412 E0.0131
G1 X97.509 Y109.294 E0.0131
G1 X97.026 Y109.151 E0.0131
G1 X96.552 Y108.983 E0.0131
G1 X96.086 Y108.790 E0.0131
G1 X95.632 Y108.574 E0.0131
G1 X95.189 Y108.333 E0.0131
G1 X94.759 Y108.070 E0.0131
G1 X94.344 Y107.785 E0.0131
G1 X93.945 Y107.478 E0.0131
G1 X93.561 Y107.151 E0.0131
G1 X93.196 Y106.804 E0.0131
G1 X92.849 Y106.439 E0.0131
G1 X92.522 Y106.056 E0.0131
G1 X92.215 Y105.656 E0.0131
G1 X91.930 Y105.241 E0.0131
G1 X91.667 Y104.811 E0.0131
G1 X91.426 Y104.368 E0.0131
G1 X91.210 Y103.914 E0.0131
G1 X91.017 Y103.448 E0.0131
G1 X90.849 Y102.974 E0.0131
G1 X90.706 Y102.490 E0.0131
G1 X90.588 Y102.001 E0.0131
G1 X90.496 Y101.505 E0.0131
G1 X90.430 Y101.006 E0.0131
G1 X90.391 Y100.504 E0.0131
G1 X90.378 Y100.000 E0.0131
G1 X90.391 Y99.496 E0.0131
G1 X90.430 Y98.994 E0.0131
G1 X90.496 Y98.495 E0.0131
G1 X90.588 Y97.999 E0.0131
G1 X90.706 Y97.509 E0.0131
G1 X90.849 Y97.026 E0.0131
G1 X91.017 Y96.552 E0.0131
G1 X91.210 Y96.086 E0.0131
G1 X91.426 Y95.632 E0.0131
G1 X91.667 Y95.189 E0.0131
G1 X91.930 Y94.759 E0.0131
G1 X92.215 Y94.344 E0.0131
G1 X92.522 Y93.945 E0.0131
G1 X92.849 Y93.561 E0.0131
G1 X93.058 Y93.341 E0.0079
G1 X93.196 Y93.196 F2400
G1 X93.373 Y93.373 F3600
G1 X93.729 Y93.035 E0.0128 F2400
G1 X94.102 Y92.716 E0.0127
G1 X94.491 Y92.418 E0.0127
G1 X94.896 Y92.140 E0.0128
G1 X95.314 Y91.883 E0.0128
G1 X95.745 Y91.649 E0.0127
G1 X96.188 Y91.438 E0.0127
G1 X96.642 Y91.250 E0.0128
G1 X97.103 Y91.087 E0.0127
G1 X97.575 Y90.947 E0.0128
G1 X98.051 Y90.833 E0.0127
G1 X98.534 Y90.743 E0.0128
G1 X99.020 Y90.679 E0.0127
G1 X99.509 Y90.641 E0.0127
G1 X100.000 Y90.628 E0.0128
G1 X100.491 Y90.641 E0.0128
G1 X100.980 Y90.679 E0.0127
G1 X101.466 Y90.743 E0.0127
G1 X101.949 Y90.833 E0.0128
G1 X102.425 Y90.947 E0.0127
G1 X102.897 Y91.087 E0.0128
G1 X103.359 Y91.250 E0.0127
G1 X103.812 Y91.438 E0.0128
G1 X104.255 Y91.649 E0.0128
G1 X104.686 Y91.883 E0.0127
G1 X105.104 Y92.140 E0.0127
G1 X105.509 Y92.418 E0.0128
G1 X105.898 Y92.716 E0.0127
G1 X106.272 Y93.035 E0.0128
G1 X106.627 Y93.373 E0.0127
G1 X106.965 Y93.729 E0.0128
G1 X107.284 Y94.102 E0.0127
G1 X107.582 Y94.491 E0.0128
G1 X107.860 Y94.896 E0.0128
G1 X108.117 Y95.314 E0.0127
G1 X108.351 Y95.745 E0.0127
G1 X108.562 Y96.188 E0.0128
G1 X108.750 Y96.641 E0.0127
G1 X108.914 Y97.104 E0.0127
G1 X109.053 Y97.574 E0.0127
G1 X109.168 Y98.051 E0.0128
G1 X109.257 Y98.534 E0.0127
G1 X109.321 Y99.020 E0.0128
G1 X109.359 Y99.509 E0.0127
G1 X109.372 Y100.000 E0.0128
G1 X109.359 Y100.491 E0.0128
G1 X109.321 Y100.979 E0.0127
G1 X109.257 Y101.466 E0.0127
G1 X109.167 Y101.949 E0.0128
G1 X109.053 Y102.426 E0.0128
G1 X108.914 Y102.896 E0.0127
G1 X108.750 Y103.359 E0.0127
G1 X108.562 Y103.812 E0.0128
G1 X108.351 Y104.255 E0.0127
G1 X108.117 Y104.686 E0.0128
G1 X107.861 Y105.104 E0.0127
G1 X107.582 Y105.509 E0.0128
G1 X107.284 Y105.898 E0.0127
G1 X106.965 Y106.271 E0.0128
G1 X106.627 Y106.627 E0.0127
G1 X106.271 Y106.965 E0.0127
G1 X105.898 Y107.284 E0.0128
G1 X105.509 Y107.582 E0.0127
G1 X105.104 Y107.860 E0.0128
G1 X104.686 Y108.117 E0.0127
G1 X104.255 Y108.351 E0.0128
G1 X103.812 Y108.562 E0.0127
G1 X103.359 Y108.750 E0.0128
G1 X102.896 Y108.914 E0.0127
G1 X102.426 Y109.053 E0.0128
G1 X101.949 Y109.167 E0.0127
G1 X101.466 Y109.257 E0.0128
G1 X100.980 Y109.321 E0.0127
G1 X100.491 Y109.359 E0.0127
G1 X100.000 Y109.372 E0.0128
G1 X99.509 Y109.359 E0.0128
G1 X99.020 Y109.321 E0.0127
G1 X98.534 Y109.257 E0.0127
G1 X98.051 Y109.167 E0.0128
G1 X97.574 Y109.053 E0.0128
G1 X97.104 Y108.914 E0.0127
G1 X96.641 Y108.750 E0.0127
G1 X96.188 Y108.562 E0.0128
G1 X95.745 Y108.351 E0.0127
G1 X95.314 Y108.117 E0.0127
G1 X94.895 Y107.860 E0.0128
