; generated by Slic3r 1.2.9 on 2019-04-04 at 21:48:51

; external perimeters extrusion width = 0.35mm
; perimeters extrusion width = 0.39mm
; infill extrusion width = 0.39mm
; solid infill extrusion width = 0.39mm
; top infill extrusion width = 0.39mm

M107 ; disable fan
M104 S205 ; set temperature
G28 ; home all axes
G1 Z5 F5000 ; lift nozzle

M109 S205 ; wait for temperature to be reached
G21 ; set units to millimeters
G90 ; use absolute coordinates
M82 ; use absolute distances for extrusion
G92 E0 ; reset extrusion distance
; layer 0
G1 E-1.00000 F2400.00000 ; retract
G92 E0 ; reset extrusion distance
G1 X89.915 Y90.597 Z4.464 F7800.000 ; move to first skirt point
G1 E1.00000 F2400.00000 ; unretract
G1 X91.668 Y89.124 Z4.331 E1.071 F1800.000 ; skirt
G1 X93.82 Y88.335 Z4.261 E1.1419 ; skirt
G1 X95.0 Y88.229 Z4.251 E1.1786 ; skirt
G1 X105.0 Y88.229 Z4.251 E1.488 ; skirt
G1 X107.259 Y88.624 Z4.286 E1.559 ; skirt
G1 X109.247 Y89.762 Z4.388 E1.6299 F1800.000 ; skirt
G1 X110.726 Y91.508 Z4.547 E1.7009 ; skirt
G1 X111.519 Y93.65 Z4.746 E1.7718 ; skirt
G1 X111.625 Y94.824 Z4.858 E1.8085 ; skirt
G1 X111.625 Y99.798 Z5.344 E1.9631 ; skirt
G1 X111.625 Y104.77 Z5.856 E2.1178 ; skirt
G1 X111.228 Y107.016 Z6.095 E2.1889 ; skirt
G1 X110.085 Y108.992 Z6.309 E2.2598 ; skirt
G1 X108.332 Y110.461 Z6.472 E2.3308 ; skirt
G1 X106.18 Y111.249 Z6.56 E2.4017 ; skirt
G1 X105.0 Y111.354 Z6.571 E2.4384 ; skirt
G1 X95.0 Y111.354 Z6.571 E2.7478 ; skirt
G1 X92.741 Y110.96 Z6.527 E2.8188 ; skirt
G1 X90.753 Y109.824 Z6.401 E2.8897 ; skirt
G1 X89.274 Y108.082 Z6.21 E2.9607 ; skirt
G1 X88.481 Y105.944 Z5.98 E3.0317 ; skirt
G1 X88.375 Y104.77 Z5.856 E3.0683 ; skirt
G1 X88.375 Y99.798 Z5.344 E3.2229 ; skirt
G1 X88.375 Y94.824 Z4.858 E3.3776 ; skirt
G1 X88.772 Y92.576 Z4.646 E3.4487 ; skirt
G1 X89.889 Y90.643 Z4.468 E3.518 ; skirt
G1 E2.51803 F2400.00000 ; retract
G92 E0 ; reset extrusion distance
G1 X96.644 Y96.913 Z5.059 F7800.000 ; move to first perimeter point
G1 X103.4 Y103.18 Z5.689 F7800.000 ; move to first perimeter point
G1 E1.00000 F2400.00000 ; unretract
G1 X96.6 Y103.18 Z5.689 E1.2104 F1800.000 ; perimeter
G1 X96.6 Y96.416 Z5.011 E1.4207 ; perimeter
G1 X103.4 Y96.416 Z5.011 E1.6312 ; perimeter
G1 X103.4 Y103.128 Z5.684 E1.8399 ; perimeter
G1 X104.025 Y103.801 Z5.754 F7800.000 ; move to first perimeter point
G1 X95.975 Y103.801 Z5.754 E2.0891 F1800.000 ; perimeter
G1 X95.975 Y95.794 Z4.95 E2.3381 ; perimeter
G1 X104.025 Y95.794 Z4.95 E2.5873 ; perimeter
G1 X104.025 Y103.749 Z5.748 E2.8347 ; perimeter
G1 X104.65 Y104.423 Z5.819 F7800.000 ; move to first perimeter point
G1 X95.35 Y104.423 Z5.819 E3.1225 F1800.000 ; perimeter
G1 X95.35 Y99.798 Z5.344 E3.2663 ; perimeter
G1 X95.35 Y95.172 Z4.891 E3.4102 ; perimeter
G1 X104.65 Y95.172 Z4.891 E3.698 ; perimeter
G1 X104.65 Y99.772 Z5.341 E3.8411 ; perimeter
G1 X104.65 Y104.37 Z5.813 E3.9841 ; perimeter
G1 X104.347 Y104.249 Z5.801 F7800.000 ; move inwards before travel
G1 X103.022 Y97.096 Z5.077 F7800.000 ; move to first infill point
G1 X102.717 Y96.792 Z5.047 E3.9986 F1800.000 ; infill
G1 X101.76 Y96.792 Z5.047 E4.0306 ; infill
G1 X103.022 Y98.048 Z5.17 E4.0903 ; infill
G1 X103.022 Y98.999 Z5.264 E4.1224 ; infill
G1 X100.804 Y96.792 Z5.047 E4.2274 ; infill
G1 X99.847 Y96.792 Z5.047 E4.2594 ; infill
G1 X103.022 Y99.951 Z5.359 E4.4097 ; infill
G1 X103.022 Y100.901 Z5.455 E4.4417 ; infill
G1 X98.891 Y96.792 Z5.047 E4.6373 ; infill
G1 X97.935 Y96.792 Z5.047 E4.6694 ; infill
G1 X103.022 Y101.852 Z5.552 E4.9103 ; infill
G1 X103.002 Y102.784 Z5.648 E4.9416 ; infill
G1 X96.998 Y96.812 Z5.049 E5.2259 ; infill
G1 X96.978 Y97.744 Z5.14 E5.2573 ; infill
G1 X102.065 Y102.804 Z5.65 E5.4981 ; infill
G1 X101.109 Y102.804 Z5.65 E5.5302 ; infill
G1 X96.978 Y98.695 Z5.234 E5.7258 ; infill
G1 X96.978 Y99.646 Z5.329 E5.7578 ; infill
G1 X100.153 Y102.804 Z5.65 E5.9081 ; infill
G1 X99.196 Y102.804 Z5.65 E5.9401 ; infill
G1 X96.978 Y100.598 Z5.425 E6.0452 ; infill
G1 X96.978 Y101.549 Z5.521 E6.0772 ; infill
G1 X98.24 Y102.804 Z5.65 E6.1369 ; infill
G1 X97.283 Y102.804 Z5.65 E6.1689 ; infill
G1 X96.978 Y102.501 Z5.619 E6.1834 ; infill
M104 S200 ; set temperature
; layer 1
G1 X104.201 Y103.945 Z6.07 F7800.000 ; move to first perimeter point
G1 X95.799 Y103.945 Z6.07 E6.2977 F900.000 ; perimeter
G1 X95.799 Y95.59 Z5.232 E6.412 ; perimeter
G1 X104.201 Y95.59 Z5.232 E6.5265 ; perimeter
G1 X104.201 Y103.893 Z6.065 E6.64 ; perimeter
G1 X104.522 Y104.264 Z6.104 F7800.000 ; move to first perimeter point
G1 X95.478 Y104.264 Z6.104 E6.7632 F900.000 ; perimeter
G1 X95.478 Y99.769 Z5.643 E6.8248 ; perimeter
G1 X95.478 Y95.271 Z5.202 E6.8863 ; perimeter
G1 X104.522 Y95.271 Z5.202 E7.0094 ; perimeter
G1 X104.522 Y99.742 Z5.64 E7.0706 ; perimeter
G1 X104.522 Y104.211 Z6.098 E7.1318 ; perimeter
G1 X104.825 Y104.565 Z6.136 F7800.000 ; move to first perimeter point
G1 X95.175 Y104.565 Z6.136 E7.2488 F900.000 ; perimeter
G1 X95.175 Y99.769 Z5.643 E7.3073 ; perimeter
G1 X95.175 Y94.97 Z5.173 E7.3658 ; perimeter
G1 X104.825 Y94.97 Z5.173 E7.4827 ; perimeter
G1 X104.825 Y99.742 Z5.64 E7.5409 ; perimeter
G1 X104.825 Y104.512 Z6.13 E7.5991 ; perimeter
G1 X104.522 Y104.391 Z6.117 F7800.000 ; move inwards before travel
G1 X103.841 Y103.762 Z6.051 F7800.000 ; move to first infill point
G1 X104.017 Y103.587 Z6.033 E7.6025 F1200.000 ; infill
G1 X104.017 Y103.127 Z5.985 E7.6089 ; infill
G1 X103.378 Y103.762 Z6.051 E7.6215 ; infill
G1 X102.916 Y103.762 Z6.051 E7.6279 ; infill
G1 X104.017 Y102.668 Z5.938 E7.6494 ; infill
G1 X104.017 Y102.208 Z5.89 E7.6559 ; infill
G1 X102.454 Y103.762 Z6.051 E7.6865 ; infill
G1 X101.992 Y103.762 Z6.051 E7.6929 ; infill
G1 X104.017 Y101.749 Z5.843 E7.7326 ; infill
G1 X104.017 Y101.29 Z5.796 E7.739 ; infill
G1 X101.53 Y103.762 Z6.051 E7.7878 ; infill
G1 X101.067 Y103.762 Z6.051 E7.7942 ; infill
G1 X104.017 Y100.829 Z5.75 E7.8521 ; infill
G1 X104.017 Y100.37 Z5.703 E7.8585 ; infill
G1 X100.605 Y103.762 Z6.051 E7.9254 ; infill
G1 X100.143 Y103.762 Z6.051 E7.9318 ; infill
G1 X104.017 Y99.911 Z5.657 E8.0078 ; infill
G1 X104.017 Y99.451 Z5.611 E8.0142 ; infill
G1 X99.681 Y103.762 Z6.051 E8.0993 ; infill
G1 X99.219 Y103.762 Z6.051 E8.1057 ; infill
G1 X104.017 Y98.992 Z5.565 E8.1998 ; infill
G1 X104.017 Y98.532 Z5.519 E8.2062 ; infill
G1 X98.757 Y103.762 Z6.051 E8.3094 ; infill
G1 X98.294 Y103.762 Z6.051 E8.3158 ; infill
G1 X104.017 Y98.072 Z5.474 E8.4281 ; infill
G1 X104.017 Y97.613 Z5.429 E8.4345 ; infill
G1 X97.832 Y103.762 Z6.051 E8.5558 ; infill
G1 X97.37 Y103.762 Z6.051 E8.5622 ; infill
G1 X104.017 Y97.153 Z5.384 E8.6926 ; infill
G1 X104.017 Y96.693 Z5.339 E8.699 ; infill
G1 X96.908 Y103.762 Z6.051 E8.8384 ; infill
G1 X96.446 Y103.762 Z6.051 E8.8448 ; infill
G1 X104.017 Y96.234 Z5.294 E8.9933 ; infill
G1 X103.997 Y95.793 Z5.252 E8.9995 ; infill
G1 X96.003 Y103.742 Z6.049 E9.1562 ; infill
G1 X95.983 Y103.302 Z6.003 E9.1624 ; infill
G1 X103.554 Y95.773 Z5.25 E9.3109 ; infill
G1 X103.092 Y95.773 Z5.25 E9.3173 ; infill
G1 X95.983 Y102.843 Z5.956 E9.4568 ; infill
G1 X95.983 Y102.383 Z5.908 E9.4632 ; infill
G1 X102.63 Y95.773 Z5.25 E9.5936 ; infill
G1 X102.168 Y95.773 Z5.25 E9.6 ; infill
G1 X95.983 Y101.924 Z5.861 E9.7213 ; infill
G1 X95.983 Y101.465 Z5.814 E9.7277 ; infill
G1 X101.706 Y95.773 Z5.25 E9.8399 ; infill
G1 X101.243 Y95.773 Z5.25 E9.8463 ; infill
G1 X95.983 Y101.004 Z5.767 E9.9495 ; infill
G1 X95.983 Y100.545 Z5.721 E9.9559 ; infill
G1 X100.781 Y95.773 Z5.25 E10.0501 ; infill
G1 X100.319 Y95.773 Z5.25 E10.0565 ; infill
G1 X95.983 Y100.086 Z5.674 E10.1415 ; infill
G1 X95.983 Y99.626 Z5.628 E10.1479 ; infill
G1 X99.857 Y95.773 Z5.25 E10.2239 ; infill
G1 X99.395 Y95.773 Z5.25 E10.2303 ; infill
G1 X95.983 Y99.167 Z5.582 E10.2972 ; infill
G1 X95.983 Y98.707 Z5.537 E10.3036 ; infill
G1 X98.933 Y95.773 Z5.25 E10.3615 ; infill
G1 X98.47 Y95.773 Z5.25 E10.3679 ; infill
G1 X95.983 Y98.247 Z5.491 E10.4167 ; infill
G1 X95.983 Y97.788 Z5.446 E10.4231 ; infill
G1 X98.008 Y95.773 Z5.25 E10.4628 ; infill
G1 X97.546 Y95.773 Z5.25 E10.4692 ; infill
G1 X95.983 Y97.328 Z5.401 E10.4999 ; infill
G1 X95.983 Y96.869 Z5.356 E10.5063 ; infill
G1 X97.084 Y95.773 Z5.25 E10.5279 ; infill
G1 X96.622 Y95.773 Z5.25 E10.5343 ; infill
G1 X95.983 Y96.409 Z5.311 E10.5468 ; infill
G1 X95.983 Y95.948 Z5.267 E10.5532 ; infill
G1 X96.159 Y95.773 Z5.25 E10.5567 ; infill
; layer 2
G1 X104.201 Y103.914 Z6.369 F7800.000 ; move to first perimeter point
G1 X95.799 Y103.914 Z6.369 E10.671 F900.000 ; perimeter
G1 X95.799 Y95.562 Z5.531 E10.7853 ; perimeter
G1 X104.201 Y95.562 Z5.531 E10.8998 ; perimeter
G1 X104.201 Y103.862 Z6.363 E11.0133 ; perimeter
G1 X104.522 Y104.233 Z6.402 F7800.000 ; move to first perimeter point
G1 X95.478 Y104.233 Z6.402 E11.1365 F900.000 ; perimeter
G1 X95.478 Y99.739 Z5.941 E11.1981 ; perimeter
G1 X95.478 Y95.242 Z5.5 E11.2596 ; perimeter
G1 X104.522 Y95.242 Z5.5 E11.3827 ; perimeter
G1 X104.522 Y99.712 Z5.938 E11.4438 ; perimeter
G1 X104.522 Y104.18 Z6.397 E11.505 ; perimeter
G1 X104.825 Y104.534 Z6.434 F7800.000 ; move to first perimeter point
G1 X95.175 Y104.534 Z6.434 E11.622 F900.000 ; perimeter
G1 X95.175 Y99.739 Z5.941 E11.6805 ; perimeter
G1 X95.175 Y94.941 Z5.471 E11.739 ; perimeter
G1 X104.825 Y94.941 Z5.471 E11.856 ; perimeter
G1 X104.825 Y99.712 Z5.938 E11.9141 ; perimeter
G1 X104.825 Y104.481 Z6.428 E11.9723 ; perimeter
G1 X104.522 Y104.36 Z6.416 F7800.000 ; move inwards before travel
G1 X104.017 Y95.92 Z5.565 F7800.000 ; move to first infill point
G1 X103.841 Y95.745 Z5.548 E11.9758 F1200.000 ; infill
G1 X103.378 Y95.745 Z5.548 E11.9822 ; infill
G1 X104.017 Y96.38 Z5.61 E11.9947 ; infill
G1 X104.017 Y96.839 Z5.654 E12.0011 ; infill
G1 X102.916 Y95.745 Z5.548 E12.0227 ; infill
G1 X102.454 Y95.745 Z5.548 E12.0291 ; infill
G1 X104.017 Y97.299 Z5.699 E12.0598 ; infill
G1 X104.017 Y97.758 Z5.744 E12.0662 ; infill
G1 X101.992 Y95.745 Z5.548 E12.1059 ; infill
G1 X101.53 Y95.745 Z5.548 E12.1123 ; infill
G1 X104.017 Y98.218 Z5.79 E12.1611 ; infill
G1 X104.017 Y98.678 Z5.835 E12.1675 ; infill
G1 X101.067 Y95.745 Z5.548 E12.2254 ; infill
G1 X100.605 Y95.745 Z5.548 E12.2318 ; infill
G1 X104.017 Y99.137 Z5.881 E12.2987 ; infill
G1 X104.017 Y99.596 Z5.927 E12.3051 ; infill
G1 X100.143 Y95.745 Z5.548 E12.3811 ; infill
G1 X99.681 Y95.745 Z5.548 E12.3875 ; infill
G1 X104.017 Y100.056 Z5.973 E12.4726 ; infill
G1 X104.017 Y100.515 Z6.019 E12.479 ; infill
G1 X99.219 Y95.745 Z5.548 E12.5731 ; infill
G1 X98.757 Y95.745 Z5.548 E12.5795 ; infill
G1 X104.017 Y100.974 Z6.066 E12.6826 ; infill
G1 X104.017 Y101.434 Z6.113 E12.6891 ; infill
G1 X98.294 Y95.745 Z5.548 E12.8012 ; infill
G1 X97.832 Y95.745 Z5.548 E12.8077 ; infill
G1 X104.017 Y101.893 Z6.16 E12.9289 ; infill
G1 X104.017 Y102.353 Z6.207 E12.9355 ; infill
G1 X97.37 Y95.745 Z5.548 E13.0657 ; infill
G1 X96.908 Y95.745 Z5.548 E13.0722 ; infill
G1 X104.017 Y102.812 Z6.254 E13.2116 ; infill
G1 X104.017 Y103.271 Z6.302 E13.2181 ; infill
G1 X96.446 Y95.745 Z5.548 E13.3665 ; infill
G1 X96.003 Y95.765 Z5.55 E13.3727 ; infill
G1 X103.997 Y103.711 Z6.348 E13.5294 ; infill
G1 X103.554 Y103.731 Z6.35 E13.5357 ; infill
G1 X95.983 Y96.205 Z5.593 E13.6841 ; infill
G1 X95.983 Y96.664 Z5.637 E13.6906 ; infill
G1 X103.092 Y103.731 Z6.35 E13.8299 ; infill
G1 X102.63 Y103.731 Z6.35 E13.8365 ; infill
G1 X95.983 Y97.124 Z5.682 E13.9667 ; infill
G1 X95.983 Y97.583 Z5.727 E13.9732 ; infill
G1 X102.168 Y103.731 Z6.35 E14.0945 ; infill
G1 X101.706 Y103.731 Z6.35 E14.101 ; infill
G1 X95.983 Y98.043 Z5.772 E14.2131 ; infill
G1 X95.983 Y98.503 Z5.818 E14.2196 ; infill
G1 X101.243 Y103.731 Z6.35 E14.3228 ; infill
G1 X100.781 Y103.731 Z6.35 E14.3292 ; infill
G1 X95.983 Y98.962 Z5.863 E14.4233 ; infill
G1 X95.983 Y99.421 Z5.909 E14.4297 ; infill
G1 X100.319 Y103.731 Z6.35 E14.5148 ; infill
G1 X99.857 Y103.731 Z6.35 E14.5212 ; infill
G1 X95.983 Y99.881 Z5.955 E14.5972 ; infill
G1 X95.983 Y100.34 Z6.002 E14.6036 ; infill
G1 X99.395 Y103.731 Z6.35 E14.6705 ; infill
G1 X98.933 Y103.731 Z6.35 E14.6769 ; infill
G1 X95.983 Y100.799 Z6.048 E14.7348 ; infill
G1 X95.983 Y101.259 Z6.095 E14.7412 ; infill
G1 X98.47 Y103.731 Z6.35 E14.79 ; infill
G1 X98.008 Y103.731 Z6.35 E14.7964 ; infill
G1 X95.983 Y101.719 Z6.142 E14.8361 ; infill
G1 X95.983 Y102.178 Z6.189 E14.8425 ; infill
G1 X97.546 Y103.731 Z6.35 E14.8732 ; infill
G1 X97.084 Y103.731 Z6.35 E14.8796 ; infill
G1 X95.983 Y102.637 Z6.236 E14.9011 ; infill
G1 X95.983 Y103.096 Z6.284 E14.9076 ; infill
G1 X96.622 Y103.731 Z6.35 E14.9201 ; infill
G1 X96.159 Y103.731 Z6.35 E14.9265 ; infill
G1 X95.983 Y103.556 Z6.332 E14.9299 ; infill
M106 S214.2 ; enable fan
; layer 3
G1 X104.201 Y103.883 Z6.667 F7800.000 ; move to first perimeter point
G1 X95.799 Y103.883 Z6.667 E15.0443 F900.000 ; perimeter
G1 X95.799 Y95.533 Z5.829 E15.1586 ; perimeter
G1 X104.201 Y95.533 Z5.829 E15.273 ; perimeter
G1 X104.201 Y103.831 Z6.662 E15.3866 ; perimeter
G1 X104.522 Y104.201 Z6.701 F7800.000 ; move to first perimeter point
G1 X95.478 Y104.201 Z6.701 E15.5098 F900.000 ; perimeter
G1 X95.478 Y99.709 Z6.24 E15.5712 ; perimeter
G1 X95.478 Y95.214 Z5.799 E15.6328 ; perimeter
G1 X104.522 Y95.214 Z5.799 E15.756 ; perimeter
G1 X104.522 Y99.682 Z6.237 E15.8171 ; perimeter
G1 X104.522 Y104.149 Z6.695 E15.8782 ; perimeter
G1 X104.825 Y104.502 Z6.732 F7800.000 ; move to first perimeter point
G1 X95.175 Y104.502 Z6.732 E15.9953 F900.000 ; perimeter
G1 X95.175 Y99.709 Z6.24 E16.0537 ; perimeter
G1 X95.175 Y94.913 Z5.77 E16.1122 ; perimeter
G1 X104.825 Y94.913 Z5.77 E16.2293 ; perimeter
G1 X104.825 Y99.682 Z6.237 E16.2873 ; perimeter
G1 X104.825 Y104.45 Z6.727 E16.3455 ; perimeter
G1 X104.522 Y104.329 Z6.714 F7800.000 ; move inwards before travel
G1 X103.841 Y103.7 Z6.648 F7800.000 ; move to first infill point
G1 X104.017 Y103.525 Z6.63 E16.3491 F1200.000 ; infill
G1 X104.017 Y103.065 Z6.582 E16.3555 ; infill
G1 X103.378 Y103.7 Z6.648 E16.368 ; infill
G1 X102.916 Y103.7 Z6.648 E16.3744 ; infill
G1 X104.017 Y102.606 Z6.535 E16.396 ; infill
G1 X104.017 Y102.147 Z6.487 E16.4024 ; infill
G1 X102.454 Y103.7 Z6.648 E16.4331 ; infill
G1 X101.992 Y103.7 Z6.648 E16.4395 ; infill
G1 X104.017 Y101.688 Z6.44 E16.4792 ; infill
G1 X104.017 Y101.229 Z6.393 E16.4856 ; infill
G1 X101.53 Y103.7 Z6.648 E16.5344 ; infill
G1 X101.067 Y103.7 Z6.648 E16.5408 ; infill
G1 X104.017 Y100.769 Z6.347 E16.5986 ; infill
G1 X104.017 Y100.31 Z6.3 E16.6051 ; infill
G1 X100.605 Y103.7 Z6.648 E16.672 ; infill
G1 X100.143 Y103.7 Z6.648 E16.6784 ; infill
G1 X104.017 Y99.851 Z6.254 E16.7544 ; infill
G1 X104.017 Y99.392 Z6.208 E16.7608 ; infill
G1 X99.681 Y103.7 Z6.648 E16.8457 ; infill
G1 X99.219 Y103.7 Z6.648 E16.8522 ; infill
G1 X104.017 Y98.932 Z6.162 E16.9462 ; infill
G1 X104.017 Y98.473 Z6.116 E16.9528 ; infill
G1 X98.757 Y103.7 Z6.648 E17.0558 ; infill
G1 X98.294 Y103.7 Z6.648 E17.0623 ; infill
G1 X104.017 Y98.013 Z6.071 E17.1745 ; infill
G1 X104.017 Y97.554 Z6.026 E17.181 ; infill
G1 X97.832 Y103.7 Z6.648 E17.3022 ; infill
G1 X97.37 Y103.7 Z6.648 E17.3087 ; infill
G1 X104.017 Y97.095 Z5.981 E17.439 ; infill
G1 X104.017 Y96.635 Z5.936 E17.4455 ; infill
G1 X96.908 Y103.7 Z6.648 E17.5849 ; infill
G1 X96.446 Y103.7 Z6.648 E17.5914 ; infill
G1 X104.017 Y96.176 Z5.892 E17.7398 ; infill
G1 X103.997 Y95.736 Z5.849 E17.746 ; infill
G1 X96.003 Y103.68 Z6.646 E17.9027 ; infill
G1 X95.983 Y103.24 Z6.6 E17.909 ; infill
G1 X103.554 Y95.716 Z5.847 E18.0574 ; infill
G1 X103.092 Y95.716 Z5.847 E18.0639 ; infill
G1 X95.983 Y102.781 Z6.553 E18.2032 ; infill
G1 X95.983 Y102.322 Z6.505 E18.2097 ; infill
G1 X102.63 Y95.716 Z5.847 E18.34 ; infill
G1 X102.168 Y95.716 Z5.847 E18.3465 ; infill
G1 X95.983 Y101.863 Z6.458 E18.4677 ; infill
G1 X95.983 Y101.404 Z6.411 E18.4742 ; infill
G1 X101.706 Y95.716 Z5.847 E18.5864 ; infill
G1 X101.243 Y95.716 Z5.847 E18.5929 ; infill
G1 X95.983 Y100.944 Z6.364 E18.696 ; infill
G1 X95.983 Y100.485 Z6.318 E18.7025 ; infill
G1 X100.781 Y95.716 Z5.847 E18.7965 ; infill
G1 X100.319 Y95.716 Z5.847 E18.803 ; infill
G1 X95.983 Y100.026 Z6.271 E18.8879 ; infill
G1 X95.983 Y99.567 Z6.225 E18.8945 ; infill
