; G-Code generated by Simplify3D(R) Version 4.0.0
; May 10, 2018 at 1:52:15 PM
; Settings Summary
;   processName,Process1
;   applyToModels,7x7x4
;   profileName,Deposition
;   profileVersion,2018-05-01 18:45:14
;   baseProfile,Leapfrog Creatr Dual
;   printMaterial,PLA
;   printQuality,Medium
;   printExtruders,Right Extruder Only
;   extruderName,Right Extruder,Left Extruder
;   extruderToolheadNumber,0,1
;   extruderDiameter,0.41,0.35
;   extruderAutoWidth,0,0
;   extruderWidth,0.41,0.25
;   extrusionMultiplier,1,1
;   extruderUseRetract,1,0
;   extruderRetractionDistance,1,1
;   extruderExtraRestartDistance,0,0
;   extruderRetractionZLift,0,0
;   extruderRetractionSpeed,1800,1800
;   extruderUseCoasting,0,0
;   extruderCoastingDistance,0.2,0.2
;   extruderUseWipe,0,0
;   extruderWipeDistance,5,5
;   primaryExtruder,0
;   layerHeight,0.2
;   topSolidLayers,2
;   bottomSolidLayers,2
;   perimeterOutlines,1
;   printPerimetersInsideOut,0
;   startPointOption,1
;   startPointOriginX,0
;   startPointOriginY,0
;   sequentialIslands,0
;   spiralVaseMode,0
;   firstLayerHeightPercentage,100
;   firstLayerWidthPercentage,100
;   firstLayerUnderspeed,0.5
;   useRaft,0
;   raftExtruder,0
;   raftTopLayers,3
;   raftBaseLayers,2
;   raftOffset,3
;   raftSeparationDistance,0.14
;   raftTopInfill,100
;   aboveRaftSpeedMultiplier,0.3
;   useSkirt,0
;   skirtExtruder,0
;   skirtLayers,1
;   skirtOutlines,2
;   skirtOffset,4
;   usePrimePillar,0
;   primePillarExtruder,999
;   primePillarWidth,12
;   primePillarLocation,7
;   primePillarSpeedMultiplier,1
;   useOozeShield,0
;   oozeShieldExtruder,0
;   oozeShieldOffset,0
;   oozeShieldOutlines,1
;   oozeShieldSidewallShape,1
;   oozeShieldSidewallAngle,30
;   oozeShieldSpeedMultiplier,1
;   infillExtruder,0
;   internalInfillPattern,Rectilinear
;   externalInfillPattern,Rectilinear
;   infillPercentage,50
;   outlineOverlapPercentage,0
;   infillExtrusionWidthPercentage,100
;   minInfillLength,2
;   infillLayerInterval,1
;   internalInfillAngles,0,90
;   overlapInternalInfillAngles,0
;   externalInfillAngles,0,90
;   generateSupport,0
;   supportExtruder,0
;   supportInfillPercentage,10
;   supportExtraInflation,0
;   supportBaseLayers,0
;   denseSupportExtruder,0
;   denseSupportLayers,0
;   denseSupportInfillPercentage,70
;   supportLayerInterval,1
;   supportHorizontalPartOffset,0.3
;   supportUpperSeparationLayers,1
;   supportLowerSeparationLayers,1
;   supportType,0
;   supportGridSpacing,4
;   maxOverhangAngle,0
;   supportAngles,45,-45
;   temperatureName,Right Extruder,Left Extruder,Heated Bed
;   temperatureNumber,0,1,2
;   temperatureSetpointCount,1,1,1
;   temperatureSetpointLayers,1,1,1
;   temperatureSetpointTemperatures,210,0,60
;   temperatureStabilizeAtStartup,1,0,1
;   temperatureHeatedBed,0,0,1
;   temperatureRelayBetweenLayers,0,0,0
;   temperatureRelayBetweenLoops,0,0,0
;   fanLayers,1,2
;   fanSpeeds,0,100
;   blipFanToFullPower,1
;   adjustSpeedForCooling,1
;   minSpeedLayerTime,15
;   minCoolingSpeedSlowdown,20
;   increaseFanForCooling,0
;   minFanLayerTime,45
;   maxCoolingFanSpeed,100
;   increaseFanForBridging,1
;   bridgingFanSpeed,100
;   use5D,1
;   relativeEdistances,0
;   allowEaxisZeroing,0
;   independentExtruderAxes,0
;   includeM10123,0
;   stickySupport,1
;   applyToolheadOffsets,0
;   gcodeXoffset,0
;   gcodeYoffset,0
;   gcodeZoffset,0
;   overrideMachineDefinition,1
;   machineTypeOverride,0
;   strokeXoverride,230
;   strokeYoverride,260
;   strokeZoverride,200
;   originOffsetXoverride,0
;   originOffsetYoverride,0
;   originOffsetZoverride,0
;   homeXdirOverride,-1
;   homeYdirOverride,-1
;   homeZdirOverride,-1
;   flipXoverride,1
;   flipYoverride,-1
;   flipZoverride,1
;   toolheadOffsets,0,0|34,0|0,0|0,0|0,0|0,0
;   overrideFirmwareConfiguration,1
;   firmwareTypeOverride,RepRap (Marlin/Repetier/Sprinter)
;   GPXconfigOverride,r2
;   baudRateOverride,115200
;   overridePrinterModels,1
;   printerModelsOverride
;   startingGcode,G28 F1200 ; home all axes,T0 ; switch to right extruder,G1 Z0.2 ; raise nozzle,G92 E0 ; zero extruder,G1 E3 F225 ; purge nozzle,G1 Y15 Z0.05 F1200 ; slow wipe,G1 Y20 Z0.25 ; lift,G92 E0 ; zero extruder again
;   layerChangeGcode,
;   retractionGcode,
;   toolChangeGcode,
;   endingGcode,M104 S0 T0 ; turn off right extruder,M104 S0 T1 ; turn off left extruder,M140 S0 T0 ; turn off bed,G1 Z200 F1200 ; drop bed,G28 X0 ; home X axis,M84 ; disable motors
;   exportFileFormat,gcode
;   celebration,0
;   celebrationSong,Random Song
;   postProcessing,
;   defaultSpeed,3000
;   outlineUnderspeed,0.5
;   solidInfillUnderspeed,0.8
;   supportUnderspeed,0.8
;   rapidXYspeed,4800
;   rapidZspeed,1002
;   minBridgingArea,50
;   bridgingExtraInflation,0
;   bridgingExtrusionMultiplier,1
;   bridgingSpeedMultiplier,1
;   useFixedBridgingAngle,0
;   fixedBridgingAngle,0
;   applyBridgingToPerimeters,0
;   filamentDiameters,1.75|1.75|1.75|1.75|1.75|1.75
;   filamentPricesPerKg,46|46|46|46|46|46
;   filamentDensities,1.25|1.25|1.25|1.25|1.25|1.25
;   useMinPrintHeight,0
;   minPrintHeight,0
;   useMaxPrintHeight,0
;   maxPrintHeight,0
;   useDiaphragm,0
;   diaphragmLayerInterval,20
;   robustSlicing,1
;   mergeAllIntoSolid,0
;   onlyRetractWhenCrossingOutline,1
;   retractBetweenLayers,1
;   useRetractionMinTravel,0
;   retractionMinTravel,3
;   retractWhileWiping,0
;   onlyWipeOutlines,1
;   avoidCrossingOutline,0
;   maxMovementDetourFactor,3
;   toolChangeRetractionDistance,12
;   toolChangeExtraRestartDistance,-0.5
;   toolChangeRetractionSpeed,600
;   externalThinWallType,0
;   internalThinWallType,2
;   thinWallAllowedOverlapPercentage,10
;   singleExtrusionMinLength,1
;   singleExtrusionMinPrintingWidthPercentage,50
;   singleExtrusionMaxPrintingWidthPercentage,200
;   singleExtrusionEndpointExtension,0.2
;   horizontalSizeCompensation,0
G90
M82
M106 S255
G4 P500
M106 S0
M140 S60
M190 S60
M104 S210 T0
M104 S0 T1
M109 S210 T0
G28 F1200 ; home all axes
T0 ; switch to right extruder
G1 Z0.2 ; raise nozzle
G92 E0 ; zero extruder
G1 E3 F225 ; purge nozzle
G1 Y15 Z0.05 F1200 ; slow wipe
G1 Y20 Z0.25 ; lift
G92 E0 ; zero extruder again
G1 E-1.0000 F1800
G1 Z0.200 F1002
; process Process1
; layer 1, Z = 0.200
T0
; tool H0.200 W0.410
; outer perimeter
G1 X118.295 Y125.723 Z13.524 F4800
G1 E0.0000 F540
G1 X118.295 Y132.157 Z14.941 E0.2398 F336
G1 X111.705 Y132.157 Z14.941 E0.4493
G1 X111.705 Y125.723 Z13.524 E0.6739
G1 X118.295 Y125.723 Z13.524 E0.8987
; solid layer
G1 X117.885 Y131.743 Z14.847 F4800
G1 X112.115 Y131.743 Z14.847 E1.0954 F538
G1 X112.115 Y131.343 Z14.757 E1.1093
G1 X117.885 Y131.343 Z14.757 E1.3061
G1 X117.885 Y130.943 Z14.668 E1.32
G1 X112.115 Y130.943 Z14.668 E1.5167
G1 X112.115 Y130.543 Z14.578 E1.5307
G1 X117.885 Y130.543 Z14.578 E1.7274
G1 X117.885 Y130.143 Z14.489 E1.7414
G1 X112.115 Y130.143 Z14.489 E1.9381
G1 X112.115 Y129.743 Z14.4 E1.9521
G1 X117.885 Y129.743 Z14.4 E2.1488
G1 X117.885 Y129.343 Z14.312 E2.1628
G1 X112.115 Y129.343 Z14.312 E2.3595
G1 X112.115 Y128.942 Z14.224 E2.3735
G1 X117.885 Y128.942 Z14.224 E2.5702
G1 X117.885 Y128.542 Z14.136 E2.5841
G1 X112.115 Y128.542 Z14.136 E2.7809
G1 X112.115 Y128.142 Z14.048 E2.7948
G1 X117.885 Y128.142 Z14.048 E2.9915
G1 X117.885 Y127.741 Z13.961 E3.0055
G1 X112.115 Y127.741 Z13.961 E3.2022
G1 X112.115 Y127.341 Z13.873 E3.2162
G1 X117.885 Y127.341 Z13.873 E3.4129
G1 X117.885 Y126.94 Z13.787 E3.4269
G1 X112.115 Y126.94 Z13.787 E3.6236
G1 X112.115 Y126.539 Z13.7 E3.6376
G1 X117.885 Y126.539 Z13.7 E3.8343
G1 X117.885 Y126.139 Z13.614 E3.8483
G1 X112.115 Y126.139 Z13.614 E4.045
G1 E3.0450 F1800
; layer 2, Z = 0.400
M106 S255
; outer perimeter
G1 X118.295 Y132.113 Z15.136 F4800
G1 Z0.400 F1002
G1 E4.0450 F1800
G1 X111.705 Y132.113 Z15.136 E4.2696 F336
G1 X111.705 Y125.682 Z13.72 E4.4941
G1 X118.295 Y125.682 Z13.72 E4.719
G1 X118.295 Y132.113 Z15.136 E4.9434
; solid layer
G1 X112.13 Y131.713 Z15.046 F4800
G1 X112.13 Y126.082 Z13.806 E5.1402 F538
G1 X112.54 Y126.082 Z13.806 E5.1543
G1 X112.54 Y131.713 Z15.046 E5.3509
G1 X112.95 Y131.713 Z15.046 E5.365
G1 X112.95 Y126.082 Z13.806 E5.5616
G1 X113.36 Y126.082 Z13.806 E5.5757
G1 X113.36 Y131.713 Z15.046 E5.7723
G1 X113.77 Y131.713 Z15.046 E5.7864
G1 X113.77 Y126.082 Z13.806 E5.983
G1 X114.18 Y126.082 Z13.806 E5.9971
G1 X114.18 Y131.713 Z15.046 E6.1937
G1 X114.59 Y131.713 Z15.046 E6.2077
G1 X114.59 Y126.082 Z13.806 E6.4044
G1 X115.0 Y126.082 Z13.806 E6.4184
G1 X115.0 Y131.713 Z15.046 E6.615
G1 X115.41 Y131.713 Z15.046 E6.6291
G1 X115.41 Y126.082 Z13.806 E6.8257
G1 X115.82 Y126.082 Z13.806 E6.8398
G1 X115.82 Y131.713 Z15.046 E7.0364
G1 X116.23 Y131.713 Z15.046 E7.0505
G1 X116.23 Y126.082 Z13.806 E7.2471
G1 X116.64 Y126.082 Z13.806 E7.2612
G1 X116.64 Y131.713 Z15.046 E7.4578
G1 X117.05 Y131.713 Z15.046 E7.4719
G1 X117.05 Y126.082 Z13.806 E7.6685
G1 X117.46 Y126.082 Z13.806 E7.6826
G1 X117.46 Y131.713 Z15.046 E7.8792
G1 X117.87 Y131.713 Z15.046 E7.8932
G1 X117.87 Y126.082 Z13.806 E8.0898
G1 E7.0899 F1800
; layer 3, Z = 0.600
; outer perimeter
G1 X118.295 Y132.069 Z15.331 F4800
G1 Z0.600 F1002
G1 E8.0899 F1800
G1 X111.705 Y132.069 Z15.331 E8.3146 F300
G1 X111.705 Y125.64 Z13.915 E8.5391
G1 X118.295 Y125.64 Z13.915 E8.7639
G1 X118.295 Y132.069 Z15.331 E8.9884
; infill
G1 X117.885 Y131.255 Z15.148 F4800
G1 X112.115 Y131.255 Z15.148 E9.1853 F600
G1 X112.115 Y130.456 Z14.969 E9.2133
G1 X117.885 Y130.456 Z14.969 E9.41
G1 X117.885 Y129.656 Z14.791 E9.4379
G1 X112.115 Y129.656 Z14.791 E9.6346
G1 X112.115 Y128.856 Z14.614 E9.6626
G1 X117.885 Y128.856 Z14.614 E9.8593
G1 X117.885 Y128.056 Z14.439 E9.8873
G1 X112.115 Y128.056 Z14.439 E10.084
G1 X112.115 Y127.256 Z14.264 E10.1119
G1 X117.885 Y127.256 Z14.264 E10.3086
G1 X117.885 Y126.455 Z14.091 E10.3366
G1 X112.115 Y126.455 Z14.091 E10.5333
G1 E9.5333 F1800
; layer 4, Z = 0.800
; outer perimeter
G1 X111.705 Y125.598 Z14.111 F4800
G1 Z0.800 F1002
G1 E10.5333 F1800
G1 X118.295 Y125.598 Z14.111 E10.758 F300
G1 X118.295 Y132.025 Z15.526 E10.9823
G1 X111.705 Y132.025 Z15.526 E11.2073
G1 X111.705 Y125.598 Z14.111 E11.4316
; infill
G1 X117.46 Y125.998 Z14.197 F4800
G1 X117.46 Y131.626 Z15.436 E11.6285 F600
G1 X116.64 Y131.626 Z15.436 E11.6566
G1 X116.64 Y125.998 Z14.197 E11.8531
G1 X115.82 Y125.998 Z14.197 E11.8813
G1 X115.82 Y131.626 Z15.436 E12.0778
G1 X115.0 Y131.626 Z15.436 E12.1059
G1 X115.0 Y125.998 Z14.197 E12.3024
G1 X114.18 Y125.998 Z14.197 E12.3306
G1 X114.18 Y131.626 Z15.436 E12.5271
G1 X113.36 Y131.626 Z15.436 E12.5553
G1 X113.36 Y125.998 Z14.197 E12.7518
G1 X112.54 Y125.998 Z14.197 E12.7799
G1 X112.54 Y131.626 Z15.436 E12.9764
G1 E11.9766 F1800
; layer 5, Z = 1.000
; outer perimeter
G1 X118.295 Y131.981 Z15.721 F4800
G1 Z1.000 F1002
G1 E12.9766 F1800
G1 X111.705 Y131.981 Z15.721 E13.2013 F300
G1 X111.705 Y125.556 Z14.307 E13.4256
G1 X118.295 Y125.556 Z14.307 E13.6506
G1 X118.295 Y131.981 Z15.721 E13.8749
; infill
G1 X117.885 Y131.168 Z15.538 F4800
G1 X112.115 Y131.168 Z15.538 E14.072 F600
G1 X112.115 Y130.369 Z15.359 E14.1
G1 X117.885 Y130.369 Z15.359 E14.2967
G1 X117.885 Y129.57 Z15.181 E14.3246
G1 X112.115 Y129.57 Z15.181 E14.5213
G1 X112.115 Y128.77 Z15.005 E14.5493
G1 X117.885 Y128.77 Z15.005 E14.746
G1 X117.885 Y127.971 Z14.83 E14.7739
G1 X112.115 Y127.971 Z14.83 E14.9707
G1 X112.115 Y127.171 Z14.655 E14.9986
G1 X117.885 Y127.171 Z14.655 E15.1953
G1 X117.885 Y126.371 Z14.482 E15.2232
G1 X112.115 Y126.371 Z14.482 E15.42
G1 E14.4200 F1800
; layer 6, Z = 1.200
; outer perimeter
G1 X111.705 Y131.937 Z15.916 F4800
G1 Z1.200 F1002
G1 E15.4200 F1800
G1 X111.705 Y125.514 Z14.502 E15.6442 F300
G1 X118.295 Y125.514 Z14.502 E15.8693
G1 X118.295 Y131.937 Z15.916 E16.0935
G1 X111.705 Y131.937 Z15.916 E16.3186
; infill
G1 X112.54 Y131.538 Z15.826 F4800
G1 X112.54 Y125.914 Z14.588 E16.515 F600
G1 X113.36 Y125.914 Z14.588 E16.5433
G1 X113.36 Y131.538 Z15.826 E16.7396
G1 X114.18 Y131.538 Z15.826 E16.768
G1 X114.18 Y125.914 Z14.588 E16.9643
G1 X115.0 Y125.914 Z14.588 E16.9926
G1 X115.0 Y131.538 Z15.826 E17.1889
G1 X115.82 Y131.538 Z15.826 E17.2173
G1 X115.82 Y125.914 Z14.588 E17.4136
G1 X116.64 Y125.914 Z14.588 E17.442
G1 X116.64 Y131.538 Z15.826 E17.6383
G1 X117.46 Y131.538 Z15.826 E17.6666
G1 X117.46 Y125.914 Z14.588 E17.8629
G1 E16.8633 F1800
; layer 7, Z = 1.400
; outer perimeter
G1 X118.295 Y125.472 Z14.698 F4800
G1 Z1.400 F1002
G1 E17.8633 F1800
G1 X118.295 Y131.893 Z16.111 E18.0875 F300
G1 X111.705 Y131.893 Z16.111 E18.3127
G1 X111.705 Y125.472 Z14.698 E18.5368
G1 X118.295 Y125.472 Z14.698 E18.762
; infill
G1 X117.885 Y131.08 Z15.928 F4800
G1 X112.115 Y131.08 Z15.928 E18.9587 F600
G1 X112.115 Y130.282 Z15.75 E18.9866
G1 X117.885 Y130.282 Z15.75 E19.1834
G1 X117.885 Y129.483 Z15.572 E19.2113
G1 X112.115 Y129.483 Z15.572 E19.408
G1 X112.115 Y128.684 Z15.396 E19.4359
G1 X117.885 Y128.684 Z15.396 E19.6327
G1 X117.885 Y127.885 Z15.22 E19.6605
G1 X112.115 Y127.885 Z15.22 E19.8574
G1 X112.115 Y127.086 Z15.046 E19.8852
G1 X117.885 Y127.086 Z15.046 E20.082
G1 X117.885 Y126.286 Z14.873 E20.1099
G1 X112.115 Y126.286 Z14.873 E20.3067
G1 E19.3067 F1800
; layer 8, Z = 1.600
; outer perimeter
G1 X118.295 Y125.43 Z14.893 F4800
G1 Z1.600 F1002
G1 E20.3067 F1800
G1 X118.295 Y131.849 Z16.306 E20.5307 F300
G1 X111.705 Y131.849 Z16.306 E20.756
G1 X111.705 Y125.43 Z14.893 E20.9801
G1 X118.295 Y125.43 Z14.893 E21.2053
; infill
G1 X117.46 Y125.83 Z14.979 F4800
G1 X117.46 Y131.45 Z16.216 E21.4015 F600
G1 X116.64 Y131.45 Z16.216 E21.43
G1 X116.64 Y125.83 Z14.979 E21.6262
G1 X115.82 Y125.83 Z14.979 E21.6547
G1 X115.82 Y131.45 Z16.216 E21.8509
G1 X115.0 Y131.45 Z16.216 E21.8793
G1 X115.0 Y125.83 Z14.979 E22.0755
G1 X114.18 Y125.83 Z14.979 E22.104
G1 X114.18 Y131.45 Z16.216 E22.3002
G1 X113.36 Y131.45 Z16.216 E22.3287
G1 X113.36 Y125.83 Z14.979 E22.5249
G1 X112.54 Y125.83 Z14.979 E22.5533
G1 X112.54 Y131.45 Z16.216 E22.7495
G1 E21.7500 F1800
; layer 9, Z = 1.800
; outer perimeter
G1 X111.705 Y125.388 Z15.089 F4800
G1 Z1.800 F1002
G1 E22.7500 F1800
G1 X118.295 Y125.388 Z15.089 E22.9747 F300
G1 X118.295 Y131.805 Z16.501 E23.1987
G1 X111.705 Y131.805 Z16.501 E23.424
G1 X111.705 Y125.388 Z15.089 E23.648
; infill
G1 X112.115 Y126.202 Z15.264 F4800
G1 X117.885 Y126.202 Z15.264 E23.8454 F600
G1 X117.885 Y127.001 Z15.437 E23.8733
G1 X112.115 Y127.001 Z15.437 E24.0701
G1 X112.115 Y127.8 Z15.611 E24.0979
G1 X117.885 Y127.8 Z15.611 E24.2947
G1 X117.885 Y128.598 Z15.786 E24.3226
G1 X112.115 Y128.598 Z15.786 E24.5194
G1 X112.115 Y129.397 Z15.963 E24.5472
G1 X117.885 Y129.397 Z15.963 E24.7441
G1 X117.885 Y130.195 Z16.14 E24.7719
G1 X112.115 Y130.195 Z16.14 E24.9687
G1 X112.115 Y130.992 Z16.318 E24.9966
G1 X117.885 Y130.992 Z16.318 E25.1934
G1 E24.1934 F1800
; layer 10, Z = 2.000
; outer perimeter
G1 X118.295 Y131.761 Z16.696 F4800
G1 Z2.000 F1002
G1 E25.1934 F1800
G1 X111.705 Y131.761 Z16.696 E25.418 F300
G1 X111.705 Y125.346 Z15.284 E25.642
G1 X118.295 Y125.346 Z15.284 E25.8674
G1 X118.295 Y131.761 Z16.696 E26.0913
; infill
G1 X112.54 Y131.362 Z16.606 F4800
G1 X112.54 Y125.746 Z15.37 E26.288 F600
G1 X113.36 Y125.746 Z15.37 E26.3167
G1 X113.36 Y131.362 Z16.606 E26.5127
G1 X114.18 Y131.362 Z16.606 E26.5414
G1 X114.18 Y125.746 Z15.37 E26.7374
G1 X115.0 Y125.746 Z15.37 E26.766
G1 X115.0 Y131.362 Z16.606 E26.962
G1 X115.82 Y131.362 Z16.606 E26.9907
G1 X115.82 Y125.746 Z15.37 E27.1867
G1 X116.64 Y125.746 Z15.37 E27.2154
G1 X116.64 Y131.362 Z16.606 E27.4114
G1 X117.46 Y131.362 Z16.606 E27.44
G1 X117.46 Y125.746 Z15.37 E27.636
G1 E26.6367 F1800
; layer 11, Z = 2.200
; outer perimeter
G1 X118.295 Y131.717 Z16.891 F4800
G1 Z2.200 F1002
G1 E27.6367 F1800
G1 X111.705 Y131.717 Z16.891 E27.8614 F300
G1 X111.705 Y125.304 Z15.48 E28.0853
G1 X118.295 Y125.304 Z15.48 E28.3107
G1 X118.295 Y131.717 Z16.891 E28.5346
; infill
G1 X117.885 Y130.905 Z16.709 F4800
G1 X112.115 Y130.905 Z16.709 E28.7321 F600
G1 X112.115 Y130.108 Z16.53 E28.7599
G1 X117.885 Y130.108 Z16.53 E28.9568
G1 X117.885 Y129.31 Z16.353 E28.9846
G1 X112.115 Y129.31 Z16.353 E29.1814
G1 X112.115 Y128.512 Z16.177 E29.2093
