; G-Code generated by Simplify3D(R) Version 4.1.1
; Feb 1, 2019 at 3:57:39 PM
; Settings Summary
;   processName,Process1
;   applyToModels,pt01_r300_flatten
;   profileName,Raise3D Pro2 (modified)
;   profileVersion,2019-01-31 16:49:26
;   baseProfile,
;   printMaterial,PLA
;   printQuality,Medium
;   printExtruders,Right Extruder Only
;   extruderName,Right Extruder,Left Extruder
;   extruderToolheadNumber,1,0
;   extruderDiameter,0.6,0.6
;   extruderAutoWidth,0,0
;   extruderWidth,0.6,0.72
;   extrusionMultiplier,0.9,0.9
;   extruderUseRetract,1,1
;   extruderRetractionDistance,3,4
;   extruderExtraRestartDistance,0,0
;   extruderRetractionZLift,0,2
;   extruderRetractionSpeed,3000,3000
;   extruderUseCoasting,0,1
;   extruderCoastingDistance,0.2,0.4
;   extruderUseWipe,0,0
;   extruderWipeDistance,5,5
;   primaryExtruder,0
;   layerHeight,0.25
;   topSolidLayers,3
;   bottomSolidLayers,3
;   perimeterOutlines,2
;   printPerimetersInsideOut,0
;   startPointOption,2
;   startPointOriginX,0
;   startPointOriginY,0
;   sequentialIslands,0
;   spiralVaseMode,0
;   firstLayerHeightPercentage,100
;   firstLayerWidthPercentage,100
;   firstLayerUnderspeed,1
;   useRaft,0
;   raftExtruder,0
;   raftTopLayers,3
;   raftBaseLayers,2
;   raftOffset,3
;   raftSeparationDistance,0.14
;   raftTopInfill,100
;   aboveRaftSpeedMultiplier,0.3
;   useSkirt,0
;   skirtExtruder,0
;   skirtLayers,1
;   skirtOutlines,2
;   skirtOffset,4
;   usePrimePillar,0
;   primePillarExtruder,999
;   primePillarWidth,7
;   primePillarLocation,5
;   primePillarSpeedMultiplier,1
;   useOozeShield,0
;   oozeShieldExtruder,999
;   oozeShieldOffset,3
;   oozeShieldOutlines,1
;   oozeShieldSidewallShape,1
;   oozeShieldSidewallAngle,30
;   oozeShieldSpeedMultiplier,1
;   infillExtruder,0
;   internalInfillPattern,Grid
;   externalInfillPattern,Rectilinear
;   infillPercentage,15
;   outlineOverlapPercentage,40
;   infillExtrusionWidthPercentage,100
;   minInfillLength,0
;   infillLayerInterval,1
;   internalInfillAngles,45,-45
;   overlapInternalInfillAngles,1
;   externalInfillAngles,0,90
;   generateSupport,0
;   supportExtruder,0
;   supportInfillPercentage,30
;   supportExtraInflation,0
;   supportBaseLayers,0
;   denseSupportExtruder,0
;   denseSupportLayers,0
;   denseSupportInfillPercentage,70
;   supportLayerInterval,1
;   supportHorizontalPartOffset,0.3
;   supportUpperSeparationLayers,1
;   supportLowerSeparationLayers,1
;   supportType,0
;   supportGridSpacing,4
;   maxOverhangAngle,45
;   supportAngles,45,-45
;   temperatureName,Right Extruder,Left Extruder,Heated Bed
;   temperatureNumber,1,0,2
;   temperatureSetpointCount,1,1,1
;   temperatureSetpointLayers,1,1,1
;   temperatureSetpointTemperatures,210,0,60
;   temperatureStabilizeAtStartup,1,0,1
;   temperatureHeatedBed,0,0,1
;   fanLayers,1,3
;   fanSpeeds,60,100
;   blipFanToFullPower,1
;   adjustSpeedForCooling,1
;   minSpeedLayerTime,15
;   minCoolingSpeedSlowdown,20
;   increaseFanForCooling,0
;   minFanLayerTime,45
;   maxCoolingFanSpeed,100
;   increaseFanForBridging,0
;   bridgingFanSpeed,100
;   use5D,1
;   relativeEdistances,0
;   allowEaxisZeroing,1
;   independentExtruderAxes,0
;   includeM10123,0
;   stickySupport,1
;   applyToolheadOffsets,0
;   gcodeXoffset,0
;   gcodeYoffset,0
;   gcodeZoffset,0
;   overrideMachineDefinition,1
;   machineTypeOverride,0
;   strokeXoverride,280
;   strokeYoverride,305
;   strokeZoverride,300
;   originOffsetXoverride,-25
;   originOffsetYoverride,0
;   originOffsetZoverride,0
;   homeXdirOverride,-1
;   homeYdirOverride,-1
;   homeZdirOverride,-1
;   flipXoverride,1
;   flipYoverride,-1
;   flipZoverride,1
;   toolheadOffsets,0,0|-25,0|0,0|0,0|0,0|0,0
;   overrideFirmwareConfiguration,1
;   firmwareTypeOverride,RepRap (Marlin/Repetier/Sprinter)
;   GPXconfigOverride,r2
;   baudRateOverride,230400
;   overridePrinterModels,1
;   printerModelsOverride
;   startingGcode,M221 T1 S100,G28 X0 Y0,G28 Z0,T1,G1 X5 Y5 Z0.2 F2000,G92 E0,G1 X100 E30 F600,G1 X120 F5000,M117 Printing...,M1001
;   layerChangeGcode,
;   retractionGcode,
;   toolChangeGcode,
;   endingGcode,M107,M1002,M104 S0 T1,M104 S0 T0,M140 S0,M117 Print Complete.,G28 X0 Y0,G91,G1 Z10,G90,M84
;   exportFileFormat,gcode
;   celebration,0
;   celebrationSong,Random Song
;   postProcessing,
;   defaultSpeed,2400
;   outlineUnderspeed,1
;   solidInfillUnderspeed,1
;   supportUnderspeed,0.8
;   rapidXYspeed,6000
;   rapidZspeed,972
;   minBridgingArea,25
;   bridgingExtraInflation,0
;   bridgingExtrusionMultiplier,1
;   bridgingSpeedMultiplier,1
;   useFixedBridgingAngle,0
;   fixedBridgingAngle,0
;   applyBridgingToPerimeters,0
;   filamentDiameters,1.75|1.75|1.75|1.75|1.75|1.75
;   filamentPricesPerKg,46|46|46|46|46|46
;   filamentDensities,1.25|1.25|1.25|1.25|1.25|1.25
;   useMinPrintHeight,0
;   minPrintHeight,2.25
;   useMaxPrintHeight,0
;   maxPrintHeight,32
;   useDiaphragm,0
;   diaphragmLayerInterval,20
;   robustSlicing,1
;   mergeAllIntoSolid,0
;   onlyRetractWhenCrossingOutline,1
;   retractBetweenLayers,1
;   useRetractionMinTravel,0
;   retractionMinTravel,3
;   retractWhileWiping,0
;   onlyWipeOutlines,1
;   avoidCrossingOutline,0
;   maxMovementDetourFactor,3
;   toolChangeRetractionDistance,12
;   toolChangeExtraRestartDistance,-0.5
;   toolChangeRetractionSpeed,600
;   externalThinWallType,0
;   internalThinWallType,0
;   thinWallAllowedOverlapPercentage,0
;   singleExtrusionMinLength,0
;   singleExtrusionMinPrintingWidthPercentage,50
;   singleExtrusionMaxPrintingWidthPercentage,200
;   singleExtrusionEndpointExtension,0.2
;   horizontalSizeCompensation,0
G90
M82
M106 S255
G4 P500
M106 S153
M140 S60
M190 S60
M104 S0 T0
M104 S210 T1
M109 S210 T1
M221 T1 S100
G28 X0 Y0
G28 Z0
T1
G1 X5 Y5 Z0.2 F2000
G92 E0
G1 X100 E30 F600
G1 X120 F5000
M117 Printing...
M1001
; process Process1
; layer 1, Z = 0.250
T1
G92 E0.0000
G1 E-3.0000 F3000
; feature outer perimeter
; tool H0.250 W0.600
G1 X0 Y0 Z19.9995 I0.35698 J0 K0.93411 F972
G1 X1.2889 Y9.5016 Z18.7633 I0.34599 J0 K0.93824
G1 X4.5713 Y19.0032 Z17.5745 I0.33504 J0 K0.9422
G1 X7.8441 Y28.5048 Z16.432 I0.32412 J0 K0.94601
G1 X11.1073 Y38.0064 Z15.3349 I0.31324 J0 K0.94968
G1 X14.3612 Y47.508 Z14.2822 I0.30238 J0 K0.95319
G1 X17.6061 Y57.0097 Z13.273 I0.29156 J0 K0.95655
G1 X20.8422 Y66.5113 Z12.3065 I0.28076 J0 K0.95978
G1 X24.0698 Y76.0129 Z11.382 I0.26999 J0 K0.96286
G1 X27.2893 Y85.5145 Z10.4985 I0.25925 J0 K0.96581
G1 X30.5007 Y95.0161 Z9.6555 I0.24854 J0 K0.96862
G1 X33.7046 Y104.5177 Z8.8522 I0.23785 J0 K0.9713
G1 X36.901 Y114.0193 Z8.088 I0.22719 J0 K0.97385
G1 X39.1778 Y120.8 Z7.5662 I0.21959 J0 K0.97559 F6000
G1 E0.0000 F3000
G92 E0.0000
G1 X49.3699 Y120.8 Z5.4574 I0.18559 J0 K0.98263 E0.58416
G1 X59.5017 Y120.8 Z3.7232 I0.15179 J0 K0.98841 E1.1611
G1 X69.5838 Y120.8 Z2.3496 I0.11815 J0 K0.993 E1.7322
G1 X79.627 Y120.8 Z1.3258 I0.084647 J0 K0.99641 E2.2988
G1 X89.6421 Y120.8 Z0.6437 I0.051236 J0 K0.99869 E2.8622
G1 X99.6402 Y120.8 Z0.29792 I0.017881 J0 K0.99984 E3.4237
G1 X109.6323 Y120.8 Z0.2858 I-0.015454 J0 K0.99988 E3.9845
G1 X119.6296 Y120.8 Z0.60722 I-0.048806 J0 K0.99881 E4.5459
G1 X129.6431 Y120.8 Z1.2647 I-0.082212 J0 K0.99661 E5.1091
G1 X139.6839 Y120.8 Z2.2634 I-0.11571 J0 K0.99328 E5.6755
G1 X149.7628 Y120.8 Z3.6111 I-0.14933 J0 K0.98879 E6.2462
G1 X159.8906 Y120.8 Z5.3187 I-0.18312 J0 K0.98309 E6.8227
G1 X170.0779 Y120.8 Z7.3997 I-0.21711 J0 K0.97615 E7.4062
G1 X180.3349 Y120.8 Z9.8712 I-0.25133 J0 K0.9679 E7.9984
G1 X190.6714 Y120.8 Z12.7536 I-0.28581 J0 K0.95829 E8.6007
G1 X201.0965 Y120.8 Z16.0713 I-0.32059 J0 K0.94722 E9.2147
G1 X211.6186 Y120.8 Z19.8527 I-0.35569 J0 K0.9346 E9.8423
G1 X222.2451 Y120.8 Z24.1311 I-0.39114 J0 K0.92033 E10.4852
G1 X232.9818 Y120.8 Z28.9452 I-0.42696 J0 K0.90427 E11.1456
G1 X243.8328 Y120.8 Z34.3395 I-0.46316 J0 K0.88627 E11.8258
G1 X254.7996 Y120.8 Z40.3654 I-0.49975 J0 K0.86617 E12.5281
G1 X265.8806 Y120.8 Z47.0821 I-0.53672 J0 K0.84376 E13.2553
G1 X277.0699 Y120.8 Z54.5575 I-0.57404 J0 K0.81882 E14.0106
G1 X288.3559 Y120.8 Z62.8699 I-0.6117 J0 K0.79109 E14.7973
G1 X299.7197 Y120.8 Z72.109 I-0.64961 J0 K0.76027 E15.6193
G1 X300.5493 Y120.8 Z72.8205 I-0.65237 J0 K0.7579 E15.6807 F2400
G1 X300.5493 Y130.8 Z72.8205 I-0.65237 J0 K0.7579 E16.2419
G1 X300.5493 Y140.8 Z72.8205 I-0.65237 J0 K0.7579 E16.8032
G1 X300.5493 Y150.8 Z72.8205 I-0.65237 J0 K0.7579 E17.3645
G1 X300.5493 Y160.8 Z72.8205 I-0.65237 J0 K0.7579 E17.9258
G1 X300.5493 Y170.8 Z72.8205 I-0.65237 J0 K0.7579 E18.4871
G1 X300.5493 Y180.8 Z72.8205 I-0.65237 J0 K0.7579 E19.0483
G1 X300.5493 Y184.2 Z72.8205 I-0.65237 J0 K0.7579 E19.2392
G1 X289.1808 Y184.2 Z63.5101 I-0.61445 J0 K0.78896 E20.0639
G1 X277.8884 Y184.2 Z55.1334 I-0.57678 J0 K0.8169 E20.8531
G1 X266.6917 Y184.2 Z47.5998 I-0.53942 J0 K0.84204 E21.6105
G1 X255.6025 Y184.2 Z40.8303 I-0.50243 J0 K0.86462 E22.3397
G1 X244.6272 Y184.2 Z34.7562 I-0.46581 J0 K0.88488 E23.0437
G1 X233.7678 Y184.2 Z29.3177 I-0.42958 J0 K0.90303 E23.7254
G1 X223.0229 Y184.2 Z24.463 I-0.39374 J0 K0.91922 E24.3872
G1 X212.3886 Y184.2 Z20.1469 I-0.35826 J0 K0.93362 E25.0313
G1 X201.8591 Y184.2 Z16.3305 I-0.32313 J0 K0.94635 E25.6599
G1 X191.4272 Y184.2 Z12.9801 I-0.28833 J0 K0.95753 E26.2749
G1 X181.0846 Y184.2 Z10.0669 I-0.25383 J0 K0.96725 E26.8779
G1 X170.8222 Y184.2 Z7.5662 I-0.21959 J0 K0.97559 E27.4708
G1 X160.6301 Y184.2 Z5.4574 I-0.18559 J0 K0.98263 E28.0549
G1 X150.4983 Y184.2 Z3.7232 I-0.15179 J0 K0.98841 E28.6319
G1 X140.4162 Y184.2 Z2.3496 I-0.11815 J0 K0.993 E29.203
G1 X130.373 Y184.2 Z1.3258 I-0.084647 J0 K0.99641 E29.7696
G1 X120.3579 Y184.2 Z0.6437 I-0.051236 J0 K0.99869 E30.333
G1 X110.3598 Y184.2 Z0.29792 I-0.017881 J0 K0.99984 E30.8945
G1 X100.3677 Y184.2 Z0.2858 I0.015454 J0 K0.99988 E31.4553
G1 X90.3704 Y184.2 Z0.60722 I0.048806 J0 K0.99881 E32.0167
G1 X80.3569 Y184.2 Z1.2647 I0.082212 J0 K0.99661 E32.5799
G1 X70.3161 Y184.2 Z2.2634 I0.11571 J0 K0.99328 E33.1463
G1 X60.2372 Y184.2 Z3.6111 I0.14933 J0 K0.98879 E33.717
G1 X50.1094 Y184.2 Z5.3187 I0.18312 J0 K0.98309 E34.2935
G1 X39.9221 Y184.2 Z7.3997 I0.21711 J0 K0.97615 E34.877
G1 X39.1778 Y184.2 Z7.5662 I0.21959 J0 K0.97559 E34.9198
G1 X39.1778 Y174.2 Z7.5662 I0.21959 J0 K0.97559 E35.4811
G1 X39.1778 Y164.2 Z7.5662 I0.21959 J0 K0.97559 E36.0424
G1 X39.1778 Y154.2 Z7.5662 I0.21959 J0 K0.97559 E36.6036
G1 X39.1778 Y144.2 Z7.5662 I0.21959 J0 K0.97559 E37.1649
G1 X39.1778 Y134.2 Z7.5662 I0.21959 J0 K0.97559 E37.7261
G1 X39.1778 Y124.2 Z7.5662 I0.21959 J0 K0.97559 E38.2874
G1 X39.1778 Y120.8 Z7.5662 I0.21959 J0 K0.97559 E38.4782
; feature inner perimeter
G1 X39.7912 Y121.4 Z7.4288 I0.21754 J0 K0.97605 F6000
G92 E0.0000
G1 X49.9794 Y121.4 Z5.3429 I0.18356 J0 K0.98301 E0.58369
G1 X60.1079 Y121.4 Z3.6307 I0.14977 J0 K0.98872 E1.1602
G1 X70.1874 Y121.4 Z2.2784 I0.11614 J0 K0.99323 E1.731
G1 X80.2286 Y121.4 Z1.2753 I0.08264 J0 K0.99658 E2.2974
G1 X90.2424 Y121.4 Z0.6135 I0.049233 J0 K0.99879 E2.8607
G1 X100.2398 Y121.4 Z0.2878 I0.015881 J0 K0.99987 E3.4221
G1 X110.2319 Y121.4 Z0.29566 I-0.017454 J0 K0.99985 E3.9829
G1 X120.2298 Y121.4 Z0.63715 I-0.050808 J0 K0.99871 E4.5444
G1 X130.2447 Y121.4 Z1.3149 I-0.084219 J0 K0.99645 E5.1078
G1 X140.2874 Y121.4 Z2.3343 I-0.11772 J0 K0.99305 E5.6743
G1 X150.369 Y121.4 Z3.7033 I-0.15136 J0 K0.98848 E6.2454
G1 X160.5001 Y121.4 Z5.4329 I-0.18515 J0 K0.98271 E6.8222
G1 X170.6913 Y121.4 Z7.5368 I-0.21915 J0 K0.97569 E7.4063
G1 X180.9528 Y121.4 Z10.0324 I-0.25339 J0 K0.96736 E7.999
G1 X191.2943 Y121.4 Z12.9402 I-0.28789 J0 K0.95766 E8.6019
G1 X201.725 Y121.4 Z16.2848 I-0.32269 J0 K0.94651 E9.2167
G1 X212.2532 Y121.4 Z20.095 I-0.35781 J0 K0.93379 E9.8451
G1 X222.8861 Y121.4 Z24.4044 I-0.39328 J0 K0.91942 E10.4891
G1 X233.6296 Y121.4 Z29.252 I-0.42912 J0 K0.90325 E11.1506
G1 X244.4875 Y121.4 Z34.6827 I-0.46535 J0 K0.88513 E11.832
G1 X255.4613 Y121.4 Z40.7483 I-0.50196 J0 K0.86489 E12.5357
G1 X266.549 Y121.4 Z47.5085 I-0.53895 J0 K0.84234 E13.2646
G1 X277.7445 Y121.4 Z55.0318 I-0.5763 J0 K0.81724 E14.0217
G1 X289.0357 Y121.4 Z63.3971 I-0.61396 J0 K0.78933 E14.8104
G1 X299.8655 Y121.4 Z72.2337 I-0.65009 J0 K0.75985 E15.5949 F2400
G1 X299.8655 Y131.4 Z72.2337 I-0.65009 J0 K0.75985 E16.1562
G1 X299.8655 Y141.4 Z72.2337 I-0.65009 J0 K0.75985 E16.7174
G1 X299.8655 Y151.4 Z72.2337 I-0.65009 J0 K0.75985 E17.2787
G1 X299.8655 Y161.4 Z72.2337 I-0.65009 J0 K0.75985 E17.84
G1 X299.8655 Y171.4 Z72.2337 I-0.65009 J0 K0.75985 E18.4012
G1 X299.8655 Y181.4 Z72.2337 I-0.65009 J0 K0.75985 E18.9625
G1 X299.8655 Y183.6 Z72.2337 I-0.65009 J0 K0.75985 E19.086
G1 X288.5009 Y183.6 Z62.9821 I-0.61218 J0 K0.79072 E19.9085
G1 X277.2138 Y183.6 Z54.6585 I-0.57452 J0 K0.81849 E20.6956
G1 X266.0232 Y183.6 Z47.1728 I-0.53719 J0 K0.84346 E21.4513
G1 X254.9407 Y183.6 Z40.4469 I-0.50022 J0 K0.8659 E22.1789
G1 X243.9724 Y183.6 Z34.4125 I-0.46363 J0 K0.88603 E22.8815
G1 X233.1199 Y183.6 Z29.0104 I-0.42742 J0 K0.90405 E23.5619
G1 X222.3818 Y183.6 Z24.1892 I-0.3916 J0 K0.92014 E24.2226
G1 X211.7539 Y183.6 Z19.9042 I-0.35614 J0 K0.93443 E24.8657
G1 X201.2305 Y183.6 Z16.1167 I-0.32104 J0 K0.94707 E25.4934
G1 X190.8043 Y183.6 Z12.7933 I-0.28625 J0 K0.95815 E26.1076
G1 X180.4667 Y183.6 Z9.9055 I-0.25177 J0 K0.96779 E26.7101
G1 X170.2088 Y183.6 Z7.4288 I-0.21754 J0 K0.97605 E27.3023
G1 X160.0206 Y183.6 Z5.3429 I-0.18356 J0 K0.98301 E27.886
G1 X149.8921 Y183.6 Z3.6307 I-0.14977 J0 K0.98872 E28.4626
G1 X139.8126 Y183.6 Z2.2784 I-0.11614 J0 K0.99323 E29.0334
G1 X129.7714 Y183.6 Z1.2753 I-0.08264 J0 K0.99658 E29.5998
G1 X119.7576 Y183.6 Z0.6135 I-0.049233 J0 K0.99879 E30.163
G1 X109.7602 Y183.6 Z0.2878 I-0.015881 J0 K0.99987 E30.7244
G1 X99.7681 Y183.6 Z0.29566 I0.017454 J0 K0.99985 E31.2853
G1 X89.7702 Y183.6 Z0.63715 I0.050808 J0 K0.99871 E31.8467
G1 X79.7553 Y183.6 Z1.3149 I0.084219 J0 K0.99645 E32.4101
G1 X69.7126 Y183.6 Z2.3343 I0.11772 J0 K0.99305 E32.9767
G1 X59.631 Y183.6 Z3.7033 I0.15136 J0 K0.98848 E33.5477
G1 X49.4999 Y183.6 Z5.4329 I0.18515 J0 K0.98271 E34.1246
G1 X39.7912 Y183.6 Z7.4288 I0.21754 J0 K0.97605 E34.6809
G1 X39.7912 Y173.6 Z7.4288 I0.21754 J0 K0.97605 E35.2421
G1 X39.7912 Y163.6 Z7.4288 I0.21754 J0 K0.97605 E35.8034
G1 X39.7912 Y153.6 Z7.4288 I0.21754 J0 K0.97605 E36.3646
G1 X39.7912 Y143.6 Z7.4288 I0.21754 J0 K0.97605 E36.9259
G1 X39.7912 Y133.6 Z7.4288 I0.21754 J0 K0.97605 E37.4871
G1 X39.7912 Y123.6 Z7.4288 I0.21754 J0 K0.97605 E38.0484
G1 X39.7912 Y121.4 Z7.4288 I0.21754 J0 K0.97605 E38.1719
; feature solid layer
G1 X40.1592 Y121.9 Z7.3471 I0.21632 J0 K0.97632 F6000
G92 E0.0000
G1 X50.345 Y121.9 Z5.2749 I0.18234 J0 K0.98324 E0.5834
G1 X60.4716 Y121.9 Z3.5758 I0.14855 J0 K0.9889 E1.1597
G1 X70.5495 Y121.9 Z2.2363 I0.11493 J0 K0.99337 E1.7303
G1 X80.5895 Y121.9 Z1.2456 I0.081436 J0 K0.99668 E2.2966
G1 X90.6025 Y121.9 Z0.59597 I0.048032 J0 K0.99885 E2.8598
G1 X100.5995 Y121.9 Z0.2823 I0.014681 J0 K0.99989 E3.4211
G1 X110.5917 Y121.9 Z0.30216 I-0.018654 J0 K0.99983 E3.9819
G1 X120.59 Y121.9 Z0.65569 I-0.05201 J0 K0.99865 E4.5435
G1 X130.6057 Y121.9 Z1.3457 I-0.085423 J0 K0.99634 E5.1069
G1 X140.6496 Y121.9 Z2.3775 I-0.11893 J0 K0.9929 E5.6736
G1 X150.7328 Y121.9 Z3.7593 I-0.15257 J0 K0.98829 E6.2449
G1 X160.8659 Y121.9 Z5.502 I-0.18637 J0 K0.98248 E6.8219
G1 X171.0594 Y121.9 Z7.6197 I-0.22038 J0 K0.97541 E7.4063
G1 X181.3236 Y121.9 Z10.1297 I-0.25462 J0 K0.96704 E7.9994
G1 X191.6682 Y121.9 Z13.0528 I-0.28913 J0 K0.95729 E8.6027
G1 X202.1023 Y121.9 Z16.4137 I-0.32394 J0 K0.94608 E9.218
G1 X212.6341 Y121.9 Z20.2412 I-0.35908 J0 K0.93331 E9.8469
G1 X223.2709 Y121.9 Z24.5693 I-0.39457 J0 K0.91887 E10.4914
G1 X234.0185 Y121.9 Z29.4371 I-0.43042 J0 K0.90263 E11.1536
