; G-Code generated by Simplify3D(R) Version 4.0.0
; Feb 7, 2018 at 12:43:17 PM
; Settings Summary
;   processName,Process1
;   applyToModels,screwable
;   profileName,deposition
;   profileVersion,2017-12-15 14:36:55
;   baseProfile,Prusa i3
;   printMaterial,PLA
;   printQuality,deposition
;   printExtruders,
;   extruderName,Primary Extruder
;   extruderToolheadNumber,0
;   extruderDiameter,0.2
;   extruderAutoWidth,0
;   extruderWidth,0.2
;   extrusionMultiplier,1
;   extruderUseRetract,0
;   extruderRetractionDistance,6
;   extruderExtraRestartDistance,0
;   extruderRetractionZLift,0
;   extruderRetractionSpeed,3000
;   extruderUseCoasting,1
;   extruderCoastingDistance,0.2
;   extruderUseWipe,1
;   extruderWipeDistance,2
;   primaryExtruder,0
;   layerHeight,0.18
;   topSolidLayers,2
;   bottomSolidLayers,2
;   perimeterOutlines,2
;   printPerimetersInsideOut,1
;   startPointOption,2
;   startPointOriginX,0
;   startPointOriginY,0
;   sequentialIslands,0
;   spiralVaseMode,0
;   firstLayerHeightPercentage,100
;   firstLayerWidthPercentage,100
;   firstLayerUnderspeed,0.5
;   useRaft,0
;   raftExtruder,0
;   raftTopLayers,3
;   raftBaseLayers,2
;   raftOffset,3
;   raftSeparationDistance,0.14
;   raftTopInfill,100
;   aboveRaftSpeedMultiplier,0.3
;   useSkirt,1
;   skirtExtruder,0
;   skirtLayers,1
;   skirtOutlines,1
;   skirtOffset,4
;   usePrimePillar,0
;   primePillarExtruder,999
;   primePillarWidth,12
;   primePillarLocation,7
;   primePillarSpeedMultiplier,1
;   useOozeShield,0
;   oozeShieldExtruder,999
;   oozeShieldOffset,2
;   oozeShieldOutlines,1
;   oozeShieldSidewallShape,1
;   oozeShieldSidewallAngle,30
;   oozeShieldSpeedMultiplier,1
;   infillExtruder,0
;   internalInfillPattern,Rectilinear
;   externalInfillPattern,Rectilinear
;   infillPercentage,90
;   outlineOverlapPercentage,15
;   infillExtrusionWidthPercentage,100
;   minInfillLength,2
;   infillLayerInterval,1
;   internalInfillAngles,45,-45
;   overlapInternalInfillAngles,0
;   externalInfillAngles,90
;   generateSupport,0
;   supportExtruder,0
;   supportInfillPercentage,30
;   supportExtraInflation,0
;   supportBaseLayers,0
;   denseSupportExtruder,0
;   denseSupportLayers,0
;   denseSupportInfillPercentage,70
;   supportLayerInterval,1
;   supportHorizontalPartOffset,0.2
;   supportUpperSeparationLayers,1
;   supportLowerSeparationLayers,1
;   supportType,0
;   supportGridSpacing,4
;   maxOverhangAngle,45
;   supportAngles,0
;   temperatureName,Primary Extruder,Heated Bed
;   temperatureNumber,2,1
;   temperatureSetpointCount,1,1
;   temperatureSetpointLayers,1,1
;   temperatureSetpointTemperatures,280,50
;   temperatureStabilizeAtStartup,1,1
;   temperatureHeatedBed,0,1
;   temperatureRelayBetweenLayers,0,0
;   temperatureRelayBetweenLoops,0,0
;   fanLayers,1,2
;   fanSpeeds,0,100
;   blipFanToFullPower,1
;   adjustSpeedForCooling,1
;   minSpeedLayerTime,15
;   minCoolingSpeedSlowdown,20
;   increaseFanForCooling,0
;   minFanLayerTime,45
;   maxCoolingFanSpeed,100
;   increaseFanForBridging,1
;   bridgingFanSpeed,100
;   use5D,1
;   relativeEdistances,1
;   allowEaxisZeroing,1
;   independentExtruderAxes,0
;   includeM10123,0
;   stickySupport,1
;   applyToolheadOffsets,0
;   gcodeXoffset,0
;   gcodeYoffset,0
;   gcodeZoffset,0.4
;   overrideMachineDefinition,1
;   machineTypeOverride,0
;   strokeXoverride,200
;   strokeYoverride,200
;   strokeZoverride,175
;   originOffsetXoverride,0
;   originOffsetYoverride,0
;   originOffsetZoverride,0
;   homeXdirOverride,-1
;   homeYdirOverride,-1
;   homeZdirOverride,-1
;   flipXoverride,1
;   flipYoverride,-1
;   flipZoverride,1
;   toolheadOffsets,0,0|0,0|0,0|0,0|0,0|0,0
;   overrideFirmwareConfiguration,1
;   firmwareTypeOverride,RepRap (Marlin/Repetier/Sprinter)
;   GPXconfigOverride,r2
;   baudRateOverride,250000
;   overridePrinterModels,1
;   printerModelsOverride
;   startingGcode,G28 ; home all,G92 E0,G1 Z0.1 F1000,G1 X8.0 F2000,G1 Y60.0 E4.0 F1000.0 ; prime,G1 Y100.0 E8.5 F1000.0 ; prime,G92 E0
;   layerChangeGcode,
;   retractionGcode,
;   toolChangeGcode,
;   endingGcode,;M104 S0 ; turn off extruder,;M140 S0 ; turn off bed,G91 ; use relative coordinates,G1 Z0.6 F5000 ; lift nozzle by 0.6mm,G90 ; use absolute coordinates,G28 X0 ; home X axis,G1 Y195 ; move Y axis to end position,M84 ; disable motors,M107 ; turn off fan
;   exportFileFormat,gcode
;   celebration,0
;   celebrationSong,Random Song
;   postProcessing,
;   defaultSpeed,3000
;   outlineUnderspeed,0.5
;   solidInfillUnderspeed,0.8
;   supportUnderspeed,0.8
;   rapidXYspeed,3600
;   rapidZspeed,1002
;   minBridgingArea,50
;   bridgingExtraInflation,0
;   bridgingExtrusionMultiplier,1
;   bridgingSpeedMultiplier,1
;   useFixedBridgingAngle,0
;   fixedBridgingAngle,0
;   applyBridgingToPerimeters,0
;   filamentDiameters,1.75|1.75|1.75|1.75|1.75|1.75
;   filamentPricesPerKg,215|215|215|215|215|215
;   filamentDensities,1.25|1.25|1.25|1.25|1.25|1.25
;   useMinPrintHeight,0
;   minPrintHeight,0
;   useMaxPrintHeight,0
;   maxPrintHeight,0
;   useDiaphragm,0
;   diaphragmLayerInterval,20
;   robustSlicing,1
;   mergeAllIntoSolid,0
;   onlyRetractWhenCrossingOutline,0
;   retractBetweenLayers,1
;   useRetractionMinTravel,1
;   retractionMinTravel,3
;   retractWhileWiping,1
;   onlyWipeOutlines,1
;   avoidCrossingOutline,0
;   maxMovementDetourFactor,3
;   toolChangeRetractionDistance,12
;   toolChangeExtraRestartDistance,-0.5
;   toolChangeRetractionSpeed,600
;   externalThinWallType,0
;   internalThinWallType,2
;   thinWallAllowedOverlapPercentage,10
;   singleExtrusionMinLength,1
;   singleExtrusionMinPrintingWidthPercentage,50
;   singleExtrusionMaxPrintingWidthPercentage,200
;   singleExtrusionEndpointExtension,0.2
;   horizontalSizeCompensation,0
G90
M83
M106 S255
G4 P500
M106 S0
M140 S50
M190 S50
M104 S280 T2
M109 S280 T2
G28 ; home all
G92 E0
G1 Z0.1 F1000
G1 X8.0 F2000
G1 Y60.0 E4.0 F1000.0 ; prime
G1 Y100.0 E8.5 F1000.0 ; prime
G92 E0
G1 Z0.580 F1002
; process Process1
; layer 1, Z = 0.180
T0
; tool H0.180 W0.200
; skirt
G1 X86.119 Y41.784 F3600
G1 X88.490 Y39.412 E0.0502 F1500
G1 X88.527 Y39.397 E0.0006
G1 X96.963 Y39.397 E0.1263
G1 X96.999 Y39.412 E0.0006
G1 X99.371 Y41.784 E0.0502
G1 X99.386 Y41.820 E0.0006
G1 X99.386 Y47.938 E0.0916
G1 X101.252 Y50.036 E0.0420
G1 X101.261 Y50.051 E0.0003
G1 X101.790 Y51.443 E0.0223
G1 X101.794 Y51.460 E0.0003
G1 X101.794 Y63.248 E0.1764
G1 X101.778 Y63.285 E0.0006
G1 X99.407 Y65.656 E0.0502
G1 X99.370 Y65.671 E0.0006
G1 X94.844 Y65.671 E0.0677
G1 X94.842 Y67.253 E0.0237
G1 X94.827 Y67.289 E0.0006
G1 X92.456 Y69.656 E0.0501
G1 X92.419 Y69.671 E0.0006
G1 X86.119 Y69.671 E0.0943
G1 X86.082 Y69.656 E0.0006
G1 X83.711 Y67.285 E0.0502
G1 X83.696 Y67.248 E0.0006
G1 X83.696 Y51.460 E0.2363
G1 X83.699 Y51.443 E0.0003
G1 X84.228 Y50.051 E0.0223
G1 X84.237 Y50.036 E0.0003
G1 X86.103 Y47.938 E0.0420
G1 X86.103 Y41.981 E0.0892
G1 X86.103 Y41.820 F1500
G1 X86.119 Y41.784 F1500
; inner perimeter
G1 X90.503 Y43.797 F3600
G1 X94.986 Y43.797 E0.0671 F1125
G1 X94.986 Y49.611 E0.0870
G1 X97.394 Y52.319 E0.0542
G1 X97.394 Y61.271 E0.1340
G1 X95.045 Y61.271 E0.0352
G1 X95.045 Y55.657 E0.0840
G1 X95.027 Y55.374 E0.0043
G1 X94.933 Y54.956 E0.0064
G1 X94.761 Y54.558 E0.0065
G1 X94.520 Y54.204 E0.0064
G1 X94.319 Y53.990 E0.0044
G1 X94.093 Y53.802 E0.0044
G1 X93.724 Y53.584 E0.0064
G1 X93.317 Y53.438 E0.0065
G1 X92.894 Y53.371 E0.0064
G1 X92.600 Y53.371 E0.0044
G1 X92.309 Y53.407 E0.0044
G1 X91.902 Y53.526 E0.0063
G1 X91.636 Y53.651 E0.0044
G1 X91.392 Y53.806 E0.0043
G1 X91.170 Y53.990 E0.0043
G1 X90.969 Y54.204 E0.0044
G1 X90.731 Y54.554 E0.0063
G1 X90.606 Y54.820 E0.0044
G1 X90.516 Y55.095 E0.0043
G1 X90.462 Y55.378 E0.0043
G1 X90.445 Y55.657 E0.0042
G1 X90.445 Y65.271 E0.1439
G1 X88.096 Y65.271 E0.0352
G1 X88.096 Y52.319 E0.1939
G1 X90.503 Y49.611 E0.0542
G1 X90.503 Y43.997 E0.0840
G1 X90.503 Y43.797 F1125
; outer perimeter
G1 X90.303 Y43.597 F3600
G1 X95.186 Y43.597 E0.0731 F750
G1 X95.186 Y49.535 E0.0889
G1 X97.594 Y52.243 E0.0542
G1 X97.594 Y61.471 E0.1381
G1 X94.845 Y61.471 E0.0411
G1 X94.845 Y55.664 E0.0869
G1 X94.828 Y55.402 E0.0039
G1 X94.742 Y55.018 E0.0059
G1 X94.585 Y54.655 E0.0059
G1 X94.364 Y54.329 E0.0059
G1 X94.182 Y54.136 E0.0040
G1 X93.978 Y53.967 E0.0040
G1 X93.639 Y53.766 E0.0059
G1 X93.267 Y53.632 E0.0059
G1 X92.878 Y53.571 E0.0059
G1 X92.613 Y53.571 E0.0040
G1 X92.349 Y53.604 E0.0040
G1 X91.973 Y53.713 E0.0059
G1 X91.733 Y53.826 E0.0040
G1 X91.510 Y53.968 E0.0039
G1 X91.307 Y54.136 E0.0039
G1 X91.125 Y54.329 E0.0040
G1 X90.905 Y54.654 E0.0059
G1 X90.792 Y54.894 E0.0040
G1 X90.710 Y55.144 E0.0039
G1 X90.661 Y55.403 E0.0039
G1 X90.645 Y55.664 E0.0039
G1 X90.645 Y65.471 E0.1468
G1 X87.896 Y65.471 E0.0411
G1 X87.896 Y52.243 E0.1980
G1 X90.303 Y49.535 E0.0542
G1 X90.303 Y43.797 E0.0859
G1 X90.303 Y43.597 F750
G1 X95.186 Y43.597 F3000
G1 X95.186 Y44.715 F3000
; solid layer
G1 X97.145 Y52.295 F3600
G1 X97.145 Y61.101 E0.1318 F1200
G1 X96.945 Y61.101 E0.0030
G1 X96.945 Y52.070 E0.1352
G1 X96.745 Y51.845 E0.0045
G1 X96.745 Y61.101 E0.1385
G1 X96.545 Y61.101 E0.0030
G1 X96.545 Y51.620 E0.1419
G1 X96.345 Y51.395 E0.0045
G1 X96.345 Y61.101 E0.1453
G1 X96.145 Y61.101 E0.0030
G1 X96.145 Y51.170 E0.1486
G1 X95.945 Y50.945 E0.0045
G1 X95.945 Y61.101 E0.1520
G1 X95.745 Y61.101 E0.0030
G1 X95.745 Y50.720 E0.1554
G1 X95.545 Y50.495 E0.0045
G1 X95.545 Y61.101 E0.1587
G1 X95.345 Y61.101 E0.0030
G1 X95.345 Y50.271 E0.1621
G1 X95.145 Y50.046 E0.0045
G1 X95.145 Y55.122 E0.0760
G1 X95.096 Y54.903 E0.0034
G1 X94.945 Y54.554 E0.0057
G1 X94.945 Y49.821 E0.0708
G1 X94.816 Y49.676 E0.0029
G1 X94.816 Y43.967 E0.0854
G1 X94.745 Y43.967 E0.0011
G1 X94.745 Y54.231 E0.1536
G1 X94.653 Y54.097 E0.0024
G1 X94.545 Y53.981 E0.0024
G1 X94.545 Y43.967 E0.1499
G1 X94.345 Y43.967 E0.0030
G1 X94.345 Y53.790 E0.1470
G1 X94.191 Y53.663 E0.0030
G1 X94.145 Y53.635 E0.0008
G1 X94.145 Y43.967 E0.1447
G1 X93.945 Y43.967 E0.0030
G1 X93.945 Y53.517 E0.1429
G1 X93.797 Y53.430 E0.0026
G1 X93.745 Y53.411 E0.0008
G1 X93.745 Y43.967 E0.1413
G1 X93.545 Y43.967 E0.0030
G1 X93.545 Y53.339 E0.1403
G1 X93.359 Y53.272 E0.0029
G1 X93.345 Y53.270 E0.0002
G1 X93.345 Y43.967 E0.1392
G1 X93.145 Y43.967 E0.0030
G1 X93.145 Y53.238 E0.1388
G1 X92.945 Y53.207 E0.0030
G1 X92.945 Y43.967 E0.1383
G1 X92.745 Y43.967 E0.0030
G1 X92.745 Y53.201 E0.1382
G1 X92.589 Y53.201 E0.0023
G1 X92.545 Y53.206 E0.0007
G1 X92.545 Y43.967 E0.1383
G1 X92.345 Y43.967 E0.0030
G1 X92.345 Y53.232 E0.1387
G1 X92.274 Y53.240 E0.0011
G1 X92.145 Y53.278 E0.0020
G1 X92.145 Y43.967 E0.1394
G1 X91.945 Y43.967 E0.0030
G1 X91.945 Y53.336 E0.1402
G1 X91.841 Y53.366 E0.0016
G1 X91.745 Y53.412 E0.0016
G1 X91.745 Y43.967 E0.1414
G1 X91.545 Y43.967 E0.0030
G1 X91.545 Y53.507 E0.1428
G1 X91.345 Y53.634 E0.0035
G1 X91.345 Y43.967 E0.1447
G1 X91.145 Y43.967 E0.0030
G1 X91.145 Y53.790 E0.1470
G1 X91.053 Y53.866 E0.0018
G1 X90.945 Y53.981 E0.0024
G1 X90.945 Y43.967 E0.1499
G1 X90.745 Y43.967 E0.0030
G1 X90.745 Y54.231 E0.1536
G1 X90.582 Y54.470 E0.0043
G1 X90.545 Y54.550 E0.0013
G1 X90.545 Y49.821 E0.0708
G1 X90.345 Y50.046 E0.0045
G1 X90.345 Y55.087 E0.0755
G1 X90.293 Y55.357 E0.0041
G1 X90.275 Y55.652 E0.0044
G1 X90.275 Y65.101 E0.1414
G1 X90.145 Y65.101 E0.0019
G1 X90.145 Y50.271 E0.2220
G1 X89.945 Y50.495 E0.0045
G1 X89.945 Y65.101 E0.2186
G1 X89.745 Y65.101 E0.0030
G1 X89.745 Y50.720 E0.2152
G1 X89.545 Y50.945 E0.0045
G1 X89.545 Y65.101 E0.2119
G1 X89.345 Y65.101 E0.0030
G1 X89.345 Y51.170 E0.2085
G1 X89.145 Y51.395 E0.0045
G1 X89.145 Y65.101 E0.2051
G1 X88.945 Y65.101 E0.0030
G1 X88.945 Y51.620 E0.2018
G1 X88.745 Y51.845 E0.0045
G1 X88.745 Y65.101 E0.1984
G1 X88.545 Y65.101 E0.0030
G1 X88.545 Y52.070 E0.1950
G1 X88.345 Y52.294 E0.0045
G1 X88.345 Y64.901 E0.1887
G1 X88.345 Y65.101 F1200
; layer 2, Z = 0.360
M106 S255
; inner perimeter
G1 X88.096 Y65.271 F3600
G1 Z0.760 F1002
G1 X88.096 Y52.319 E0.1939 F2250
G1 X90.503 Y49.611 E0.0542
G1 X90.503 Y43.797 E0.0870
G1 X94.986 Y43.797 E0.0671
G1 X94.986 Y49.611 E0.0870
G1 X97.394 Y52.319 E0.0542
G1 X97.394 Y61.271 E0.1340
G1 X95.045 Y61.271 E0.0352
G1 X95.045 Y55.653 E0.0841
G1 X95.006 Y55.240 E0.0062
G1 X94.931 Y54.951 E0.0045
G1 X94.761 Y54.558 E0.0064
G1 X94.520 Y54.204 E0.0064
G1 X94.319 Y53.989 E0.0044
G1 X94.093 Y53.802 E0.0044
G1 X93.724 Y53.584 E0.0064
G1 X93.317 Y53.438 E0.0065
G1 X92.889 Y53.370 E0.0065
G1 X92.460 Y53.383 E0.0064
G1 X92.172 Y53.438 E0.0044
G1 X91.893 Y53.529 E0.0044
G1 X91.515 Y53.722 E0.0063
G1 X91.278 Y53.894 E0.0044
G1 X91.067 Y54.092 E0.0043
G1 X90.883 Y54.315 E0.0043
G1 X90.728 Y54.559 E0.0043
G1 X90.606 Y54.820 E0.0043
G1 X90.516 Y55.095 E0.0043
G1 X90.462 Y55.378 E0.0043
G1 X90.445 Y55.657 E0.0042
G1 X90.445 Y65.271 E0.1439
G1 X88.296 Y65.271 E0.0322
G1 X88.096 Y65.271 F2250
; outer perimeter
G1 X87.896 Y65.471 F3600
G1 X87.896 Y52.243 E0.1980 F1500
G1 X90.303 Y49.535 E0.0542
G1 X90.303 Y43.597 E0.0889
G1 X95.186 Y43.597 E0.0731
G1 X95.186 Y49.535 E0.0889
G1 X97.594 Y52.243 E0.0542
G1 X97.594 Y61.471 E0.1381
G1 X94.845 Y61.471 E0.0411
G1 X94.845 Y55.662 E0.0870
G1 X94.808 Y55.275 E0.0058
G1 X94.742 Y55.016 E0.0040
G1 X94.585 Y54.655 E0.0059
G1 X94.364 Y54.329 E0.0059
G1 X94.182 Y54.136 E0.0040
G1 X93.978 Y53.966 E0.0040
G1 X93.639 Y53.766 E0.0059
G1 X93.267 Y53.632 E0.0059
G1 X92.876 Y53.570 E0.0059
G1 X92.482 Y53.583 E0.0059
G1 X92.222 Y53.633 E0.0040
G1 X91.970 Y53.715 E0.0040
G1 X91.620 Y53.893 E0.0059
G1 X91.406 Y54.049 E0.0040
G1 X91.213 Y54.229 E0.0039
G1 X91.045 Y54.432 E0.0039
G1 X90.904 Y54.655 E0.0039
G1 X90.792 Y54.894 E0.0039
G1 X90.710 Y55.144 E0.0039
G1 X90.661 Y55.403 E0.0039
G1 X90.645 Y55.664 E0.0039
G1 X90.645 Y65.471 E0.1468
G1 X88.096 Y65.471 E0.0382
G1 X87.896 Y65.471 F1500
G1 X87.896 Y59.471 F3000
; solid layer
G1 X88.345 Y65.101 F3600
G1 X88.345 Y52.294 E0.1917 F2400
G1 X88.545 Y52.070 E0.0045
G1 X88.545 Y65.101 E0.1950
G1 X88.745 Y65.101 E0.0030
G1 X88.745 Y51.845 E0.1984
G1 X88.945 Y51.620 E0.0045
G1 X88.945 Y65.101 E0.2018
G1 X89.145 Y65.101 E0.0030
G1 X89.145 Y51.395 E0.2051
G1 X89.345 Y51.170 E0.0045
G1 X89.345 Y65.101 E0.2085
G1 X89.545 Y65.101 E0.0030
G1 X89.545 Y50.945 E0.2119
G1 X89.745 Y50.720 E0.0045
G1 X89.745 Y65.101 E0.2152
G1 X89.945 Y65.101 E0.0030
G1 X89.945 Y50.495 E0.2186
G1 X90.145 Y50.271 E0.0045
G1 X90.145 Y65.101 E0.2220
G1 X90.275 Y65.101 E0.0019
G1 X90.275 Y55.652 E0.1414
G1 X90.293 Y55.357 E0.0044
G1 X90.345 Y55.087 E0.0041
G1 X90.345 Y50.046 E0.0755
G1 X90.545 Y49.821 E0.0045
G1 X90.545 Y54.550 E0.0708
G1 X90.579 Y54.476 E0.0012
G1 X90.745 Y54.216 E0.0046
G1 X90.745 Y43.967 E0.1534
G1 X90.945 Y43.967 E0.0030
G1 X90.945 Y53.974 E0.1498
G1 X91.145 Y53.786 E0.0041
G1 X91.145 Y43.967 E0.1470
G1 X91.345 Y43.967 E0.0030
G1 X91.345 Y53.636 E0.1447
G1 X91.426 Y53.576 E0.0015
G1 X91.545 Y53.516 E0.0020
G1 X91.545 Y43.967 E0.1429
G1 X91.745 Y43.967 E0.0030
G1 X91.745 Y53.414 E0.1414
G1 X91.827 Y53.372 E0.0014
G1 X91.945 Y53.334 E0.0018
G1 X91.945 Y43.967 E0.1402
G1 X92.145 Y43.967 E0.0030
G1 X92.145 Y53.271 E0.1392
G1 X92.345 Y53.232 E0.0030
G1 X92.345 Y43.967 E0.1387
G1 X92.545 Y43.967 E0.0030
G1 X92.545 Y53.211 E0.1383
G1 X92.745 Y53.204 E0.0030
G1 X92.745 Y43.967 E0.1383
G1 X92.945 Y43.967 E0.0030
G1 X92.945 Y53.207 E0.1383
G1 X93.145 Y53.238 E0.0030
G1 X93.145 Y43.967 E0.1388
G1 X93.345 Y43.967 E0.0030
G1 X93.345 Y53.270 E0.1392
G1 X93.359 Y53.272 E0.0002
G1 X93.545 Y53.339 E0.0030
G1 X93.545 Y43.967 E0.1403
G1 X93.745 Y43.967 E0.0030
G1 X93.745 Y53.411 E0.1413
G1 X93.797 Y53.430 E0.0008
G1 X93.945 Y53.517 E0.0026
G1 X93.945 Y43.967 E0.1429
G1 X94.145 Y43.967 E0.0030
G1 X94.145 Y53.635 E0.1447
G1 X94.191 Y53.663 E0.0008
G1 X94.345 Y53.790 E0.0030
G1 X94.345 Y43.967 E0.1470
G1 X94.545 Y43.967 E0.0030
G1 X94.545 Y53.981 E0.1499
G1 X94.653 Y54.097 E0.0024
G1 X94.745 Y54.231 E0.0024
G1 X94.745 Y43.967 E0.1536
G1 X94.816 Y43.967 E0.0011
G1 X94.816 Y49.676 E0.0854
G1 X94.945 Y49.821 E0.0029
G1 X94.945 Y54.554 E0.0708
G1 X95.093 Y54.896 E0.0056
G1 X95.145 Y55.098 E0.0031
G1 X95.145 Y50.046 E0.0756
G1 X95.345 Y50.271 E0.0045
G1 X95.345 Y61.101 E0.1621
