; G-Code generated by Simplify3D(R) Version 4.0.1
; Mar 26, 2019 at 5:02:49 PM
; Settings Summary
;   processName,Process1
;   applyToModels,Support cube 1
;   profileName,deposition
;   profileVersion,2019-03-25 19:45:47
;   baseProfile,Prusa i3
;   printMaterial,PLA
;   printQuality,deposition
;   printExtruders,
;   extruderName,Primary Extruder,Second Extruder,Third Extruder
;   extruderToolheadNumber,0,1,2
;   extruderDiameter,0.25,0.25,0.25
;   extruderAutoWidth,0,0,0
;   extruderWidth,0.25,0.25,0.25
;   extrusionMultiplier,1,1,1
;   extruderUseRetract,0,1,0
;   extruderRetractionDistance,6,1,1
;   extruderExtraRestartDistance,0,0,0
;   extruderRetractionZLift,0,0,0
;   extruderRetractionSpeed,3000,1800,1800
;   extruderUseCoasting,1,1,0
;   extruderCoastingDistance,0.2,0.2,0.2
;   extruderUseWipe,1,0,1
;   extruderWipeDistance,2,5,5
;   primaryExtruder,0
;   layerHeight,0.2
;   topSolidLayers,1
;   bottomSolidLayers,1
;   perimeterOutlines,1
;   printPerimetersInsideOut,0
;   startPointOption,1
;   startPointOriginX,0
;   startPointOriginY,0
;   sequentialIslands,0
;   spiralVaseMode,0
;   firstLayerHeightPercentage,100
;   firstLayerWidthPercentage,100
;   firstLayerUnderspeed,1
;   useRaft,0
;   raftExtruder,0
;   raftTopLayers,3
;   raftBaseLayers,2
;   raftOffset,3
;   raftSeparationDistance,0.14
;   raftTopInfill,100
;   aboveRaftSpeedMultiplier,0.3
;   useSkirt,0
;   skirtExtruder,0
;   skirtLayers,1
;   skirtOutlines,2
;   skirtOffset,4
;   usePrimePillar,0
;   primePillarExtruder,999
;   primePillarWidth,12
;   primePillarLocation,7
;   primePillarSpeedMultiplier,1
;   useOozeShield,0
;   oozeShieldExtruder,999
;   oozeShieldOffset,2
;   oozeShieldOutlines,1
;   oozeShieldSidewallShape,1
;   oozeShieldSidewallAngle,30
;   oozeShieldSpeedMultiplier,1
;   infillExtruder,0
;   internalInfillPattern,Rectilinear
;   externalInfillPattern,Rectilinear
;   infillPercentage,40
;   outlineOverlapPercentage,99
;   infillExtrusionWidthPercentage,80
;   minInfillLength,2
;   infillLayerInterval,1
;   internalInfillAngles,45,-45
;   overlapInternalInfillAngles,0
;   externalInfillAngles,90,0
;   generateSupport,1
;   supportExtruder,0
;   supportInfillPercentage,30
;   supportExtraInflation,0
;   supportBaseLayers,0
;   denseSupportExtruder,0
;   denseSupportLayers,0
;   denseSupportInfillPercentage,70
;   supportLayerInterval,1
;   supportHorizontalPartOffset,0.2
;   supportUpperSeparationLayers,0
;   supportLowerSeparationLayers,0
;   supportType,0
;   supportGridSpacing,1
;   maxOverhangAngle,0
;   supportAngles,0,90
;   temperatureName,Primary Extruder,Heated Bed
;   temperatureNumber,2,1
;   temperatureSetpointCount,1,1
;   temperatureSetpointLayers,1,1
;   temperatureSetpointTemperatures,280,50
;   temperatureStabilizeAtStartup,1,1
;   temperatureHeatedBed,0,1
;   temperatureRelayBetweenLayers,0,0
;   temperatureRelayBetweenLoops,0,0
;   fanLayers,1,2
;   fanSpeeds,0,100
;   blipFanToFullPower,1
;   adjustSpeedForCooling,1
;   minSpeedLayerTime,15
;   minCoolingSpeedSlowdown,20
;   increaseFanForCooling,0
;   minFanLayerTime,45
;   maxCoolingFanSpeed,100
;   increaseFanForBridging,1
;   bridgingFanSpeed,100
;   use5D,1
;   relativeEdistances,1
;   allowEaxisZeroing,1
;   independentExtruderAxes,0
;   includeM10123,0
;   stickySupport,1
;   applyToolheadOffsets,0
;   gcodeXoffset,0
;   gcodeYoffset,0
;   gcodeZoffset,0
;   overrideMachineDefinition,1
;   machineTypeOverride,0
;   strokeXoverride,200
;   strokeYoverride,200
;   strokeZoverride,175
;   originOffsetXoverride,0
;   originOffsetYoverride,0
;   originOffsetZoverride,0
;   homeXdirOverride,-1
;   homeYdirOverride,-1
;   homeZdirOverride,-1
;   flipXoverride,1
;   flipYoverride,-1
;   flipZoverride,1
;   toolheadOffsets,0,0|0,0|0,0|0,0|0,0|0,0
;   overrideFirmwareConfiguration,1
;   firmwareTypeOverride,RepRap (Marlin/Repetier/Sprinter)
;   GPXconfigOverride,r2
;   baudRateOverride,250000
;   overridePrinterModels,1
;   printerModelsOverride
;   startingGcode,G28 ; home all,G92 E0,G1 Z0.1 F1000,G1 X8.0 F2000,G1 Y60.0 E4.0 F1000.0 ; prime,G1 Y100.0 E8.5 F1000.0 ; prime,G92 E0
;   layerChangeGcode,
;   retractionGcode,
;   toolChangeGcode,
;   endingGcode,;M104 S0 ; turn off extruder,;M140 S0 ; turn off bed,G91 ; use relative coordinates,G1 Z0.6 F5000 ; lift nozzle by 0.6mm,G90 ; use absolute coordinates,G28 X0 ; home X axis,G1 Y195 ; move Y axis to end position,M84 ; disable motors,M107 ; turn off fan
;   exportFileFormat,gcode
;   celebration,0
;   celebrationSong,Random Song
;   postProcessing,
;   defaultSpeed,3000
;   outlineUnderspeed,0.5
;   solidInfillUnderspeed,0.8
;   supportUnderspeed,0.8
;   rapidXYspeed,3600
;   rapidZspeed,1002
;   minBridgingArea,10
;   bridgingExtraInflation,0
;   bridgingExtrusionMultiplier,1
;   bridgingSpeedMultiplier,1
;   useFixedBridgingAngle,0
;   fixedBridgingAngle,0
;   applyBridgingToPerimeters,0
;   filamentDiameters,1.75|1.75|1.75|1.75|1.75|1.75
;   filamentPricesPerKg,215|215|215|215|215|215
;   filamentDensities,1.25|1.25|1.25|1.25|1.25|1.25
;   useMinPrintHeight,0
;   minPrintHeight,0
;   useMaxPrintHeight,0
;   maxPrintHeight,0
;   useDiaphragm,0
;   diaphragmLayerInterval,20
;   robustSlicing,1
;   mergeAllIntoSolid,0
;   onlyRetractWhenCrossingOutline,0
;   retractBetweenLayers,1
;   useRetractionMinTravel,1
;   retractionMinTravel,3
;   retractWhileWiping,1
;   onlyWipeOutlines,1
;   avoidCrossingOutline,0
;   maxMovementDetourFactor,3
;   toolChangeRetractionDistance,12
;   toolChangeExtraRestartDistance,-0.5
;   toolChangeRetractionSpeed,600
;   externalThinWallType,0
;   internalThinWallType,2
;   thinWallAllowedOverlapPercentage,10
;   singleExtrusionMinLength,1
;   singleExtrusionMinPrintingWidthPercentage,50
;   singleExtrusionMaxPrintingWidthPercentage,200
;   singleExtrusionEndpointExtension,0.2
;   horizontalSizeCompensation,0
G90
M83
M106 S255
G4 P500
M106 S0
M140 S50
M190 S50
M104 S280 T2
M109 S280 T2
G28 ; home all
G92 E0
G1 Z0.1 F1000
G1 X8.0 F2000
G1 Y60.0 E4.0 F1000.0 ; prime
G1 Y100.0 E8.5 F1000.0 ; prime
G92 E0
G1 Z0.200 F1002
; process Process1
; layer 1, Z = 0.200
T0
; tool H0.200 W0.250
; outer perimeter
G1 X69.875 Y50.125 F3600
G1 X69.875 Y69.875 E0.4106 F1500
G1 X50.125 Y69.875 E0.4106
G1 X50.125 Y50.125 E0.4106
G1 X69.675 Y50.125 E0.4064
G1 X69.875 Y50.125 F1500
G1 X69.875 Y56.125 F3000
; solid layer
G1 X69.750 Y50.127 F3600
G1 X69.750 Y69.873 E0.4105 F2400
G1 X69.500 Y69.873 E0.0052
G1 X69.500 Y50.127 E0.4105
G1 X69.250 Y50.127 E0.0052
G1 X69.250 Y69.873 E0.4105
G1 X69.000 Y69.873 E0.0052
G1 X69.000 Y50.127 E0.4105
G1 X68.750 Y50.127 E0.0052
G1 X68.750 Y69.873 E0.4105
G1 X68.500 Y69.873 E0.0052
G1 X68.500 Y50.127 E0.4105
G1 X68.250 Y50.127 E0.0052
G1 X68.250 Y69.873 E0.4105
G1 X68.000 Y69.873 E0.0052
G1 X68.000 Y50.127 E0.4105
G1 X67.750 Y50.127 E0.0052
G1 X67.750 Y69.873 E0.4105
G1 X67.500 Y69.873 E0.0052
G1 X67.500 Y50.127 E0.4105
G1 X67.250 Y50.127 E0.0052
G1 X67.250 Y69.873 E0.4105
G1 X67.000 Y69.873 E0.0052
G1 X67.000 Y50.127 E0.4105
G1 X66.750 Y50.127 E0.0052
G1 X66.750 Y69.873 E0.4105
G1 X66.500 Y69.873 E0.0052
G1 X66.500 Y50.127 E0.4105
G1 X66.250 Y50.127 E0.0052
G1 X66.250 Y69.873 E0.4105
G1 X66.000 Y69.873 E0.0052
G1 X66.000 Y50.127 E0.4105
G1 X65.750 Y50.127 E0.0052
G1 X65.750 Y69.873 E0.4105
G1 X65.500 Y69.873 E0.0052
G1 X65.500 Y50.127 E0.4105
G1 X65.250 Y50.127 E0.0052
G1 X65.250 Y69.873 E0.4105
G1 X65.000 Y69.873 E0.0052
G1 X65.000 Y50.127 E0.4105
G1 X64.750 Y50.127 E0.0052
G1 X64.750 Y69.873 E0.4105
G1 X64.500 Y69.873 E0.0052
G1 X64.500 Y50.127 E0.4105
G1 X64.250 Y50.127 E0.0052
G1 X64.250 Y69.873 E0.4105
G1 X64.000 Y69.873 E0.0052
G1 X64.000 Y50.127 E0.4105
G1 X63.750 Y50.127 E0.0052
G1 X63.750 Y69.873 E0.4105
G1 X63.500 Y69.873 E0.0052
G1 X63.500 Y50.127 E0.4105
G1 X63.250 Y50.127 E0.0052
G1 X63.250 Y69.873 E0.4105
G1 X63.000 Y69.873 E0.0052
G1 X63.000 Y50.127 E0.4105
G1 X62.750 Y50.127 E0.0052
G1 X62.750 Y69.873 E0.4105
G1 X62.500 Y69.873 E0.0052
G1 X62.500 Y50.127 E0.4105
G1 X62.250 Y50.127 E0.0052
G1 X62.250 Y69.873 E0.4105
G1 X62.000 Y69.873 E0.0052
G1 X62.000 Y50.127 E0.4105
G1 X61.750 Y50.127 E0.0052
G1 X61.750 Y69.873 E0.4105
G1 X61.500 Y69.873 E0.0052
G1 X61.500 Y50.127 E0.4105
G1 X61.250 Y50.127 E0.0052
G1 X61.250 Y69.873 E0.4105
G1 X61.000 Y69.873 E0.0052
G1 X61.000 Y50.127 E0.4105
G1 X60.750 Y50.127 E0.0052
G1 X60.750 Y69.873 E0.4105
G1 X60.500 Y69.873 E0.0052
G1 X60.500 Y50.127 E0.4105
G1 X60.250 Y50.127 E0.0052
G1 X60.250 Y69.873 E0.4105
G1 X60.000 Y69.873 E0.0052
G1 X60.000 Y50.127 E0.4105
G1 X59.750 Y50.127 E0.0052
G1 X59.750 Y69.873 E0.4105
G1 X59.500 Y69.873 E0.0052
G1 X59.500 Y50.127 E0.4105
G1 X59.250 Y50.127 E0.0052
G1 X59.250 Y69.873 E0.4105
G1 X59.000 Y69.873 E0.0052
G1 X59.000 Y50.127 E0.4105
G1 X58.750 Y50.127 E0.0052
G1 X58.750 Y69.873 E0.4105
G1 X58.500 Y69.873 E0.0052
G1 X58.500 Y50.127 E0.4105
G1 X58.250 Y50.127 E0.0052
G1 X58.250 Y69.873 E0.4105
G1 X58.000 Y69.873 E0.0052
G1 X58.000 Y50.127 E0.4105
G1 X57.750 Y50.127 E0.0052
G1 X57.750 Y69.873 E0.4105
G1 X57.500 Y69.873 E0.0052
G1 X57.500 Y50.127 E0.4105
G1 X57.250 Y50.127 E0.0052
G1 X57.250 Y69.873 E0.4105
G1 X57.000 Y69.873 E0.0052
G1 X57.000 Y50.127 E0.4105
G1 X56.750 Y50.127 E0.0052
G1 X56.750 Y69.873 E0.4105
G1 X56.500 Y69.873 E0.0052
G1 X56.500 Y50.127 E0.4105
G1 X56.250 Y50.127 E0.0052
G1 X56.250 Y69.873 E0.4105
G1 X56.000 Y69.873 E0.0052
G1 X56.000 Y50.127 E0.4105
G1 X55.750 Y50.127 E0.0052
G1 X55.750 Y69.873 E0.4105
G1 X55.500 Y69.873 E0.0052
G1 X55.500 Y50.127 E0.4105
G1 X55.250 Y50.127 E0.0052
G1 X55.250 Y69.873 E0.4105
G1 X55.000 Y69.873 E0.0052
G1 X55.000 Y50.127 E0.4105
G1 X54.750 Y50.127 E0.0052
G1 X54.750 Y69.873 E0.4105
G1 X54.500 Y69.873 E0.0052
G1 X54.500 Y50.127 E0.4105
G1 X54.250 Y50.127 E0.0052
G1 X54.250 Y69.873 E0.4105
G1 X54.000 Y69.873 E0.0052
G1 X54.000 Y50.127 E0.4105
G1 X53.750 Y50.127 E0.0052
G1 X53.750 Y69.873 E0.4105
G1 X53.500 Y69.873 E0.0052
G1 X53.500 Y50.127 E0.4105
G1 X53.250 Y50.127 E0.0052
G1 X53.250 Y69.873 E0.4105
G1 X53.000 Y69.873 E0.0052
G1 X53.000 Y50.127 E0.4105
G1 X52.750 Y50.127 E0.0052
G1 X52.750 Y69.873 E0.4105
G1 X52.500 Y69.873 E0.0052
G1 X52.500 Y50.127 E0.4105
G1 X52.250 Y50.127 E0.0052
G1 X52.250 Y69.873 E0.4105
G1 X52.000 Y69.873 E0.0052
G1 X52.000 Y50.127 E0.4105
G1 X51.750 Y50.127 E0.0052
G1 X51.750 Y69.873 E0.4105
G1 X51.500 Y69.873 E0.0052
G1 X51.500 Y50.127 E0.4105
G1 X51.250 Y50.127 E0.0052
G1 X51.250 Y69.873 E0.4105
G1 X51.000 Y69.873 E0.0052
G1 X51.000 Y50.127 E0.4105
G1 X50.750 Y50.127 E0.0052
G1 X50.750 Y69.873 E0.4105
G1 X50.500 Y69.873 E0.0052
G1 X50.500 Y50.127 E0.4105
G1 X50.250 Y50.127 E0.0052
G1 X50.250 Y69.672 E0.4063
G1 X50.250 Y69.873 F2400
; layer 2, Z = 0.400
M106 S255
; outer perimeter
G1 X69.875 Y69.875 F3600
G1 Z0.400 F1002
G1 X50.125 Y69.875 E0.4106 F1500
G1 X50.125 Y50.125 E0.4106
G1 X69.875 Y50.125 E0.4106
G1 X69.875 Y69.675 E0.4064
G1 X69.875 Y69.875 F1500
G1 X63.875 Y69.875 F3000
; tool H0.200 W0.200
; infill
G1 X69.897 Y69.194 F3600
G1 X69.194 Y69.897 E0.0165 F3000
G1 X68.487 Y69.897 E0.0118
G1 X69.897 Y68.487 E0.0332
G1 X69.897 Y67.780 E0.0118
G1 X67.780 Y69.897 E0.0498
G1 X67.073 Y69.897 E0.0118
G1 X69.897 Y67.073 E0.0664
G1 X69.897 Y66.366 E0.0118
G1 X66.366 Y69.897 E0.0831
G1 X65.659 Y69.897 E0.0118
G1 X69.897 Y65.659 E0.0997
G1 X69.897 Y64.952 E0.0118
G1 X64.952 Y69.897 E0.1163
G1 X64.245 Y69.897 E0.0118
G1 X69.897 Y64.245 E0.1329
G1 X69.897 Y63.538 E0.0118
G1 X63.538 Y69.897 E0.1496
G1 X62.830 Y69.897 E0.0118
G1 X69.897 Y62.830 E0.1662
G1 X69.897 Y62.123 E0.0118
G1 X62.123 Y69.897 E0.1828
G1 X61.416 Y69.897 E0.0118
G1 X69.897 Y61.416 E0.1995
G1 X69.897 Y60.709 E0.0118
G1 X60.709 Y69.897 E0.2161
G1 X60.002 Y69.897 E0.0118
G1 X69.897 Y60.002 E0.2327
G1 X69.897 Y59.295 E0.0118
G1 X59.295 Y69.897 E0.2494
G1 X58.588 Y69.897 E0.0118
G1 X69.897 Y58.588 E0.2660
G1 X69.897 Y57.881 E0.0118
G1 X57.881 Y69.897 E0.2826
G1 X57.174 Y69.897 E0.0118
G1 X69.897 Y57.174 E0.2992
G1 X69.897 Y56.466 E0.0118
G1 X56.466 Y69.897 E0.3159
G1 X55.759 Y69.897 E0.0118
G1 X69.897 Y55.759 E0.3325
G1 X69.897 Y55.052 E0.0118
G1 X55.052 Y69.897 E0.3491
G1 X54.345 Y69.897 E0.0118
G1 X69.897 Y54.345 E0.3658
G1 X69.897 Y53.638 E0.0118
G1 X53.638 Y69.897 E0.3824
G1 X52.931 Y69.897 E0.0118
G1 X69.897 Y52.931 E0.3990
G1 X69.897 Y52.224 E0.0118
G1 X52.224 Y69.897 E0.4157
G1 X51.517 Y69.897 E0.0118
G1 X69.897 Y51.517 E0.4323
G1 X69.897 Y50.810 E0.0118
G1 X50.810 Y69.897 E0.4489
G1 X50.103 Y69.897 E0.0118
G1 X69.897 Y50.103 E0.4655
G1 X69.190 Y50.102 E0.0118
G1 X50.102 Y69.190 E0.4489
G1 X50.102 Y68.483 E0.0118
G1 X68.483 Y50.102 E0.4323
G1 X67.776 Y50.102 E0.0118
G1 X50.102 Y67.776 E0.4157
G1 X50.102 Y67.069 E0.0118
G1 X67.069 Y50.102 E0.3990
G1 X66.362 Y50.102 E0.0118
G1 X50.102 Y66.362 E0.3824
G1 X50.102 Y65.655 E0.0118
G1 X65.655 Y50.102 E0.3658
G1 X64.948 Y50.102 E0.0118
G1 X50.102 Y64.948 E0.3491
G1 X50.102 Y64.241 E0.0118
G1 X64.241 Y50.103 E0.3325
G1 X63.534 Y50.102 E0.0118
G1 X50.102 Y63.534 E0.3159
G1 X50.102 Y62.826 E0.0118
G1 X62.826 Y50.103 E0.2992
G1 X62.119 Y50.102 E0.0118
G1 X50.102 Y62.119 E0.2826
G1 X50.102 Y61.412 E0.0118
G1 X61.412 Y50.102 E0.2660
G1 X60.705 Y50.102 E0.0118
G1 X50.102 Y60.705 E0.2494
G1 X50.102 Y59.998 E0.0118
G1 X59.998 Y50.102 E0.2327
G1 X59.291 Y50.102 E0.0118
G1 X50.102 Y59.291 E0.2161
G1 X50.102 Y58.584 E0.0118
G1 X58.584 Y50.102 E0.1995
G1 X57.877 Y50.102 E0.0118
G1 X50.102 Y57.877 E0.1828
G1 X50.102 Y57.170 E0.0118
G1 X57.170 Y50.102 E0.1662
G1 X56.463 Y50.102 E0.0118
G1 X50.102 Y56.463 E0.1496
G1 X50.102 Y55.755 E0.0118
G1 X55.755 Y50.102 E0.1329
G1 X55.048 Y50.102 E0.0118
G1 X50.102 Y55.048 E0.1163
G1 X50.102 Y54.341 E0.0118
G1 X54.341 Y50.102 E0.0997
G1 X53.634 Y50.102 E0.0118
G1 X50.102 Y53.634 E0.0831
G1 X50.102 Y52.927 E0.0118
G1 X52.927 Y50.102 E0.0664
G1 X52.220 Y50.102 E0.0118
G1 X50.102 Y52.220 E0.0498
G1 X50.102 Y51.513 E0.0118
G1 X51.513 Y50.102 E0.0332
G1 X50.806 Y50.102 E0.0118
G1 X50.244 Y50.664 E0.0132
G1 X50.102 Y50.806 F3000
; layer 3, Z = 0.600
; tool H0.200 W0.250
; outer perimeter
G1 X69.875 Y69.875 F3600
G1 Z0.600 F1002
G1 X50.125 Y69.875 E0.4106 F1500
G1 X50.125 Y50.125 E0.4106
G1 X69.875 Y50.125 E0.4106
G1 X69.875 Y69.675 E0.4064
G1 X69.875 Y69.875 F1500
G1 X63.875 Y69.875 F3000
; tool H0.200 W0.200
; infill
G1 X50.806 Y69.897 F3600
G1 X50.102 Y69.194 E0.0165 F3000
G1 X50.102 Y68.487 E0.0118
G1 X51.513 Y69.897 E0.0332
G1 X52.220 Y69.897 E0.0118
G1 X50.102 Y67.780 E0.0498
G1 X50.102 Y67.073 E0.0118
G1 X52.927 Y69.897 E0.0664
G1 X53.634 Y69.897 E0.0118
G1 X50.102 Y66.366 E0.0831
G1 X50.102 Y65.659 E0.0118
G1 X54.341 Y69.897 E0.0997
G1 X55.048 Y69.897 E0.0118
G1 X50.102 Y64.952 E0.1163
G1 X50.102 Y64.245 E0.0118
G1 X55.755 Y69.897 E0.1329
G1 X56.462 Y69.897 E0.0118
G1 X50.102 Y63.538 E0.1496
G1 X50.102 Y62.830 E0.0118
G1 X57.170 Y69.897 E0.1662
G1 X57.877 Y69.897 E0.0118
G1 X50.102 Y62.123 E0.1828
G1 X50.102 Y61.416 E0.0118
G1 X58.584 Y69.897 E0.1995
G1 X59.291 Y69.897 E0.0118
G1 X50.102 Y60.709 E0.2161
G1 X50.102 Y60.002 E0.0118
G1 X59.998 Y69.897 E0.2327
G1 X60.705 Y69.897 E0.0118
G1 X50.102 Y59.295 E0.2494
G1 X50.102 Y58.588 E0.0118
G1 X61.412 Y69.897 E0.2660
G1 X62.119 Y69.897 E0.0118
G1 X50.102 Y57.881 E0.2826
G1 X50.102 Y57.174 E0.0118
G1 X62.826 Y69.897 E0.2992
G1 X63.534 Y69.897 E0.0118
G1 X50.102 Y56.466 E0.3159
G1 X50.102 Y55.759 E0.0118
G1 X64.241 Y69.897 E0.3325
G1 X64.948 Y69.897 E0.0118
G1 X50.102 Y55.052 E0.3491
G1 X50.102 Y54.345 E0.0118
G1 X65.655 Y69.897 E0.3658
